(G-CODE GENERATED BY FLATCAM v8.994 - www.flatcam.org - Version Date: 2020/11/7)

(Name: Filter DualOp-PTH.drl_edit_cnc)
(Type: G-code from Geometry)
(Units: MM)

(Created on Thursday, 07 December 2023 at 18:38)

(This preprocessor is the default preprocessor used by FlatCAM.)
(It is made to work with MACH3 compatible motion controllers.)


(TOOLS DIAMETER: )
(Tool: 1 -> Dia: 0.8001)

(FEEDRATE Z: )
(Tool: 1 -> Feedrate: 60.0)

(FEEDRATE RAPIDS: )
(Tool: 1 -> Feedrate Rapids: 1500)

(Z_CUT: )
(Tool: 1 -> Z_Cut: -5.0)

(Tools Offset: )
(Tool: 1 -> Offset Z: 0.0)

(Z_MOVE: )
(Tool: 1 -> Z_Move: 2.0)

(Z Toolchange: 15 mm)
(X,Y Toolchange: 0.0000, 0.0000 mm)
(Z Start: None mm)
(Z End: 0.5 mm)
(X,Y End: None mm)
(Steps per circle: 64)
(Preprocessor Excellon: default)

(X range:    4.7050 ...   29.6351  mm)
(Y range:    3.4248 ...   25.8352  mm)

(Spindle Speed: 0 RPM)
G21
G90
G94

G01 F60.00

M5
G00 Z15.0000
T1
G00 X0.0000 Y0.0000                
M6
(MSG, Change to Tool Dia = 0.8001 ||| Total drills for tool T1 = 38)
M0
G00 Z15.0000

G01 F60.00
M03
G00 X5.1050 Y20.3450
G01 Z-5.0000
G01 Z0
G00 Z2.0000
G00 X7.6348 Y20.3552
G01 Z-5.0000
G01 Z0
G00 Z2.0000
G00 X7.6348 Y22.8952
G01 Z-5.0000
G01 Z0
G00 Z2.0000
G00 X7.6348 Y25.4352
G01 Z-5.0000
G01 Z0
G00 Z2.0000
G00 X15.2548 Y25.4352
G01 Z-5.0000
G01 Z0
G00 Z2.0000
G00 X15.2548 Y22.8952
G01 Z-5.0000
G01 Z0
G00 Z2.0000
G00 X15.2548 Y20.3552
G01 Z-5.0000
G01 Z0
G00 Z2.0000
G00 X15.2548 Y17.8152
G01 Z-5.0000
G01 Z0
G00 Z2.0000
G00 X17.9168 Y17.8050
G01 Z-5.0000
G01 Z0
G00 Z2.0000
G00 X17.9168 Y20.3044
G01 Z-5.0000
G01 Z0
G00 Z2.0000
G00 X21.6150 Y20.3450
G01 Z-5.0000
G01 Z0
G00 Z2.0000
G00 X21.6150 Y17.8050
G01 Z-5.0000
G01 Z0
G00 Z2.0000
G00 X25.4250 Y15.2650
G01 Z-5.0000
G01 Z0
G00 Z2.0000
G00 X25.4250 Y17.8050
G01 Z-5.0000
G01 Z0
G00 Z2.0000
G00 X25.4250 Y20.3450
G01 Z-5.0000
G01 Z0
G00 Z2.0000
G00 X29.2350 Y20.3857
G01 Z-5.0000
G01 Z0
G00 Z2.0000
G00 X29.2350 Y17.8457
G01 Z-5.0000
G01 Z0
G00 Z2.0000
G00 X29.2350 Y15.2650
G01 Z-5.0000
G01 Z0
G00 Z2.0000
G00 X29.2350 Y12.7657
G01 Z-5.0000
G01 Z0
G00 Z2.0000
G00 X25.3844 Y8.8744
G01 Z-5.0000
G01 Z0
G00 Z2.0000
G00 X27.8863 Y8.8744
G01 Z-5.0000
G01 Z0
G00 Z2.0000
G00 X27.8863 Y6.3750
G01 Z-5.0000
G01 Z0
G00 Z2.0000
G00 X25.3844 Y6.3750
G01 Z-5.0000
G01 Z0
G00 Z2.0000
G00 X22.8850 Y6.3750
G01 Z-5.0000
G01 Z0
G00 Z2.0000
G00 X22.8850 Y8.8744
G01 Z-5.0000
G01 Z0
G00 Z2.0000
G00 X17.8152 Y11.4449
G01 Z-5.0000
G01 Z0
G00 Z2.0000
G00 X17.8152 Y8.9049
G01 Z-5.0000
G01 Z0
G00 Z2.0000
G00 X17.8152 Y6.3649
G01 Z-5.0000
G01 Z0
G00 Z2.0000
G00 X17.8152 Y3.8249
G01 Z-5.0000
G01 Z0
G00 Z2.0000
G00 X10.1952 Y3.8249
G01 Z-5.0000
G01 Z0
G00 Z2.0000
G00 X10.1952 Y6.3649
G01 Z-5.0000
G01 Z0
G00 Z2.0000
G00 X10.1952 Y8.9049
G01 Z-5.0000
G01 Z0
G00 Z2.0000
G00 X10.1952 Y11.4449
G01 Z-5.0000
G01 Z0
G00 Z2.0000
G00 X6.3750 Y8.9150
G01 Z-5.0000
G01 Z0
G00 Z2.0000
G00 X6.3750 Y11.4550
G01 Z-5.0000
G01 Z0
G00 Z2.0000
G00 X5.1050 Y15.2650
G01 Z-5.0000
G01 Z0
G00 Z2.0000
G00 X7.6348 Y17.8152
G01 Z-5.0000
G01 Z0
G00 Z2.0000
G00 X5.1050 Y17.8050
G01 Z-5.0000
G01 Z0
G00 Z2.0000
M05
G00 Z0.50


