(G-CODE GENERATED BY FLATCAM v8.994 - www.flatcam.org - Version Date: 2020/11/7)

(Name: Filter DualOp-F_Cu.gbr_edit_iso_combined_cnc)
(Type: G-code from Geometry)
(Units: MM)

(Created on Thursday, 07 December 2023 at 18:38)

(This preprocessor is the default preprocessor used by FlatCAM.)
(It is made to work with MACH3 compatible motion controllers.)

(TOOL DIAMETER: 0.0354 mm)
(Feedrate_XY: 120.0 mm/min)
(Feedrate_Z: 60.0 mm/min)
(Feedrate rapids 1500.0 mm/min)

(Z_Cut: -0.1001 mm)
(Z_Move: 2.0 mm)
(Z Start: None mm)
(Z End: 15.0 mm)
(X,Y End: None mm)
(Steps per circle: 64)
(Preprocessor Geometry: default)

(X range:    0.8981 ...   30.7523  mm)
(Y range:    2.2972 ...   28.3619  mm)

(Spindle Speed: 0.0 RPM)
G21
G90
G94

G01 F120.00

M5
G00 Z15.0000
G00 X0.0000 Y0.0000
T1
M6    
(MSG, Change to Tool Dia = 0.0354)
M0
G00 Z15.0000

M03
G01 F120.00
G00 X0.8982 Y11.5832
G01 F60.00
G01 Z-0.1001
G01 F120.00
G01 X0.8994 Y11.5578
G01 X0.9033 Y11.5318
G01 X0.9097 Y11.5063
G01 X0.9185 Y11.4816
G01 X0.9298 Y11.4578
G01 X0.9433 Y11.4353
G01 X0.9589 Y11.4141
G01 X0.9766 Y11.3947
G01 X8.7356 Y3.6356
G01 X8.7548 Y3.6183
G01 X8.7770 Y3.6019
G01 X8.7988 Y3.5888
G01 X8.8225 Y3.5776
G01 X8.8481 Y3.5685
G01 X8.8728 Y3.5623
G01 X8.8988 Y3.5585
G01 X8.9250 Y3.5572
G01 X9.4234 Y3.5572
G01 X9.4397 Y3.5117
G01 X9.4737 Y3.4399
G01 X9.5154 Y3.3704
G01 X9.5635 Y3.3056
G01 X9.6168 Y3.2468
G01 X9.6759 Y3.1932
G01 X9.7407 Y3.1451
G01 X9.8103 Y3.1035
G01 X9.8821 Y3.0696
G01 X9.9568 Y3.0428
G01 X10.0359 Y3.0229
G01 X10.1157 Y3.0112
G01 X10.1950 Y3.0073
G01 X10.2743 Y3.0112
G01 X10.3545 Y3.0230
G01 X10.4324 Y3.0425
G01 X10.5079 Y3.0696
G01 X10.5812 Y3.1043
G01 X10.6493 Y3.1451
G01 X10.7131 Y3.1924
G01 X10.7729 Y3.2465
G01 X10.8271 Y3.3063
G01 X10.8749 Y3.3707
G01 X10.9162 Y3.4396
G01 X10.9505 Y3.5121
G01 X10.9775 Y3.5876
G01 X10.9970 Y3.6655
G01 X11.0088 Y3.7449
G01 X11.0127 Y3.8259
G01 X11.0088 Y3.9052
G01 X10.9970 Y3.9845
G01 X10.9775 Y4.0624
G01 X10.9501 Y4.1387
G01 X10.9162 Y4.2105
G01 X10.8744 Y4.2800
G01 X10.8271 Y4.3438
G01 X10.7738 Y4.4026
G01 X10.7144 Y4.4565
G01 X10.6493 Y4.5049
G01 X10.5805 Y4.5462
G01 X10.5079 Y4.5805
G01 X10.4315 Y4.6077
G01 X10.3537 Y4.6271
G01 X10.2752 Y4.6388
G01 X10.1959 Y4.6427
G01 X10.1149 Y4.6388
G01 X10.0351 Y4.6269
G01 X9.9568 Y4.6072
G01 X9.8821 Y4.5805
G01 X9.8103 Y4.5466
G01 X9.7407 Y4.5049
G01 X9.6759 Y4.4568
G01 X9.6168 Y4.4032
G01 X9.5635 Y4.3444
G01 X9.5154 Y4.2797
G01 X9.4737 Y4.2101
G01 X9.4397 Y4.1383
G01 X9.4234 Y4.0928
G01 X9.0359 Y4.0928
G01 X1.4338 Y11.6950
G01 X1.4338 Y22.6007
G01 X6.6594 Y27.8262
G01 X12.4850 Y27.8262
G01 X14.5200 Y25.7912
G01 X14.4994 Y25.7475
G01 X14.4727 Y25.6728
G01 X14.4531 Y25.5950
G01 X14.4412 Y25.5152
G01 X14.4373 Y25.4346
G01 X14.4414 Y25.3540
G01 X14.4530 Y25.2755
G01 X14.4723 Y25.1985
G01 X14.4996 Y25.1221
G01 X14.5337 Y25.0499
G01 X14.5751 Y24.9807
G01 X14.6229 Y24.9163
G01 X14.6768 Y24.8568
G01 X14.7370 Y24.8024
G01 X14.8007 Y24.7551
G01 X14.8688 Y24.7143
G01 X14.9413 Y24.6799
G01 X15.0176 Y24.6525
G01 X15.0955 Y24.6330
G01 X15.1757 Y24.6212
G01 X15.2550 Y24.6173
G01 X15.3352 Y24.6212
G01 X15.4145 Y24.6330
G01 X15.4915 Y24.6523
G01 X15.5687 Y24.6799
G01 X15.6405 Y24.7139
G01 X15.7093 Y24.7551
G01 X15.7738 Y24.8029
G01 X15.8326 Y24.8562
G01 X15.8876 Y24.9170
G01 X15.9349 Y24.9807
G01 X15.9762 Y25.0496
G01 X16.0108 Y25.1229
G01 X16.0375 Y25.1976
G01 X16.0570 Y25.2755
G01 X16.0688 Y25.3549
G01 X16.0727 Y25.4341
G01 X16.0687 Y25.5160
G01 X16.0570 Y25.5945
G01 X16.0375 Y25.6724
G01 X16.0105 Y25.7479
G01 X15.9766 Y25.8197
G01 X15.9344 Y25.8900
G01 X15.8871 Y25.9538
G01 X15.8335 Y26.0129
G01 X15.7731 Y26.0676
G01 X15.7093 Y26.1149
G01 X15.6405 Y26.1562
G01 X15.5679 Y26.1905
G01 X15.4932 Y26.2172
G01 X15.4141 Y26.2371
G01 X15.3352 Y26.2488
G01 X15.2559 Y26.2527
G01 X15.1744 Y26.2487
G01 X15.0955 Y26.2370
G01 X15.0181 Y26.2176
G01 X14.9425 Y26.1906
G01 X14.8988 Y26.1700
G01 X12.7850 Y28.2837
G01 X12.7659 Y28.3011
G01 X12.7455 Y28.3162
G01 X12.7222 Y28.3303
G01 X12.6977 Y28.3418
G01 X12.6737 Y28.3503
G01 X12.6491 Y28.3565
G01 X12.6222 Y28.3606
G01 X12.5960 Y28.3619
G01 X6.5484 Y28.3619
G01 X6.5222 Y28.3606
G01 X6.4962 Y28.3567
G01 X6.4707 Y28.3503
G01 X6.4459 Y28.3415
G01 X6.4222 Y28.3303
G01 X6.3996 Y28.3167
G01 X6.3785 Y28.3011
G01 X6.3594 Y28.2837
G01 X0.9766 Y22.9010
G01 X0.9589 Y22.8815
G01 X0.9428 Y22.8597
G01 X0.9298 Y22.8378
G01 X0.9189 Y22.8149
G01 X0.9098 Y22.7897
G01 X0.9031 Y22.7630
G01 X0.8994 Y22.7378
G01 X0.8981 Y22.7116
G01 X0.8982 Y11.5832
G00 Z2.0000
G00 X1.5977 Y11.8729
G01 F60.00
G01 Z-0.1001
G01 F120.00
G01 X1.5990 Y11.8476
G01 X1.6028 Y11.8216
G01 X1.6092 Y11.7961
G01 X1.6181 Y11.7713
G01 X1.6293 Y11.7476
G01 X1.6428 Y11.7250
G01 X1.6585 Y11.7039
G01 X1.6758 Y11.6847
G01 X4.6349 Y8.7256
G01 X4.6544 Y8.7080
G01 X4.6762 Y8.6919
G01 X4.6980 Y8.6788
G01 X4.7218 Y8.6676
G01 X4.7465 Y8.6587
G01 X4.7712 Y8.6525
G01 X4.7985 Y8.6484
G01 X4.8243 Y8.6472
G01 X5.6034 Y8.6472
G01 X5.6197 Y8.6017
G01 X5.6537 Y8.5299
G01 X5.6949 Y8.4611
G01 X5.7429 Y8.3963
G01 X5.7971 Y8.3365
G01 X5.8570 Y8.2824
G01 X5.9207 Y8.2351
G01 X5.9888 Y8.1943
G01 X6.0621 Y8.1596
G01 X6.1372 Y8.1327
G01 X6.2155 Y8.1130
G01 X6.2949 Y8.1012
G01 X6.3750 Y8.0973
G01 X6.4552 Y8.1012
G01 X6.5345 Y8.1130
G01 X6.6124 Y8.1325
G01 X6.6879 Y8.1596
G01 X6.7601 Y8.1937
G01 X6.8293 Y8.2351
G01 X6.8938 Y8.2829
G01 X6.9532 Y8.3368
G01 X7.0068 Y8.3959
G01 X7.0549 Y8.4607
G01 X7.0959 Y8.5292
G01 X7.1303 Y8.6017
G01 X7.1466 Y8.6472
G01 X9.4198 Y8.6472
G01 X9.4396 Y8.5921
G01 X9.4739 Y8.5196
G01 X9.5151 Y8.4507
G01 X9.5624 Y8.3870
G01 X9.6174 Y8.3262
G01 X9.6763 Y8.2729
G01 X9.7411 Y8.2249
G01 X9.8096 Y8.1839
G01 X9.8821 Y8.1496
G01 X9.9576 Y8.1225
G01 X10.0346 Y8.1032
G01 X10.1157 Y8.0912
G01 X10.1950 Y8.0873
G01 X10.2752 Y8.0912
G01 X10.3545 Y8.1030
G01 X10.4315 Y8.1223
G01 X10.5079 Y8.1496
G01 X10.5812 Y8.1843
G01 X10.6493 Y8.2251
G01 X10.7138 Y8.2729
G01 X10.7738 Y8.3274
G01 X10.8271 Y8.3863
G01 X10.8749 Y8.4507
G01 X10.9166 Y8.5203
G01 X10.9505 Y8.5921
G01 X10.9772 Y8.6668
G01 X10.9970 Y8.7455
G01 X11.0088 Y8.8249
G01 X11.0127 Y8.9050
G01 X11.0087 Y8.9860
G01 X10.9970 Y9.0645
G01 X10.9777 Y9.1415
G01 X10.9508 Y9.2171
G01 X10.9162 Y9.2905
G01 X10.8749 Y9.3593
G01 X10.8271 Y9.4238
G01 X10.7726 Y9.4838
G01 X10.7138 Y9.5371
G01 X10.6500 Y9.5844
G01 X10.5812 Y9.6257
G01 X10.5079 Y9.6605
G01 X10.4324 Y9.6875
G01 X10.3545 Y9.7070
G01 X10.2747 Y9.7188
G01 X10.1950 Y9.7227
G01 X10.1149 Y9.7188
G01 X10.0355 Y9.7070
G01 X9.9585 Y9.6877
G01 X9.8813 Y9.6601
G01 X9.8096 Y9.6262
G01 X9.7411 Y9.5851
G01 X9.6763 Y9.5371
G01 X9.6174 Y9.4838
G01 X9.5627 Y9.4234
G01 X9.5151 Y9.3593
G01 X9.4741 Y9.2909
G01 X9.4397 Y9.2183
G01 X9.4270 Y9.1828
G01 X7.1466 Y9.1828
G01 X7.1303 Y9.2283
G01 X7.0959 Y9.3009
G01 X7.0549 Y9.3693
G01 X7.0074 Y9.4334
G01 X6.9526 Y9.4938
G01 X6.8938 Y9.5471
G01 X6.8297 Y9.5947
G01 X6.7597 Y9.6366
G01 X6.6879 Y9.6705
G01 X6.6124 Y9.6975
G01 X6.5345 Y9.7170
G01 X6.4560 Y9.7287
G01 X6.3750 Y9.7327
G01 X6.2940 Y9.7287
G01 X6.2155 Y9.7170
G01 X6.1376 Y9.6975
G01 X6.0621 Y9.6705
G01 X5.9903 Y9.6366
G01 X5.9204 Y9.5947
G01 X5.8563 Y9.5471
G01 X5.7974 Y9.4938
G01 X5.7427 Y9.4334
G01 X5.6951 Y9.3693
G01 X5.6541 Y9.3009
G01 X5.6197 Y9.2283
G01 X5.6034 Y9.1828
G01 X4.9352 Y9.1828
G01 X2.1333 Y11.9847
G01 X2.1333 Y22.3109
G01 X6.9491 Y27.1267
G01 X10.6446 Y27.1267
G01 X13.7751 Y23.9961
G01 X13.7946 Y23.9785
G01 X13.8157 Y23.9628
G01 X13.8383 Y23.9493
G01 X13.8616 Y23.9382
G01 X13.8868 Y23.9292
G01 X13.9123 Y23.9228
G01 X13.9383 Y23.9190
G01 X13.9645 Y23.9177
G01 X17.6636 Y23.9177
G01 X20.8800 Y20.7012
G01 X20.8594 Y20.6575
G01 X20.8324 Y20.5820
G01 X20.8130 Y20.5045
G01 X20.8012 Y20.4247
G01 X20.7973 Y20.3450
G01 X20.8012 Y20.2649
G01 X20.8130 Y20.1855
G01 X20.8327 Y20.1072
G01 X20.8596 Y20.0321
G01 X20.8939 Y19.9596
G01 X20.9351 Y19.8907
G01 X20.9829 Y19.8263
G01 X21.0368 Y19.7668
G01 X21.0963 Y19.7129
G01 X21.1607 Y19.6651
G01 X21.2292 Y19.6241
G01 X21.3029 Y19.5892
G01 X21.3776 Y19.5625
G01 X21.4555 Y19.5430
G01 X21.5357 Y19.5312
G01 X21.6150 Y19.5273
G01 X21.6952 Y19.5312
G01 X21.7745 Y19.5430
G01 X21.8515 Y19.5623
G01 X21.9279 Y19.5896
G01 X22.0005 Y19.6239
G01 X22.0686 Y19.6647
G01 X22.1344 Y19.7135
G01 X22.1932 Y19.7668
G01 X22.2471 Y19.8263
G01 X22.2949 Y19.8907
G01 X22.3357 Y19.9588
G01 X22.3708 Y20.0329
G01 X22.3975 Y20.1076
G01 X22.4168 Y20.1846
G01 X22.4288 Y20.2657
G01 X22.4327 Y20.3450
G01 X22.4288 Y20.4252
G01 X22.4170 Y20.5045
G01 X22.3977 Y20.5815
G01 X22.3705 Y20.6579
G01 X22.3362 Y20.7305
G01 X22.2949 Y20.7993
G01 X22.2471 Y20.8638
G01 X22.1932 Y20.9232
G01 X22.1338 Y20.9771
G01 X22.0693 Y21.0249
G01 X22.0005 Y21.0662
G01 X21.9275 Y21.1006
G01 X21.8524 Y21.1275
G01 X21.7745 Y21.1470
G01 X21.6952 Y21.1588
G01 X21.6146 Y21.1627
G01 X21.5349 Y21.1588
G01 X21.4551 Y21.1469
G01 X21.3772 Y21.1274
G01 X21.3025 Y21.1006
G01 X21.2588 Y21.0800
G01 X17.9639 Y24.3749
G01 X17.9444 Y24.3925
G01 X17.9233 Y24.4082
G01 X17.9008 Y24.4217
G01 X17.8774 Y24.4328
G01 X17.8523 Y24.4418
G01 X17.8268 Y24.4482
G01 X17.8008 Y24.4520
G01 X17.7745 Y24.4533
G01 X14.0755 Y24.4533
G01 X10.9449 Y27.5839
G01 X10.9254 Y27.6016
G01 X10.9043 Y27.6172
G01 X10.8817 Y27.6307
G01 X10.8584 Y27.6418
G01 X10.8332 Y27.6508
G01 X10.8077 Y27.6572
G01 X10.7817 Y27.6611
G01 X10.7555 Y27.6624
G01 X6.8382 Y27.6624
G01 X6.8119 Y27.6611
G01 X6.7859 Y27.6572
G01 X6.7604 Y27.6508
G01 X6.7357 Y27.6420
G01 X6.7119 Y27.6307
G01 X6.6894 Y27.6172
G01 X6.6683 Y27.6016
G01 X6.6488 Y27.5839
G01 X1.6761 Y22.6112
G01 X1.6585 Y22.5917
G01 X1.6423 Y22.5699
G01 X1.6293 Y22.5481
G01 X1.6184 Y22.5251
G01 X1.6093 Y22.5000
G01 X1.6027 Y22.4732
G01 X1.5990 Y22.4481
G01 X1.5977 Y22.4218
G01 X1.5977 Y11.8729
G00 Z2.0000
G00 X6.3759 Y10.6373
G01 F60.00
G01 Z-0.1001
G01 F120.00
G01 X6.4552 Y10.6412
G01 X6.5337 Y10.6529
G01 X6.6124 Y10.6725
G01 X6.6879 Y10.6996
G01 X6.7597 Y10.7335
G01 X6.8297 Y10.7754
G01 X6.8938 Y10.8229
G01 X6.9526 Y10.8762
G01 X7.0074 Y10.9366
G01 X7.0549 Y11.0007
G01 X7.0959 Y11.0692
G01 X7.1303 Y11.1417
G01 X7.1466 Y11.1872
G01 X9.3773 Y11.1872
G01 X9.3773 Y10.6446
G01 X9.3777 Y10.6411
G01 X9.3788 Y10.6378
G01 X9.3805 Y10.6348
G01 X9.3828 Y10.6322
G01 X9.3855 Y10.6301
G01 X9.3886 Y10.6285
G01 X9.3920 Y10.6276
G01 X9.3950 Y10.6273
G01 X10.9950 Y10.6273
G01 X11.0006 Y10.6282
G01 X11.0052 Y10.6305
G01 X11.0092 Y10.6345
G01 X11.0118 Y10.6395
G01 X11.0127 Y10.6446
G01 X11.0127 Y11.1772
G01 X12.6241 Y11.1772
G01 X16.3761 Y7.4251
G01 X16.3956 Y7.4075
G01 X16.4160 Y7.3923
G01 X16.4400 Y7.3779
G01 X16.4638 Y7.3668
G01 X16.4878 Y7.3582
G01 X16.5124 Y7.3520
G01 X16.5392 Y7.3480
G01 X16.5655 Y7.3467
G01 X21.5346 Y7.3467
G01 X21.9748 Y6.9064
G01 X21.9696 Y6.8709
G01 X21.9673 Y6.8250
G01 X21.9673 Y5.9250
G01 X21.9697 Y5.8783
G01 X21.9763 Y5.8338
G01 X21.9877 Y5.7884
G01 X22.0029 Y5.7460
G01 X22.0221 Y5.7053
G01 X22.0457 Y5.6659
G01 X22.0735 Y5.6283
G01 X22.1043 Y5.5943
G01 X22.1383 Y5.5635
G01 X22.1748 Y5.5364
G01 X22.2153 Y5.5121
G01 X22.2560 Y5.4929
G01 X22.2984 Y5.4777
G01 X22.3438 Y5.4663
G01 X22.3900 Y5.4595
G01 X22.4350 Y5.4573
G01 X23.3350 Y5.4573
G01 X23.3809 Y5.4596
G01 X23.4254 Y5.4662
G01 X23.4708 Y5.4775
G01 X23.5148 Y5.4933
G01 X23.5555 Y5.5125
G01 X23.5941 Y5.5357
G01 X23.6324 Y5.5640
G01 X23.6657 Y5.5943
G01 X23.6960 Y5.6276
G01 X23.7239 Y5.6652
G01 X23.7475 Y5.7045
G01 X23.7668 Y5.7452
G01 X23.7827 Y5.7897
G01 X23.7939 Y5.8346
G01 X23.8005 Y5.8792
G01 X23.8027 Y5.9246
G01 X23.8027 Y6.8250
G01 X23.8005 Y6.8704
G01 X23.7937 Y6.9163
G01 X23.7828 Y6.9599
G01 X23.7668 Y7.0048
G01 X23.7475 Y7.0455
G01 X23.7239 Y7.0849
G01 X23.6965 Y7.1217
G01 X23.6657 Y7.1557
G01 X23.6317 Y7.1865
G01 X23.5949 Y7.2139
G01 X23.5555 Y7.2375
G01 X23.5148 Y7.2568
G01 X23.4699 Y7.2728
G01 X23.4263 Y7.2837
G01 X23.3809 Y7.2905
G01 X23.3350 Y7.2927
G01 X22.4350 Y7.2927
G01 X22.3892 Y7.2905
G01 X22.3536 Y7.2852
G01 X21.8346 Y7.8042
G01 X21.8147 Y7.8221
G01 X21.7943 Y7.8372
G01 X21.7725 Y7.8503
G01 X21.7480 Y7.8620
G01 X21.7232 Y7.8708
G01 X21.6978 Y7.8772
G01 X21.6726 Y7.8810
G01 X21.6455 Y7.8823
G01 X16.6764 Y7.8823
G01 X12.9244 Y11.6344
G01 X12.9046 Y11.6523
G01 X12.8838 Y11.6677
G01 X12.8613 Y11.6812
G01 X12.8375 Y11.6925
G01 X12.8136 Y11.7010
G01 X12.7864 Y11.7078
G01 X12.7613 Y11.7115
G01 X12.7354 Y11.7128
G01 X11.0127 Y11.7128
G01 X11.0127 Y12.2454
G01 X11.0117 Y12.2510
G01 X11.0090 Y12.2559
G01 X11.0048 Y12.2597
G01 X10.9997 Y12.2621
G01 X10.9950 Y12.2627
G01 X9.3950 Y12.2627
G01 X9.3895 Y12.2618
G01 X9.3848 Y12.2595
G01 X9.3808 Y12.2556
G01 X9.3782 Y12.2506
G01 X9.3773 Y12.2454
G01 X9.3773 Y11.7228
G01 X7.1466 Y11.7228
G01 X7.1303 Y11.7683
G01 X7.0959 Y11.8409
G01 X7.0549 Y11.9093
G01 X7.0068 Y11.9741
G01 X6.9532 Y12.0332
G01 X6.8938 Y12.0871
G01 X6.8293 Y12.1349
G01 X6.7601 Y12.1764
G01 X6.6879 Y12.2105
G01 X6.6124 Y12.2375
G01 X6.5345 Y12.2570
G01 X6.4552 Y12.2688
G01 X6.3750 Y12.2727
G01 X6.2949 Y12.2688
G01 X6.2155 Y12.2570
G01 X6.1368 Y12.2372
G01 X6.0621 Y12.2105
G01 X5.9896 Y12.1762
G01 X5.9207 Y12.1349
G01 X5.8563 Y12.0871
G01 X5.7968 Y12.0332
G01 X5.7429 Y11.9738
G01 X5.6951 Y11.9093
G01 X5.6543 Y11.8412
G01 X5.6192 Y11.7671
G01 X5.5925 Y11.6924
G01 X5.5729 Y11.6137
G01 X5.5612 Y11.5352
G01 X5.5573 Y11.4550
G01 X5.5612 Y11.3749
G01 X5.5729 Y11.2963
G01 X5.5925 Y11.2176
G01 X5.6192 Y11.1429
G01 X5.6543 Y11.0688
G01 X5.6951 Y11.0007
G01 X5.7429 Y10.9363
G01 X5.7968 Y10.8768
G01 X5.8563 Y10.8229
G01 X5.9207 Y10.7751
G01 X5.9896 Y10.7339
G01 X6.0621 Y10.6996
G01 X6.1368 Y10.6728
G01 X6.2163 Y10.6529
G01 X6.2949 Y10.6412
G01 X6.3759 Y10.6373
G00 Z2.0000
G00 X5.1059 Y16.9873
G01 F60.00
G01 Z-0.1001
G01 F120.00
G01 X5.1852 Y16.9912
G01 X5.2637 Y17.0029
G01 X5.3424 Y17.0225
G01 X5.4179 Y17.0496
G01 X5.4897 Y17.0835
G01 X5.5600 Y17.1256
G01 X5.6238 Y17.1729
G01 X5.6826 Y17.2262
G01 X5.7376 Y17.2870
G01 X5.7849 Y17.3507
G01 X5.8262 Y17.4196
G01 X5.8605 Y17.4921
G01 X5.8802 Y17.5472
G01 X6.8634 Y17.5472
G01 X6.8797 Y17.5017
G01 X6.9141 Y17.4292
G01 X6.9551 Y17.3607
G01 X7.0027 Y17.2966
G01 X7.0574 Y17.2362
G01 X7.1163 Y17.1829
G01 X7.1804 Y17.1354
G01 X7.2503 Y17.0935
G01 X7.3221 Y17.0596
G01 X7.3976 Y17.0325
G01 X7.4755 Y17.0130
G01 X7.5540 Y17.0014
G01 X7.6350 Y16.9973
G01 X7.7160 Y17.0014
G01 X7.7945 Y17.0130
G01 X7.8724 Y17.0325
G01 X7.9479 Y17.0596
G01 X8.0197 Y17.0935
G01 X8.0897 Y17.1354
G01 X8.1538 Y17.1829
G01 X8.2126 Y17.2362
G01 X8.2674 Y17.2966
G01 X8.3149 Y17.3607
G01 X8.3559 Y17.4292
G01 X8.3903 Y17.5017
G01 X8.4066 Y17.5472
G01 X11.3341 Y17.5472
G01 X17.0800 Y11.8012
G01 X17.0594 Y11.7575
G01 X17.0324 Y11.6820
G01 X17.0130 Y11.6045
G01 X17.0013 Y11.5256
G01 X16.9973 Y11.4450
G01 X17.0012 Y11.3657
G01 X17.0131 Y11.2851
G01 X17.0325 Y11.2076
G01 X17.0592 Y11.1329
G01 X17.0943 Y11.0588
G01 X17.1351 Y10.9907
G01 X17.1829 Y10.9263
G01 X17.2368 Y10.8668
G01 X17.2956 Y10.8135
G01 X17.3607 Y10.7651
G01 X17.4303 Y10.7235
G01 X17.5021 Y10.6896
G01 X17.5768 Y10.6628
G01 X17.6546 Y10.6432
G01 X17.7349 Y10.6312
G01 X17.8150 Y10.6273
G01 X17.8952 Y10.6312
G01 X17.9754 Y10.6432
G01 X18.0532 Y10.6628
G01 X18.1279 Y10.6896
G01 X18.1997 Y10.7235
G01 X18.2693 Y10.7651
G01 X18.3338 Y10.8129
G01 X18.3932 Y10.8668
G01 X18.4476 Y10.9270
G01 X18.4949 Y10.9907
G01 X18.5357 Y11.0588
G01 X18.5703 Y11.1317
G01 X18.5977 Y11.2085
G01 X18.6170 Y11.2855
G01 X18.6288 Y11.3649
G01 X18.6327 Y11.4450
G01 X18.6288 Y11.5243
G01 X18.6170 Y11.6045
G01 X18.5975 Y11.6824
G01 X18.5708 Y11.7571
G01 X18.5362 Y11.8305
G01 X18.4944 Y11.9000
G01 X18.4471 Y11.9638
G01 X18.3932 Y12.0232
G01 X18.3331 Y12.0776
G01 X18.2693 Y12.1249
G01 X18.2005 Y12.1662
G01 X18.1279 Y12.2005
G01 X18.0532 Y12.2272
G01 X17.9741 Y12.2471
G01 X17.8952 Y12.2588
G01 X17.8159 Y12.2627
G01 X17.7344 Y12.2587
G01 X17.6555 Y12.2470
G01 X17.5781 Y12.2276
G01 X17.5025 Y12.2006
G01 X17.4588 Y12.1800
G01 X11.6344 Y18.0044
G01 X11.6149 Y18.0220
G01 X11.5938 Y18.0377
G01 X11.5713 Y18.0512
G01 X11.5479 Y18.0623
G01 X11.5228 Y18.0713
G01 X11.4973 Y18.0777
G01 X11.4713 Y18.0815
G01 X11.4450 Y18.0828
G01 X8.4066 Y18.0828
G01 X8.3903 Y18.1283
G01 X8.3559 Y18.2009
G01 X8.3149 Y18.2693
G01 X8.2674 Y18.3334
G01 X8.2126 Y18.3938
G01 X8.1538 Y18.4471
G01 X8.0897 Y18.4947
G01 X8.0197 Y18.5366
G01 X7.9479 Y18.5705
G01 X7.8724 Y18.5975
G01 X7.7945 Y18.6170
G01 X7.7160 Y18.6287
G01 X7.6350 Y18.6327
G01 X7.5540 Y18.6287
G01 X7.4755 Y18.6170
G01 X7.3976 Y18.5975
G01 X7.3221 Y18.5705
G01 X7.2503 Y18.5366
G01 X7.1804 Y18.4947
G01 X7.1163 Y18.4471
G01 X7.0574 Y18.3938
G01 X7.0027 Y18.3334
G01 X6.9551 Y18.2693
G01 X6.9141 Y18.2009
G01 X6.8797 Y18.1283
G01 X6.8634 Y18.0828
G01 X5.8730 Y18.0828
G01 X5.8603 Y18.1183
G01 X5.8259 Y18.1909
G01 X5.7849 Y18.2593
G01 X5.7368 Y18.3241
G01 X5.6832 Y18.3832
G01 X5.6238 Y18.4371
G01 X5.5593 Y18.4849
G01 X5.4909 Y18.5259
G01 X5.4179 Y18.5605
G01 X5.3432 Y18.5872
G01 X5.2637 Y18.6071
G01 X5.1852 Y18.6188
G01 X5.1050 Y18.6227
G01 X5.0249 Y18.6188
G01 X4.9459 Y18.6071
G01 X4.8676 Y18.5875
G01 X4.7921 Y18.5605
G01 X4.7196 Y18.5262
G01 X4.6515 Y18.4854
G01 X4.5856 Y18.4365
G01 X4.5268 Y18.3832
G01 X4.4724 Y18.3231
G01 X4.4251 Y18.2593
G01 X4.3839 Y18.1905
G01 X4.3496 Y18.1179
G01 X4.3225 Y18.0424
G01 X4.3030 Y17.9645
G01 X4.2912 Y17.8852
G01 X4.2873 Y17.8050
G01 X4.2912 Y17.7249
G01 X4.3030 Y17.6455
G01 X4.3225 Y17.5676
G01 X4.3496 Y17.4921
G01 X4.3839 Y17.4196
G01 X4.4251 Y17.3507
G01 X4.4729 Y17.2863
G01 X4.5268 Y17.2268
G01 X4.5856 Y17.1735
G01 X4.6507 Y17.1251
G01 X4.7196 Y17.0839
G01 X4.7921 Y17.0496
G01 X4.8668 Y17.0228
G01 X4.9463 Y17.0029
G01 X5.0249 Y16.9912
G01 X5.1059 Y16.9873
G00 Z2.0000
G00 X3.5672 Y17.3071
G01 F60.00
G01 Z-0.1001
G01 F120.00
G01 X3.5685 Y17.2817
G01 X3.5723 Y17.2557
G01 X3.5787 Y17.2302
G01 X3.5876 Y17.2054
G01 X3.5988 Y17.1817
G01 X3.6123 Y17.1591
G01 X3.6280 Y17.1380
G01 X3.6453 Y17.1189
G01 X4.4189 Y16.3453
G01 X4.4380 Y16.3280
G01 X4.4584 Y16.3128
G01 X4.4817 Y16.2988
G01 X4.5054 Y16.2876
G01 X4.5294 Y16.2790
G01 X4.5565 Y16.2722
G01 X4.5817 Y16.2685
G01 X4.6079 Y16.2672
G01 X10.0741 Y16.2672
G01 X17.0800 Y9.2612
G01 X17.0594 Y9.2175
G01 X17.0327 Y9.1428
G01 X17.0131 Y9.0650
G01 X17.0012 Y8.9852
G01 X16.9973 Y8.9046
G01 X17.0014 Y8.8240
G01 X17.0130 Y8.7455
G01 X17.0323 Y8.6685
G01 X17.0596 Y8.5921
G01 X17.0941 Y8.5192
G01 X17.1356 Y8.4500
G01 X17.1829 Y8.3863
G01 X17.2362 Y8.3274
G01 X17.2963 Y8.2729
G01 X17.3607 Y8.2251
G01 X17.4303 Y8.1835
G01 X17.5021 Y8.1496
G01 X17.5768 Y8.1228
G01 X17.6555 Y8.1030
G01 X17.7353 Y8.0912
G01 X17.8150 Y8.0873
G01 X17.8943 Y8.0912
G01 X17.9745 Y8.1030
G01 X18.0524 Y8.1225
G01 X18.1271 Y8.1492
G01 X18.2005 Y8.1839
G01 X18.2693 Y8.2251
G01 X18.3331 Y8.2724
G01 X18.3932 Y8.3268
G01 X18.4471 Y8.3863
G01 X18.4944 Y8.4500
G01 X18.5362 Y8.5196
G01 X18.5708 Y8.5929
G01 X18.5975 Y8.6676
G01 X18.6170 Y8.7455
G01 X18.6288 Y8.8257
G01 X18.6327 Y8.9050
G01 X18.6288 Y8.9852
G01 X18.6168 Y9.0654
G01 X18.5975 Y9.1424
G01 X18.5705 Y9.2179
G01 X18.5362 Y9.2905
G01 X18.4954 Y9.3586
G01 X18.4468 Y9.4241
G01 X18.3932 Y9.4832
G01 X18.3344 Y9.5365
G01 X18.2686 Y9.5854
G01 X18.2005 Y9.6262
G01 X18.1279 Y9.6605
G01 X18.0524 Y9.6875
G01 X17.9750 Y9.7069
G01 X17.8952 Y9.7188
G01 X17.8159 Y9.7227
G01 X17.7344 Y9.7187
G01 X17.6555 Y9.7070
G01 X17.5781 Y9.6876
G01 X17.5025 Y9.6606
G01 X17.4588 Y9.6400
G01 X10.3744 Y16.7244
G01 X10.3549 Y16.7420
G01 X10.3338 Y16.7577
G01 X10.3113 Y16.7712
G01 X10.2883 Y16.7821
G01 X10.2628 Y16.7913
G01 X10.2373 Y16.7977
G01 X10.2121 Y16.8014
G01 X10.1850 Y16.8028
G01 X4.7189 Y16.8028
G01 X4.1028 Y17.4189
G01 X4.1028 Y21.5241
G01 X7.2788 Y24.7000
G01 X7.3225 Y24.6794
G01 X7.3972 Y24.6527
G01 X7.4751 Y24.6331
G01 X7.5549 Y24.6212
G01 X7.6350 Y24.6173
G01 X7.7152 Y24.6212
G01 X7.7950 Y24.6331
G01 X7.8728 Y24.6527
G01 X7.9475 Y24.6794
G01 X7.9912 Y24.7000
G01 X11.2761 Y21.4151
G01 X11.2956 Y21.3975
G01 X11.3167 Y21.3818
G01 X11.3392 Y21.3683
G01 X11.3630 Y21.3571
G01 X11.3878 Y21.3482
G01 X11.4133 Y21.3418
G01 X11.4392 Y21.3380
G01 X11.4655 Y21.3367
G01 X18.4666 Y21.3367
G01 X20.9381 Y18.8651
G01 X20.9576 Y18.8475
G01 X20.9783 Y18.8321
G01 X21.0020 Y18.8179
G01 X21.0250 Y18.8071
G01 X21.0498 Y18.7982
G01 X21.0761 Y18.7917
G01 X21.1012 Y18.7880
G01 X21.1266 Y18.7867
G01 X22.0216 Y18.7867
G01 X24.9091 Y15.8992
G01 X24.9056 Y15.8965
G01 X24.8468 Y15.8432
G01 X24.7929 Y15.7838
G01 X24.7451 Y15.7193
G01 X24.7035 Y15.6497
G01 X24.6692 Y15.5771
G01 X24.6425 Y15.5024
G01 X24.6232 Y15.4254
G01 X24.6112 Y15.3452
G01 X24.6073 Y15.2641
G01 X24.6112 Y15.1849
G01 X24.6229 Y15.1063
G01 X24.6425 Y15.0276
G01 X24.6696 Y14.9521
G01 X24.7035 Y14.8803
G01 X24.7454 Y14.8104
G01 X24.7929 Y14.7463
G01 X24.8462 Y14.6874
G01 X24.9066 Y14.6327
G01 X24.9707 Y14.5851
G01 X25.0392 Y14.5441
G01 X25.1117 Y14.5097
G01 X25.1572 Y14.4934
G01 X25.1572 Y9.7629
G01 X25.1182 Y9.7531
G01 X25.0334 Y9.7227
G01 X24.9524 Y9.6844
G01 X24.8755 Y9.6383
G01 X24.8028 Y9.5844
G01 X24.7367 Y9.5245
G01 X24.6753 Y9.4569
G01 X24.6220 Y9.3849
G01 X24.5757 Y9.3076
G01 X24.5372 Y9.2262
G01 X24.5071 Y9.1422
G01 X24.4848 Y9.0532
G01 X24.4717 Y8.9650
G01 X24.4673 Y8.8746
G01 X24.4717 Y8.7851
G01 X24.4848 Y8.6968
G01 X24.5068 Y8.6086
G01 X24.5375 Y8.5230
G01 X24.5757 Y8.4424
G01 X24.6220 Y8.3652
G01 X24.6756 Y8.2928
G01 X24.7355 Y8.2267
G01 X24.8028 Y8.1656
G01 X24.8752 Y8.1120
G01 X24.9517 Y8.0661
G01 X25.0338 Y8.0272
G01 X25.1186 Y7.9968
G01 X25.2068 Y7.9748
G01 X25.2951 Y7.9617
G01 X25.3841 Y7.9573
G01 X25.4741 Y7.9617
G01 X25.5640 Y7.9749
G01 X25.6514 Y7.9968
G01 X25.7362 Y8.0272
G01 X25.8184 Y8.0661
G01 X25.8956 Y8.1125
G01 X25.9672 Y8.1656
G01 X26.0333 Y8.2255
G01 X26.0944 Y8.2928
G01 X26.1481 Y8.3652
G01 X26.1947 Y8.4432
G01 X26.2329 Y8.5238
G01 X26.2629 Y8.6078
G01 X26.2851 Y8.6960
G01 X26.2983 Y8.7851
G01 X26.3027 Y8.8750
G01 X26.2984 Y8.9641
G01 X26.2849 Y9.0549
G01 X26.2632 Y9.1414
G01 X26.2329 Y9.2262
G01 X26.1944 Y9.3076
G01 X26.1483 Y9.3845
G01 X26.0944 Y9.4572
G01 X26.0345 Y9.5233
G01 X25.9669 Y9.5847
G01 X25.8949 Y9.6381
G01 X25.8180 Y9.6841
G01 X25.7366 Y9.7227
G01 X25.6928 Y9.7384
G01 X25.6928 Y14.4934
G01 X25.7383 Y14.5097
G01 X25.8101 Y14.5437
G01 X25.8789 Y14.5849
G01 X25.9438 Y14.6329
G01 X26.0032 Y14.6868
G01 X26.0571 Y14.7463
G01 X26.1051 Y14.8111
G01 X26.1464 Y14.8799
G01 X26.1803 Y14.9517
G01 X26.1966 Y14.9972
G01 X28.4634 Y14.9972
G01 X28.4797 Y14.9517
G01 X28.5141 Y14.8792
G01 X28.5551 Y14.8107
G01 X28.6032 Y14.7459
G01 X28.6568 Y14.6868
G01 X28.7163 Y14.6329
G01 X28.7807 Y14.5851
G01 X28.8492 Y14.5441
G01 X28.9221 Y14.5096
G01 X28.9968 Y14.4828
G01 X29.0763 Y14.4629
G01 X29.1549 Y14.4512
G01 X29.2350 Y14.4473
G01 X29.3152 Y14.4512
G01 X29.3937 Y14.4629
G01 X29.4732 Y14.4828
G01 X29.5479 Y14.5096
G01 X29.6205 Y14.5439
G01 X29.6893 Y14.5851
G01 X29.7531 Y14.6324
G01 X29.8138 Y14.6874
G01 X29.8671 Y14.7463
G01 X29.9149 Y14.8107
G01 X29.9562 Y14.8796
G01 X29.9901 Y14.9513
G01 X30.0177 Y15.0285
G01 X30.0370 Y15.1055
G01 X30.0488 Y15.1853
G01 X30.0527 Y15.2650
G01 X30.0488 Y15.3452
G01 X30.0370 Y15.4245
G01 X30.0175 Y15.5024
G01 X29.9905 Y15.5779
G01 X29.9562 Y15.6505
G01 X29.9149 Y15.7193
G01 X29.8671 Y15.7838
G01 X29.8132 Y15.8432
G01 X29.7538 Y15.8971
G01 X29.6893 Y15.9449
G01 X29.6205 Y15.9862
G01 X29.5479 Y16.0205
G01 X29.4724 Y16.0475
G01 X29.3945 Y16.0670
G01 X29.3152 Y16.0788
G01 X29.2350 Y16.0827
G01 X29.1557 Y16.0788
G01 X29.0746 Y16.0668
G01 X28.9976 Y16.0475
G01 X28.9221 Y16.0205
G01 X28.8496 Y15.9862
G01 X28.7811 Y15.9451
G01 X28.7163 Y15.8971
G01 X28.6574 Y15.8438
G01 X28.6027 Y15.7834
G01 X28.5551 Y15.7193
G01 X28.5141 Y15.6509
G01 X28.4797 Y15.5783
G01 X28.4634 Y15.5328
G01 X26.1966 Y15.5328
G01 X26.1803 Y15.5783
G01 X26.1464 Y15.6501
G01 X26.1047 Y15.7197
G01 X26.0571 Y15.7838
G01 X26.0038 Y15.8426
G01 X25.9434 Y15.8974
G01 X25.8793 Y15.9449
G01 X25.8112 Y15.9857
G01 X25.7375 Y16.0206
G01 X25.6624 Y16.0475
G01 X25.5850 Y16.0669
G01 X25.5056 Y16.0787
G01 X25.4861 Y16.0797
G01 X22.3220 Y19.2439
G01 X22.3025 Y19.2616
G01 X22.2806 Y19.2777
G01 X22.2588 Y19.2907
G01 X22.2351 Y19.3020
G01 X22.2103 Y19.3108
G01 X22.1857 Y19.3170
G01 X22.1580 Y19.3211
G01 X22.1326 Y19.3223
G01 X21.2384 Y19.3223
G01 X18.7669 Y21.7939
G01 X18.7474 Y21.8116
G01 X18.7263 Y21.8272
G01 X18.7038 Y21.8407
G01 X18.6792 Y21.8523
G01 X18.6552 Y21.8608
G01 X18.6298 Y21.8672
G01 X18.6038 Y21.8711
G01 X18.5775 Y21.8723
G01 X11.5764 Y21.8723
G01 X8.3700 Y25.0788
G01 X8.3906 Y25.1225
G01 X8.4174 Y25.1972
G01 X8.4369 Y25.2751
G01 X8.4488 Y25.3549
G01 X8.4527 Y25.4354
G01 X8.4487 Y25.5160
G01 X8.4370 Y25.5945
G01 X8.4177 Y25.6715
G01 X8.3905 Y25.7479
G01 X8.3559 Y25.8209
G01 X8.3144 Y25.8900
G01 X8.2671 Y25.9538
G01 X8.2138 Y26.0126
G01 X8.1538 Y26.0671
G01 X8.0893 Y26.1149
G01 X8.0197 Y26.1566
G01 X7.9479 Y26.1905
G01 X7.8732 Y26.2172
G01 X7.7945 Y26.2370
G01 X7.7147 Y26.2488
G01 X7.6350 Y26.2527
G01 X7.5540 Y26.2487
G01 X7.4746 Y26.2368
G01 X7.3976 Y26.2175
G01 X7.3229 Y26.1908
G01 X7.2496 Y26.1562
G01 X7.1807 Y26.1149
G01 X7.1163 Y26.0671
G01 X7.0562 Y26.0126
G01 X7.0029 Y25.9538
G01 X6.9556 Y25.8900
G01 X6.9139 Y25.8205
G01 X6.8796 Y25.7479
G01 X6.8528 Y25.6732
G01 X6.8329 Y25.5941
G01 X6.8212 Y25.5152
G01 X6.8173 Y25.4359
G01 X6.8213 Y25.3544
G01 X6.8330 Y25.2755
G01 X6.8524 Y25.1981
G01 X6.8794 Y25.1225
G01 X6.9000 Y25.0788
G01 X3.6456 Y21.8244
G01 X3.6280 Y21.8049
G01 X3.6123 Y21.7838
G01 X3.5988 Y21.7613
G01 X3.5879 Y21.7383
G01 X3.5787 Y21.7128
G01 X3.5723 Y21.6873
G01 X3.5685 Y21.6613
G01 X3.5672 Y21.6350
G01 X3.5672 Y17.3071
G00 Z2.0000
G00 X5.1059 Y19.5273
G01 F60.00
G01 Z-0.1001
G01 F120.00
G01 X5.1852 Y19.5312
G01 X5.2637 Y19.5429
G01 X5.3424 Y19.5625
G01 X5.4179 Y19.5896
G01 X5.4897 Y19.6235
G01 X5.5597 Y19.6654
G01 X5.6238 Y19.7129
G01 X5.6826 Y19.7662
G01 X5.7374 Y19.8266
G01 X5.7849 Y19.8907
G01 X5.8259 Y19.9592
G01 X5.8603 Y20.0317
G01 X5.8766 Y20.0772
G01 X6.8670 Y20.0772
G01 X6.8797 Y20.0417
G01 X6.9137 Y19.9699
G01 X6.9554 Y19.9004
G01 X7.0029 Y19.8363
G01 X7.0562 Y19.7774
G01 X7.1166 Y19.7227
G01 X7.1807 Y19.6751
G01 X7.2488 Y19.6343
G01 X7.3221 Y19.5996
G01 X7.3976 Y19.5725
G01 X7.4746 Y19.5532
G01 X7.5549 Y19.5412
G01 X7.6350 Y19.5373
G01 X7.7160 Y19.5414
G01 X7.7945 Y19.5530
G01 X7.8715 Y19.5723
G01 X7.9479 Y19.5996
G01 X8.0212 Y19.6343
G01 X8.0893 Y19.6751
G01 X8.1531 Y19.7224
G01 X8.2132 Y19.7768
G01 X8.2674 Y19.8366
G01 X8.3154 Y19.9015
G01 X8.3562 Y19.9696
G01 X8.3901 Y20.0413
G01 X8.4175 Y20.1176
G01 X8.4370 Y20.1955
G01 X8.4488 Y20.2749
G01 X8.4527 Y20.3559
G01 X8.4488 Y20.4352
G01 X8.4371 Y20.5137
G01 X8.4176 Y20.5920
G01 X8.3905 Y20.6679
G01 X8.3557 Y20.7412
G01 X8.3149 Y20.8093
G01 X8.2676 Y20.8731
G01 X8.2135 Y20.9329
G01 X8.1538 Y20.9871
G01 X8.0889 Y21.0351
G01 X8.0201 Y21.0764
G01 X7.9483 Y21.1103
G01 X7.9028 Y21.1266
G01 X7.9028 Y22.1234
G01 X7.9483 Y22.1397
G01 X8.0201 Y22.1737
G01 X8.0897 Y22.2154
G01 X8.1538 Y22.2629
G01 X8.2126 Y22.3162
G01 X8.2674 Y22.3766
G01 X8.3149 Y22.4407
G01 X8.3557 Y22.5088
G01 X8.3905 Y22.5821
G01 X8.4177 Y22.6585
G01 X8.4370 Y22.7355
G01 X8.4488 Y22.8149
G01 X8.4527 Y22.8950
G01 X8.4487 Y22.9760
G01 X8.4370 Y23.0545
G01 X8.4177 Y23.1315
G01 X8.3905 Y23.2079
G01 X8.3557 Y23.2812
G01 X8.3149 Y23.3493
G01 X8.2676 Y23.4131
G01 X8.2132 Y23.4732
G01 X8.1534 Y23.5274
G01 X8.0886 Y23.5754
G01 X8.0205 Y23.6162
G01 X7.9487 Y23.6501
G01 X7.8724 Y23.6775
G01 X7.7945 Y23.6970
G01 X7.7152 Y23.7088
G01 X7.6341 Y23.7127
G01 X7.5549 Y23.7088
G01 X7.4763 Y23.6971
G01 X7.3985 Y23.6777
G01 X7.3221 Y23.6505
G01 X7.2496 Y23.6162
G01 X7.1807 Y23.5749
G01 X7.1156 Y23.5265
G01 X7.0568 Y23.4732
G01 X7.0035 Y23.4144
G01 X6.9556 Y23.3500
G01 X6.9139 Y23.2805
G01 X6.8797 Y23.2083
G01 X6.8525 Y23.1324
G01 X6.8330 Y23.0545
G01 X6.8212 Y22.9752
G01 X6.8173 Y22.8950
G01 X6.8212 Y22.8149
G01 X6.8330 Y22.7355
G01 X6.8525 Y22.6576
G01 X6.8797 Y22.5817
G01 X6.9139 Y22.5096
G01 X6.9551 Y22.4407
G01 X7.0029 Y22.3763
G01 X7.0571 Y22.3165
G01 X7.1163 Y22.2629
G01 X7.1811 Y22.2149
G01 X7.2499 Y22.1737
G01 X7.3217 Y22.1397
G01 X7.3672 Y22.1234
G01 X7.3672 Y21.1266
G01 X7.3217 Y21.1103
G01 X7.2499 Y21.0764
G01 X7.1811 Y21.0351
G01 X7.1163 Y20.9871
G01 X7.0568 Y20.9332
G01 X7.0029 Y20.8738
G01 X6.9547 Y20.8086
G01 X6.9135 Y20.7397
G01 X6.8796 Y20.6679
G01 X6.8598 Y20.6128
G01 X5.8766 Y20.6128
G01 X5.8603 Y20.6583
G01 X5.8264 Y20.7301
G01 X5.7847 Y20.7997
G01 X5.7371 Y20.8638
G01 X5.6838 Y20.9226
G01 X5.6234 Y20.9774
G01 X5.5593 Y21.0249
G01 X5.4912 Y21.0657
G01 X5.4179 Y21.1005
G01 X5.3424 Y21.1275
G01 X5.2654 Y21.1468
G01 X5.1852 Y21.1588
G01 X5.1050 Y21.1627
G01 X5.0240 Y21.1587
G01 X4.9455 Y21.1470
G01 X4.8685 Y21.1277
G01 X4.7921 Y21.1005
G01 X4.7188 Y21.0657
G01 X4.6507 Y21.0249
G01 X4.5870 Y20.9776
G01 X4.5268 Y20.9232
G01 X4.4727 Y20.8634
G01 X4.4251 Y20.7993
G01 X4.3843 Y20.7312
G01 X4.3496 Y20.6579
G01 X4.3225 Y20.5824
G01 X4.3032 Y20.5054
G01 X4.2912 Y20.4252
G01 X4.2873 Y20.3450
G01 X4.2912 Y20.2657
G01 X4.3030 Y20.1855
G01 X4.3228 Y20.1068
G01 X4.3496 Y20.0321
G01 X4.3835 Y19.9603
G01 X4.4256 Y19.8900
G01 X4.4729 Y19.8263
G01 X4.5268 Y19.7668
G01 X4.5870 Y19.7124
G01 X4.6507 Y19.6651
G01 X4.7188 Y19.6243
G01 X4.7929 Y19.5892
G01 X4.8676 Y19.5625
G01 X4.9446 Y19.5432
G01 X5.0249 Y19.5312
G01 X5.1059 Y19.5273
G00 Z2.0000
G00 X2.2972 Y22.1321
G01 F60.00
G01 Z-0.1001
G01 F120.00
G01 X2.2972 Y12.1636
G01 X2.2985 Y12.1373
G01 X2.3023 Y12.1117
G01 X2.3090 Y12.0850
G01 X2.3176 Y12.0611
G01 X2.3288 Y12.0373
G01 X2.3428 Y12.0140
G01 X2.3580 Y11.9936
G01 X2.3753 Y11.9745
G01 X4.3437 Y10.0061
G01 X4.3632 Y9.9885
G01 X4.3839 Y9.9731
G01 X4.4068 Y9.9593
G01 X4.4314 Y9.9478
G01 X4.4553 Y9.9392
G01 X4.4800 Y9.9330
G01 X4.5068 Y9.9290
G01 X4.5331 Y9.9277
G01 X4.8593 Y9.9277
G01 X5.0905 Y9.6966
G01 X5.1118 Y9.6795
G01 X5.1159 Y9.6771
G01 X5.1857 Y9.6565
G01 X5.1907 Y9.6558
G01 X5.2453 Y9.6559
G01 X5.2947 Y9.6656
G01 X5.2984 Y9.6669
G01 X5.3013 Y9.6686
G01 X5.3587 Y9.7145
G01 X5.3609 Y9.7171
G01 X5.3824 Y9.7479
G01 X5.5421 Y9.9076
G01 X5.5708 Y9.9277
G01 X11.0020 Y9.9277
G01 X11.0135 Y9.9132
G01 X11.0153 Y9.9090
G01 X11.0179 Y9.9055
G01 X11.0237 Y9.9006
G01 X11.0279 Y9.8976
G01 X11.1876 Y9.7379
G01 X11.3171 Y9.5529
G01 X11.4126 Y9.3482
G01 X11.4711 Y9.1300
G01 X11.4907 Y8.9050
G01 X11.4711 Y8.6800
G01 X11.4126 Y8.4618
G01 X11.3171 Y8.2571
G01 X11.1876 Y8.0721
G01 X11.0279 Y7.9124
G01 X10.8429 Y7.7829
G01 X10.8051 Y7.7652
G01 X10.8023 Y7.7636
G01 X10.7467 Y7.7152
G01 X10.7447 Y7.7123
G01 X10.7434 Y7.7091
G01 X10.7229 Y7.6411
G01 X10.7221 Y7.6364
G01 X10.7228 Y7.6312
G01 X10.7422 Y7.5629
G01 X10.7435 Y7.5596
G01 X10.7452 Y7.5570
G01 X10.7473 Y7.5547
G01 X10.8022 Y7.5065
G01 X10.8051 Y7.5048
G01 X10.8429 Y7.4871
G01 X11.0279 Y7.3576
G01 X11.1876 Y7.1979
G01 X11.3171 Y7.0129
G01 X11.4126 Y6.8082
G01 X11.4711 Y6.5900
G01 X11.4907 Y6.3650
G01 X11.4766 Y6.2030
G01 X11.4790 Y6.1627
G01 X11.4797 Y6.1592
G01 X11.4811 Y6.1559
G01 X11.5151 Y6.0935
G01 X11.5173 Y6.0904
G01 X14.2598 Y3.3479
G01 X14.2825 Y3.3295
G01 X14.2862 Y3.3273
G01 X14.3572 Y3.3063
G01 X14.3614 Y3.3058
G01 X17.1833 Y3.3058
G01 X17.2368 Y3.2468
G01 X17.2970 Y3.1924
G01 X17.3607 Y3.1451
G01 X17.4288 Y3.1043
G01 X17.5013 Y3.0699
G01 X17.5776 Y3.0425
G01 X17.6555 Y3.0230
G01 X17.7349 Y3.0112
G01 X17.8150 Y3.0073
G01 X17.8952 Y3.0112
G01 X17.9745 Y3.0230
G01 X18.0524 Y3.0425
G01 X18.1287 Y3.0699
G01 X18.2012 Y3.1043
G01 X18.2693 Y3.1451
G01 X18.3331 Y3.1924
G01 X18.3932 Y3.2468
G01 X18.4467 Y3.3058
G01 X27.5996 Y3.3058
G01 X27.6277 Y3.3088
G01 X27.6323 Y3.3101
G01 X27.6962 Y3.3449
G01 X27.6996 Y3.3473
G01 X28.3917 Y4.0394
G01 X28.4000 Y4.0485
G01 X28.4015 Y4.0511
G01 X28.4309 Y4.1157
G01 X28.4324 Y4.1208
G01 X28.4324 Y4.1256
G01 X28.4223 Y4.1959
G01 X28.4209 Y4.2005
G01 X28.4181 Y4.2049
G01 X28.3716 Y4.2586
G01 X28.3680 Y4.2618
G01 X28.3632 Y4.2640
G01 X28.2926 Y4.2845
G01 X26.7475 Y4.2847
G01 X26.6682 Y4.2826
G01 X26.6616 Y4.2839
G01 X26.6428 Y4.2853
G01 X26.5689 Y4.3033
G01 X26.4991 Y4.3178
G01 X26.4929 Y4.3206
G01 X26.4806 Y4.3249
G01 X26.4745 Y4.3264
G01 X26.4111 Y4.3588
G01 X26.3426 Y4.3909
G01 X26.3377 Y4.3948
G01 X26.3267 Y4.4018
G01 X26.3207 Y4.4050
G01 X26.2665 Y4.4510
G01 X26.2413 Y4.4711
G01 X26.2280 Y4.4837
G01 X26.1890 Y4.5168
G01 X26.1770 Y4.5332
G01 X26.1633 Y4.5491
G01 X25.7483 Y4.9640
G01 X25.7116 Y4.9900
G01 X25.7074 Y4.9921
G01 X25.6323 Y5.0042
G01 X25.4483 Y4.9809
G01 X25.2198 Y4.9893
G01 X25.1491 Y5.0034
G01 X25.0958 Y5.0031
G01 X25.0924 Y5.0026
G01 X25.0887 Y5.0013
G01 X25.0256 Y4.9669
G01 X25.0218 Y4.9642
G01 X24.5685 Y4.5108
G01 X24.5139 Y4.4533
G01 X24.5083 Y4.4495
G01 X24.4941 Y4.4372
G01 X24.4327 Y4.4000
G01 X24.3695 Y4.3586
G01 X24.3631 Y4.3562
G01 X24.3514 Y4.3506
G01 X24.3460 Y4.3473
G01 X24.2741 Y4.3240
G01 X24.2071 Y4.2997
G01 X24.2008 Y4.2989
G01 X24.1881 Y4.2961
G01 X24.1816 Y4.2941
G01 X24.1108 Y4.2883
G01 X24.0788 Y4.2847
G01 X24.0604 Y4.2842
G01 X24.0095 Y4.2801
G01 X23.9894 Y4.2831
G01 X23.9684 Y4.2847
G01 X20.2988 Y4.2847
G01 X20.2196 Y4.2826
G01 X20.2129 Y4.2839
G01 X20.1942 Y4.2853
G01 X20.1202 Y4.3033
G01 X20.0505 Y4.3178
G01 X20.0443 Y4.3206
G01 X20.0320 Y4.3249
G01 X20.0259 Y4.3264
G01 X19.9624 Y4.3588
G01 X19.8940 Y4.3909
G01 X19.8886 Y4.3951
G01 X19.8777 Y4.4021
G01 X19.8721 Y4.4050
G01 X19.8179 Y4.4510
G01 X19.7927 Y4.4711
G01 X19.7794 Y4.4837
G01 X19.7404 Y4.5168
G01 X19.7284 Y4.5332
G01 X19.7146 Y4.5491
G01 X18.8712 Y5.3925
G01 X18.8683 Y5.3949
G01 X18.8232 Y5.4239
G01 X18.8192 Y5.4258
G01 X18.8149 Y5.4266
G01 X18.7437 Y5.4317
G01 X18.7393 Y5.4314
G01 X18.7351 Y5.4300
G01 X18.6706 Y5.3947
G01 X18.6680 Y5.3925
G01 X18.6479 Y5.3724
G01 X18.4629 Y5.2429
G01 X18.2582 Y5.1474
G01 X18.0400 Y5.0890
G01 X17.8150 Y5.0693
G01 X17.5900 Y5.0890
G01 X17.3718 Y5.1474
G01 X17.1671 Y5.2429
G01 X16.9821 Y5.3724
G01 X16.8224 Y5.5321
G01 X16.6929 Y5.7171
G01 X16.5974 Y5.9218
G01 X16.5390 Y6.1400
G01 X16.5193 Y6.3650
G01 X16.5390 Y6.5900
G01 X16.5687 Y6.7013
G01 X16.5711 Y6.7601
G01 X16.5707 Y6.7644
G01 X16.5693 Y6.7684
G01 X16.5367 Y6.8320
G01 X16.5346 Y6.8353
G01 X16.5324 Y6.8375
G01 X16.5299 Y6.8392
G01 X16.4662 Y6.8760
G01 X16.4041 Y6.8913
G01 X16.3301 Y6.9068
G01 X16.3244 Y6.9094
G01 X16.3121 Y6.9138
G01 X16.3055 Y6.9155
G01 X16.2381 Y6.9498
G01 X16.1736 Y6.9800
G01 X16.1682 Y6.9841
G01 X16.1573 Y6.9911
G01 X16.1517 Y6.9940
G01 X16.0975 Y7.0400
G01 X16.0723 Y7.0601
G01 X16.0590 Y7.0727
G01 X16.0200 Y7.1059
G01 X16.0080 Y7.1222
G01 X15.9942 Y7.1381
G01 X12.4703 Y10.6621
G01 X12.4475 Y10.6806
G01 X12.4438 Y10.6828
G01 X12.3736 Y10.7035
G01 X12.3691 Y10.7042
G01 X11.6263 Y10.7042
G01 X11.5826 Y10.6973
G01 X11.5798 Y10.6964
G01 X11.5769 Y10.6949
G01 X11.5182 Y10.6542
G01 X11.5152 Y10.6516
G01 X11.5129 Y10.6484
G01 X11.4843 Y10.5797
G01 X11.4834 Y10.5760
G01 X11.4794 Y10.5388
G01 X11.4510 Y10.4630
G01 X11.4445 Y10.4633
G01 X5.5412 Y10.4634
G01 X5.3824 Y10.6221
G01 X5.2529 Y10.8071
G01 X5.1574 Y11.0118
G01 X5.0990 Y11.2300
G01 X5.0793 Y11.4550
G01 X5.0990 Y11.6800
G01 X5.1574 Y11.8982
G01 X5.2529 Y12.1029
G01 X5.3802 Y12.2847
G01 X5.3824 Y12.2879
G01 X5.5421 Y12.4476
G01 X5.7271 Y12.5771
G01 X5.9318 Y12.6726
G01 X6.1500 Y12.7311
G01 X6.3750 Y12.7507
G01 X6.6000 Y12.7311
G01 X6.8182 Y12.6726
G01 X7.0229 Y12.5771
G01 X7.2079 Y12.4476
G01 X7.3676 Y12.2879
G01 X7.3905 Y12.2554
G01 X7.4278 Y12.2196
G01 X7.4306 Y12.2178
G01 X7.4334 Y12.2167
G01 X7.5039 Y12.1961
G01 X8.7652 Y12.1958
G01 X8.8073 Y12.2024
G01 X8.8120 Y12.2039
G01 X8.8729 Y12.2458
G01 X8.8753 Y12.2477
G01 X8.8773 Y12.2501
G01 X8.8792 Y12.2536
G01 X8.9067 Y12.3199
G01 X8.9076 Y12.3236
G01 X8.9106 Y12.3512
G01 X8.9601 Y12.4831
G01 X9.0444 Y12.5956
G01 X9.1569 Y12.6799
G01 X9.2888 Y12.7294
G01 X9.3478 Y12.7358
G01 X11.0422 Y12.7358
G01 X11.1012 Y12.7294
G01 X11.2331 Y12.6799
G01 X11.3456 Y12.5956
G01 X11.4299 Y12.4831
G01 X11.4794 Y12.3512
G01 X11.4837 Y12.3124
G01 X11.4954 Y12.2701
G01 X11.4983 Y12.2656
G01 X11.5451 Y12.2116
G01 X11.5488 Y12.2085
G01 X11.5528 Y12.2067
G01 X11.6213 Y12.1865
G01 X11.6259 Y12.1858
G01 X12.7221 Y12.1858
G01 X12.8013 Y12.1879
G01 X12.8080 Y12.1866
G01 X12.8267 Y12.1853
G01 X12.9007 Y12.1672
G01 X12.9704 Y12.1527
G01 X12.9766 Y12.1499
G01 X12.9889 Y12.1456
G01 X12.9950 Y12.1441
G01 X13.0585 Y12.1117
G01 X13.1269 Y12.0796
G01 X13.1323 Y12.0754
G01 X13.1433 Y12.0684
G01 X13.1488 Y12.0655
G01 X13.2030 Y12.0195
G01 X13.2282 Y11.9994
G01 X13.2415 Y11.9868
G01 X13.2805 Y11.9537
G01 X13.2925 Y11.9373
G01 X13.3063 Y11.9214
G01 X16.2862 Y8.9416
G01 X16.2895 Y8.9392
G01 X16.3498 Y8.9056
G01 X16.3547 Y8.9038
G01 X16.3594 Y8.9034
G01 X16.4303 Y8.9073
G01 X16.4355 Y8.9084
G01 X16.4397 Y8.9107
G01 X16.4972 Y8.9523
G01 X16.5007 Y8.9556
G01 X16.5033 Y8.9602
G01 X16.5292 Y9.0263
G01 X16.5302 Y9.0299
G01 X16.5335 Y9.0679
G01 X16.5310 Y9.1068
G01 X16.5305 Y9.1100
G01 X16.5289 Y9.1142
G01 X16.4949 Y9.1765
G01 X16.4919 Y9.1805
G01 X9.9203 Y15.7521
G01 X9.8957 Y15.7718
G01 X9.8917 Y15.7735
G01 X9.8236 Y15.7935
G01 X9.8186 Y15.7942
G01 X5.7277 Y15.7942
G01 X5.6832 Y15.8432
G01 X5.6244 Y15.8965
G01 X5.5600 Y15.9444
G01 X5.4905 Y15.9862
G01 X5.4187 Y16.0201
G01 X5.3424 Y16.0475
G01 X5.2645 Y16.0670
G01 X5.1852 Y16.0788
G01 X5.1050 Y16.0827
G01 X5.0249 Y16.0788
G01 X4.9455 Y16.0670
G01 X4.8676 Y16.0475
G01 X4.7917 Y16.0203
G01 X4.7196 Y15.9862
G01 X4.6500 Y15.9444
G01 X4.5856 Y15.8965
G01 X4.5268 Y15.8432
G01 X4.4889 Y15.8015
G01 X4.4423 Y15.8128
G01 X4.3725 Y15.8273
G01 X4.3663 Y15.8301
G01 X4.3541 Y15.8344
G01 X4.3480 Y15.8359
G01 X4.2806 Y15.8702
G01 X4.2160 Y15.9004
G01 X4.2106 Y15.9046
G01 X4.1997 Y15.9116
G01 X4.1941 Y15.9145
G01 X4.1399 Y15.9605
G01 X4.1147 Y15.9806
G01 X4.1014 Y15.9932
G01 X4.0625 Y16.0263
G01 X4.0504 Y16.0427
G01 X4.0367 Y16.0586
G01 X3.3204 Y16.7749
G01 X3.2628 Y16.8295
G01 X3.2590 Y16.8352
G01 X3.2467 Y16.8494
G01 X3.2095 Y16.9107
G01 X3.1681 Y16.9740
G01 X3.1657 Y16.9803
G01 X3.1601 Y16.9921
G01 X3.1569 Y16.9975
G01 X3.1335 Y17.0694
G01 X3.1092 Y17.1364
G01 X3.1084 Y17.1426
G01 X3.1057 Y17.1553
G01 X3.1036 Y17.1618
G01 X3.0979 Y17.2326
G01 X3.0942 Y17.2647
G01 X3.0938 Y17.2830
G01 X3.0896 Y17.3340
G01 X3.0927 Y17.3541
G01 X3.0942 Y17.3750
G01 X3.0942 Y21.6221
G01 X3.0921 Y21.7013
G01 X3.0934 Y21.7080
G01 X3.0948 Y21.7267
G01 X3.1128 Y21.8007
G01 X3.1273 Y21.8704
G01 X3.1301 Y21.8766
G01 X3.1344 Y21.8889
G01 X3.1359 Y21.8950
G01 X3.1684 Y21.9585
G01 X3.2004 Y22.0269
G01 X3.2046 Y22.0323
G01 X3.2116 Y22.0433
G01 X3.2145 Y22.0488
G01 X3.2605 Y22.1030
G01 X3.2806 Y22.1282
G01 X3.2932 Y22.1415
G01 X3.3263 Y22.1805
G01 X3.3427 Y22.1925
G01 X3.3586 Y22.2063
G01 X6.3126 Y25.1603
G01 X6.3363 Y25.1924
G01 X6.3384 Y25.1964
G01 X6.3534 Y25.2707
G01 X6.3393 Y25.4350
G01 X6.3445 Y25.4957
G01 X6.3446 Y25.5178
G01 X6.3438 Y25.5212
G01 X6.3409 Y25.5292
G01 X7.2389 Y26.4272
G01 X8.4760 Y26.4272
G01 X8.4843 Y26.4121
G01 X8.4868 Y26.4087
G01 X8.6276 Y26.2679
G01 X8.7571 Y26.0829
G01 X8.8526 Y25.8782
G01 X8.9111 Y25.6600
G01 X8.9307 Y25.4350
G01 X8.9166 Y25.2730
G01 X8.9191 Y25.2318
G01 X8.9199 Y25.2288
G01 X8.9211 Y25.2259
G01 X8.9551 Y25.1635
G01 X8.9570 Y25.1608
G01 X11.7303 Y22.3874
G01 X11.7530 Y22.3690
G01 X11.7567 Y22.3668
G01 X11.8285 Y22.3456
G01 X11.8319 Y22.3453
G01 X14.6509 Y22.3453
G01 X14.6771 Y22.3165
G01 X14.7359 Y22.2632
G01 X14.8004 Y22.2154
G01 X14.8696 Y22.1739
G01 X14.9417 Y22.1397
G01 X15.0176 Y22.1125
G01 X15.0955 Y22.0930
G01 X15.1749 Y22.0812
G01 X15.2550 Y22.0773
G01 X15.3352 Y22.0812
G01 X15.4145 Y22.0930
G01 X15.4924 Y22.1125
G01 X15.5683 Y22.1397
G01 X15.6405 Y22.1739
G01 X15.7097 Y22.2154
G01 X15.7741 Y22.2632
G01 X15.8329 Y22.3165
G01 X15.8591 Y22.3453
G01 X18.2204 Y22.3453
G01 X18.2307 Y22.3457
G01 X18.2349 Y22.3466
G01 X18.3018 Y22.3716
G01 X18.3064 Y22.3741
G01 X18.3098 Y22.3775
G01 X18.3526 Y22.4347
G01 X18.3548 Y22.4390
G01 X18.3558 Y22.4437
G01 X18.3609 Y22.5145
G01 X18.3605 Y22.5198
G01 X18.3588 Y22.5243
G01 X18.3231 Y22.5891
G01 X17.5098 Y23.4026
G01 X17.4863 Y23.4216
G01 X17.4813 Y23.4240
G01 X17.4131 Y23.4440
G01 X17.4086 Y23.4447
G01 X15.8591 Y23.4447
G01 X15.8329 Y23.4735
G01 X15.7741 Y23.5268
G01 X15.7097 Y23.5747
G01 X15.6405 Y23.6162
G01 X15.5683 Y23.6503
G01 X15.4924 Y23.6775
G01 X15.4145 Y23.6970
G01 X15.3352 Y23.7088
G01 X15.2550 Y23.7127
G01 X15.1749 Y23.7088
G01 X15.0955 Y23.6970
G01 X15.0176 Y23.6775
G01 X14.9417 Y23.6503
G01 X14.8696 Y23.6162
G01 X14.8004 Y23.5747
G01 X14.7359 Y23.5268
G01 X14.6771 Y23.4735
G01 X14.6509 Y23.4447
G01 X13.9775 Y23.4447
G01 X13.8982 Y23.4426
G01 X13.8916 Y23.4439
G01 X13.8728 Y23.4453
G01 X13.7946 Y23.4642
G01 X10.3744 Y26.8844
G01 X10.3549 Y26.9020
G01 X10.3345 Y26.9172
G01 X10.3113 Y26.9312
G01 X10.2867 Y26.9428
G01 X10.2628 Y26.9513
G01 X10.2381 Y26.9575
G01 X10.2113 Y26.9615
G01 X10.1850 Y26.9628
G01 X7.1279 Y26.9628
G01 X7.1021 Y26.9616
G01 X7.0757 Y26.9577
G01 X7.0510 Y26.9515
G01 X7.0246 Y26.9421
G01 X7.0017 Y26.9312
G01 X6.9791 Y26.9177
G01 X6.9580 Y26.9020
G01 X6.9386 Y26.8844
G01 X2.3756 Y22.3215
G01 X2.3580 Y22.3020
G01 X2.3423 Y22.2809
G01 X2.3288 Y22.2583
G01 X2.3176 Y22.2346
G01 X2.3087 Y22.2098
G01 X2.3023 Y22.1843
G01 X2.2985 Y22.1583
G01 X2.2972 Y22.1321
G00 Z2.0000
G00 X13.7272 Y19.0950
G01 F60.00
G01 Z-0.1001
G01 F120.00
G01 X13.7272 Y16.5756
G01 X13.7285 Y16.5497
G01 X13.7323 Y16.5237
G01 X13.7387 Y16.4982
G01 X13.7473 Y16.4743
G01 X13.7592 Y16.4490
G01 X13.7723 Y16.4272
G01 X13.7885 Y16.4054
G01 X13.8053 Y16.3869
G01 X13.8161 Y16.3761
G01 X13.8356 Y16.3585
G01 X13.8567 Y16.3428
G01 X13.8789 Y16.3295
G01 X13.9030 Y16.3181
G01 X13.9278 Y16.3092
G01 X13.9533 Y16.3028
G01 X13.9797 Y16.2989
G01 X14.0055 Y16.2977
G01 X15.0836 Y16.2977
G01 X22.0750 Y9.3063
G01 X22.0372 Y9.2262
G01 X22.0068 Y9.1414
G01 X21.9849 Y9.0540
G01 X21.9718 Y8.9658
G01 X21.9673 Y8.8741
G01 X21.9717 Y8.7851
G01 X21.9848 Y8.6968
G01 X22.0071 Y8.6078
G01 X22.0372 Y8.5238
G01 X22.0757 Y8.4424
G01 X22.1220 Y8.3652
G01 X22.1751 Y8.2935
G01 X22.2364 Y8.2258
G01 X22.3028 Y8.1656
G01 X22.3752 Y8.1120
G01 X22.4524 Y8.0657
G01 X22.5338 Y8.0272
G01 X22.6186 Y7.9968
G01 X22.7060 Y7.9749
G01 X22.7951 Y7.9617
G01 X22.8841 Y7.9573
G01 X22.9758 Y7.9618
G01 X23.0640 Y7.9749
G01 X23.1522 Y7.9971
G01 X23.2362 Y8.0272
G01 X23.3176 Y8.0657
G01 X23.3949 Y8.1120
G01 X23.4679 Y8.1662
G01 X23.5339 Y8.2261
G01 X23.5938 Y8.2922
G01 X23.6476 Y8.3645
G01 X23.6944 Y8.4424
G01 X23.7325 Y8.5230
G01 X23.7632 Y8.6086
G01 X23.7851 Y8.6960
G01 X23.7983 Y8.7851
G01 X23.8027 Y8.8741
G01 X23.7983 Y8.9650
G01 X23.7851 Y9.0540
G01 X23.7632 Y9.1414
G01 X23.7329 Y9.2262
G01 X23.6944 Y9.3076
G01 X23.6481 Y9.3849
G01 X23.5944 Y9.4572
G01 X23.5336 Y9.5242
G01 X23.4672 Y9.5844
G01 X23.3956 Y9.6376
G01 X23.3176 Y9.6844
G01 X23.2362 Y9.7229
G01 X23.1522 Y9.7529
G01 X23.0632 Y9.7752
G01 X22.9750 Y9.7883
G01 X22.8859 Y9.7927
G01 X22.7942 Y9.7882
G01 X22.7060 Y9.7751
G01 X22.6186 Y9.7532
G01 X22.5338 Y9.7229
G01 X22.4538 Y9.6850
G01 X15.3839 Y16.7549
G01 X15.3641 Y16.7728
G01 X15.3433 Y16.7882
G01 X15.3215 Y16.8013
G01 X15.2970 Y16.8129
G01 X15.2723 Y16.8218
G01 X15.2476 Y16.8280
G01 X15.2199 Y16.8321
G01 X15.1945 Y16.8333
G01 X14.2628 Y16.8333
G01 X14.2628 Y18.9841
G01 X14.8988 Y19.6200
G01 X14.9425 Y19.5994
G01 X15.0172 Y19.5727
G01 X15.0951 Y19.5531
G01 X15.1749 Y19.5412
G01 X15.2546 Y19.5373
G01 X15.3352 Y19.5412
G01 X15.4145 Y19.5530
G01 X15.4924 Y19.5725
G01 X15.5679 Y19.5996
G01 X15.6405 Y19.6339
G01 X15.7093 Y19.6751
G01 X15.7738 Y19.7229
G01 X15.8335 Y19.7771
G01 X15.8871 Y19.8363
G01 X15.9351 Y19.9011
G01 X15.9764 Y19.9699
G01 X16.0103 Y20.0417
G01 X16.0266 Y20.0872
G01 X17.1294 Y20.0872
G01 X17.1344 Y20.0672
G01 X17.1612 Y19.9925
G01 X17.1954 Y19.9199
G01 X17.2369 Y19.8507
G01 X17.2844 Y19.7866
G01 X17.3386 Y19.7268
G01 X17.3980 Y19.6729
G01 X17.4625 Y19.6251
G01 X17.5309 Y19.5841
G01 X17.6038 Y19.5496
G01 X17.6794 Y19.5225
G01 X17.7572 Y19.5030
G01 X17.8366 Y19.4912
G01 X17.9168 Y19.4873
G01 X17.9969 Y19.4912
G01 X18.0763 Y19.5030
G01 X18.1545 Y19.5227
G01 X18.2305 Y19.5499
G01 X18.3022 Y19.5839
G01 X18.3703 Y19.6247
G01 X18.4355 Y19.6729
G01 X18.4950 Y19.7268
G01 X18.5494 Y19.7870
G01 X18.5967 Y19.8507
G01 X18.6375 Y19.9188
G01 X18.6722 Y19.9921
G01 X18.6993 Y20.0676
G01 X18.7189 Y20.1463
G01 X18.7305 Y20.2249
G01 X18.7344 Y20.3041
G01 X18.7305 Y20.3852
G01 X18.7188 Y20.4645
G01 X18.6990 Y20.5432
G01 X18.6722 Y20.6179
G01 X18.6383 Y20.6897
G01 X18.5967 Y20.7593
G01 X18.5483 Y20.8244
G01 X18.4943 Y20.8838
G01 X18.4355 Y20.9371
G01 X18.3718 Y20.9844
G01 X18.3022 Y21.0262
G01 X18.2297 Y21.0605
G01 X18.1541 Y21.0875
G01 X18.0754 Y21.1071
G01 X17.9969 Y21.1188
G01 X17.9176 Y21.1227
G01 X17.8371 Y21.1188
G01 X17.7564 Y21.1068
G01 X17.6794 Y21.0875
G01 X17.6047 Y21.0608
G01 X17.5313 Y21.0262
G01 X17.4618 Y20.9844
G01 X17.3980 Y20.9371
G01 X17.3392 Y20.8838
G01 X17.2847 Y20.8238
G01 X17.2364 Y20.7586
G01 X17.1956 Y20.6905
G01 X17.1636 Y20.6228
G01 X16.0266 Y20.6228
G01 X16.0103 Y20.6683
G01 X15.9764 Y20.7401
G01 X15.9351 Y20.8089
G01 X15.8871 Y20.8738
G01 X15.8335 Y20.9329
G01 X15.7738 Y20.9871
G01 X15.7093 Y21.0349
G01 X15.6405 Y21.0762
G01 X15.5683 Y21.1103
G01 X15.4924 Y21.1375
G01 X15.4145 Y21.1570
G01 X15.3352 Y21.1688
G01 X15.2550 Y21.1727
G01 X15.1749 Y21.1688
G01 X15.0955 Y21.1570
G01 X15.0176 Y21.1375
G01 X14.9429 Y21.1108
G01 X14.8696 Y21.0762
G01 X14.8007 Y21.0349
G01 X14.7363 Y20.9871
G01 X14.6768 Y20.9332
G01 X14.6229 Y20.8738
G01 X14.5751 Y20.8093
G01 X14.5339 Y20.7405
G01 X14.4994 Y20.6675
G01 X14.4725 Y20.5924
G01 X14.4530 Y20.5145
G01 X14.4412 Y20.4352
G01 X14.4373 Y20.3546
G01 X14.4412 Y20.2749
G01 X14.4531 Y20.1951
G01 X14.4727 Y20.1172
G01 X14.4994 Y20.0425
G01 X14.5200 Y19.9988
G01 X13.8056 Y19.2844
G01 X13.7883 Y19.2653
G01 X13.7723 Y19.2438
G01 X13.7592 Y19.2220
G01 X13.7473 Y19.1967
G01 X13.7387 Y19.1728
G01 X13.7323 Y19.1473
G01 X13.7285 Y19.1213
G01 X13.7272 Y19.0950
G00 Z2.0000
G00 X14.4541 Y16.9973
G01 F60.00
G01 Z-0.1001
G01 F120.00
G01 X16.0550 Y16.9973
G01 X16.0585 Y16.9977
G01 X16.0614 Y16.9985
G01 X16.0641 Y16.9998
G01 X16.0666 Y17.0016
G01 X16.0687 Y17.0038
G01 X16.0704 Y17.0063
G01 X16.0717 Y17.0090
G01 X16.0727 Y17.0146
G01 X16.0727 Y17.5472
G01 X17.1416 Y17.5472
G01 X17.1613 Y17.4921
G01 X17.1952 Y17.4203
G01 X17.2369 Y17.3507
G01 X17.2847 Y17.2863
G01 X17.3380 Y17.2274
G01 X17.3984 Y17.1727
G01 X17.4625 Y17.1251
G01 X17.5306 Y17.0843
G01 X17.6038 Y17.0496
G01 X17.6802 Y17.0223
G01 X17.7572 Y17.0030
G01 X17.8362 Y16.9913
G01 X17.9168 Y16.9873
G01 X17.9961 Y16.9912
G01 X18.0771 Y17.0032
G01 X18.1541 Y17.0225
G01 X18.2297 Y17.0496
G01 X18.3022 Y17.0839
G01 X18.3707 Y17.1249
G01 X18.4362 Y17.1735
G01 X18.4950 Y17.2268
G01 X18.5491 Y17.2866
G01 X18.5967 Y17.3507
G01 X18.6377 Y17.4192
G01 X18.6721 Y17.4917
G01 X18.6884 Y17.5372
G01 X20.8434 Y17.5372
G01 X20.8597 Y17.4917
G01 X20.8941 Y17.4192
G01 X20.9351 Y17.3507
G01 X20.9827 Y17.2866
G01 X21.0368 Y17.2268
G01 X21.0956 Y17.1735
G01 X21.1611 Y17.1249
G01 X21.2296 Y17.0839
G01 X21.3021 Y17.0496
G01 X21.3776 Y17.0225
G01 X21.4546 Y17.0032
G01 X21.5357 Y16.9912
G01 X21.6150 Y16.9873
G01 X21.6956 Y16.9913
G01 X21.7745 Y17.0030
G01 X21.8524 Y17.0225
G01 X21.9279 Y17.0496
G01 X22.0005 Y17.0839
G01 X22.0693 Y17.1251
G01 X22.1338 Y17.1729
G01 X22.1932 Y17.2268
G01 X22.2471 Y17.2863
G01 X22.2949 Y17.3507
G01 X22.3362 Y17.4196
G01 X22.3705 Y17.4921
G01 X22.3975 Y17.5676
G01 X22.4170 Y17.6455
G01 X22.4288 Y17.7249
G01 X22.4327 Y17.8050
G01 X22.4287 Y17.8856
G01 X22.4170 Y17.9645
G01 X22.3975 Y18.0424
G01 X22.3705 Y18.1179
G01 X22.3366 Y18.1897
G01 X22.2944 Y18.2600
G01 X22.2471 Y18.3238
G01 X22.1932 Y18.3832
G01 X22.1338 Y18.4371
G01 X22.0700 Y18.4844
G01 X21.9997 Y18.5266
G01 X21.9279 Y18.5605
G01 X21.8524 Y18.5875
G01 X21.7745 Y18.6070
G01 X21.6952 Y18.6188
G01 X21.6150 Y18.6227
G01 X21.5357 Y18.6188
G01 X21.4546 Y18.6068
G01 X21.3776 Y18.5875
G01 X21.3021 Y18.5605
G01 X21.2296 Y18.5262
G01 X21.1611 Y18.4851
G01 X21.0956 Y18.4365
G01 X21.0368 Y18.3832
G01 X20.9827 Y18.3234
G01 X20.9351 Y18.2593
G01 X20.8941 Y18.1909
G01 X20.8597 Y18.1183
G01 X20.8434 Y18.0728
G01 X18.6884 Y18.0728
G01 X18.6721 Y18.1183
G01 X18.6381 Y18.1901
G01 X18.5964 Y18.2597
G01 X18.5489 Y18.3238
G01 X18.4956 Y18.3826
G01 X18.4352 Y18.4374
G01 X18.3711 Y18.4849
G01 X18.3030 Y18.5257
G01 X18.2297 Y18.5605
G01 X18.1533 Y18.5877
G01 X18.0763 Y18.6070
G01 X17.9973 Y18.6187
G01 X17.9168 Y18.6227
G01 X17.8375 Y18.6188
G01 X17.7564 Y18.6068
G01 X17.6794 Y18.5875
G01 X17.6038 Y18.5605
G01 X17.5313 Y18.5262
G01 X17.4628 Y18.4851
G01 X17.3974 Y18.4365
G01 X17.3386 Y18.3832
G01 X17.2844 Y18.3234
G01 X17.2369 Y18.2593
G01 X17.1958 Y18.1909
G01 X17.1615 Y18.1183
G01 X17.1487 Y18.0828
G01 X16.0727 Y18.0828
G01 X16.0727 Y18.6154
G01 X16.0718 Y18.6206
G01 X16.0692 Y18.6256
G01 X16.0656 Y18.6292
G01 X16.0606 Y18.6318
G01 X16.0550 Y18.6327
G01 X14.4528 Y18.6326
G01 X14.4499 Y18.6320
G01 X14.4467 Y18.6306
G01 X14.4441 Y18.6290
G01 X14.4419 Y18.6269
G01 X14.4401 Y18.6245
G01 X14.4385 Y18.6214
G01 X14.4377 Y18.6185
G01 X14.4373 Y18.6150
G01 X14.4373 Y17.0150
G01 X14.4377 Y17.0116
G01 X14.4387 Y17.0082
G01 X14.4401 Y17.0055
G01 X14.4422 Y17.0028
G01 X14.4448 Y17.0005
G01 X14.4478 Y16.9988
G01 X14.4511 Y16.9977
G01 X14.4541 Y16.9973
G00 Z2.0000
G00 X17.8159 Y5.5473
G01 F60.00
G01 Z-0.1001
G01 F120.00
G01 X17.8952 Y5.5512
G01 X17.9737 Y5.5629
G01 X18.0524 Y5.5825
G01 X18.1279 Y5.6096
G01 X18.1997 Y5.6435
G01 X18.2697 Y5.6854
G01 X18.3338 Y5.7329
G01 X18.3926 Y5.7862
G01 X18.4474 Y5.8466
G01 X18.4949 Y5.9107
G01 X18.5359 Y5.9792
G01 X18.5703 Y6.0517
G01 X18.5866 Y6.0972
G01 X18.8354 Y6.0972
G01 X20.0968 Y4.8358
G01 X20.1160 Y4.8185
G01 X20.1371 Y4.8028
G01 X20.1597 Y4.7893
G01 X20.1826 Y4.7784
G01 X20.2090 Y4.7690
G01 X20.2337 Y4.7628
G01 X20.2592 Y4.7590
G01 X20.2859 Y4.7577
G01 X24.0355 Y4.7577
G01 X24.0617 Y4.7590
G01 X24.0873 Y4.7627
G01 X24.1141 Y4.7695
G01 X24.1380 Y4.7781
G01 X24.1617 Y4.7893
G01 X24.1850 Y4.8033
G01 X24.2054 Y4.8185
G01 X24.2242 Y4.8355
G01 X24.9538 Y5.5650
G01 X25.0338 Y5.5272
G01 X25.1178 Y5.4971
G01 X25.2051 Y5.4751
G01 X25.2951 Y5.4617
G01 X25.3850 Y5.4573
G01 X25.4750 Y5.4617
G01 X25.5649 Y5.4751
G01 X25.6522 Y5.4971
G01 X25.7362 Y5.5272
G01 X25.8163 Y5.5650
G01 X26.5458 Y4.8355
G01 X26.5646 Y4.8185
G01 X26.5850 Y4.8033
G01 X26.6083 Y4.7893
G01 X26.6328 Y4.7778
G01 X26.6568 Y4.7692
G01 X26.6823 Y4.7628
G01 X26.7083 Y4.7590
G01 X26.7345 Y4.7577
G01 X28.4444 Y4.7577
G01 X28.4703 Y4.7590
G01 X28.4954 Y4.7627
G01 X28.5217 Y4.7692
G01 X28.5473 Y4.7784
G01 X28.5703 Y4.7893
G01 X28.5924 Y4.8026
G01 X28.6139 Y4.8185
G01 X28.6334 Y4.8361
G01 X29.4247 Y5.6274
G01 X29.4420 Y5.6466
G01 X29.4572 Y5.6670
G01 X29.4712 Y5.6903
G01 X29.4825 Y5.7140
G01 X29.4910 Y5.7379
G01 X29.4978 Y5.7651
G01 X29.5015 Y5.7903
G01 X29.5028 Y5.8165
G01 X29.5028 Y11.9934
G01 X29.5483 Y12.0097
G01 X29.6201 Y12.0437
G01 X29.6889 Y12.0849
G01 X29.7538 Y12.1329
G01 X29.8135 Y12.1871
G01 X29.8676 Y12.2470
G01 X29.9149 Y12.3107
G01 X29.9557 Y12.3788
G01 X29.9905 Y12.4521
G01 X30.0174 Y12.5272
G01 X30.0370 Y12.6055
G01 X30.0488 Y12.6849
G01 X30.0527 Y12.7650
G01 X30.0487 Y12.8460
G01 X30.0370 Y12.9245
G01 X30.0177 Y13.0015
G01 X29.9908 Y13.0771
G01 X29.9562 Y13.1505
G01 X29.9151 Y13.2189
G01 X29.8665 Y13.2844
G01 X29.8132 Y13.3432
G01 X29.7538 Y13.3971
G01 X29.6893 Y13.4449
G01 X29.6212 Y13.4857
G01 X29.5479 Y13.5205
G01 X29.4715 Y13.5477
G01 X29.3945 Y13.5670
G01 X29.3152 Y13.5788
G01 X29.2341 Y13.5827
G01 X29.1549 Y13.5788
G01 X29.0755 Y13.5670
G01 X28.9976 Y13.5475
G01 X28.9229 Y13.5208
G01 X28.8496 Y13.4862
G01 X28.7807 Y13.4449
G01 X28.7170 Y13.3976
G01 X28.6568 Y13.3432
G01 X28.6029 Y13.2838
G01 X28.5556 Y13.2200
G01 X28.5139 Y13.1505
G01 X28.4792 Y13.0771
G01 X28.4525 Y13.0024
G01 X28.4330 Y12.9245
G01 X28.4212 Y12.8452
G01 X28.4173 Y12.7650
G01 X28.4212 Y12.6849
G01 X28.4329 Y12.6063
G01 X28.4528 Y12.5268
G01 X28.4796 Y12.4521
G01 X28.5141 Y12.3792
G01 X28.5551 Y12.3107
G01 X28.6029 Y12.2463
G01 X28.6568 Y12.1868
G01 X28.7159 Y12.1332
G01 X28.7807 Y12.0851
G01 X28.8492 Y12.0441
G01 X28.9217 Y12.0097
G01 X28.9672 Y11.9934
G01 X28.9672 Y5.9275
G01 X28.3331 Y5.2933
G01 X26.8455 Y5.2933
G01 X26.1950 Y5.9438
G01 X26.2329 Y6.0238
G01 X26.2629 Y6.1078
G01 X26.2851 Y6.1960
G01 X26.2984 Y6.2859
G01 X26.3027 Y6.3750
G01 X26.2984 Y6.4641
G01 X26.2849 Y6.5549
G01 X26.2632 Y6.6414
G01 X26.2332 Y6.7254
G01 X26.1944 Y6.8076
G01 X26.1476 Y6.8856
G01 X26.0938 Y6.9579
G01 X26.0339 Y7.0239
G01 X25.9679 Y7.0838
G01 X25.8949 Y7.1381
G01 X25.8176 Y7.1844
G01 X25.7362 Y7.2229
G01 X25.6506 Y7.2534
G01 X25.5640 Y7.2751
G01 X25.4758 Y7.2882
G01 X25.3854 Y7.2927
G01 X25.2951 Y7.2883
G01 X25.2051 Y7.2749
G01 X25.1186 Y7.2532
G01 X25.0346 Y7.2232
G01 X24.9524 Y7.1844
G01 X24.8752 Y7.1381
G01 X24.8022 Y7.0838
G01 X24.7361 Y7.0239
G01 X24.6762 Y6.9579
G01 X24.6225 Y6.8856
G01 X24.5757 Y6.8076
G01 X24.5369 Y6.7254
G01 X24.5068 Y6.6414
G01 X24.4851 Y6.5549
G01 X24.4717 Y6.4641
G01 X24.4673 Y6.3750
G01 X24.4717 Y6.2859
G01 X24.4849 Y6.1960
G01 X24.5071 Y6.1078
G01 X24.5372 Y6.0238
G01 X24.5750 Y5.9438
G01 X23.9246 Y5.2933
G01 X20.3968 Y5.2933
G01 X19.1358 Y6.5544
G01 X19.1163 Y6.5720
G01 X19.0959 Y6.5872
G01 X19.0726 Y6.6012
G01 X19.0481 Y6.6128
G01 X19.0241 Y6.6213
G01 X18.9995 Y6.6275
G01 X18.9726 Y6.6315
G01 X18.9464 Y6.6328
G01 X18.5866 Y6.6328
G01 X18.5703 Y6.6783
G01 X18.5359 Y6.7509
G01 X18.4949 Y6.8193
G01 X18.4474 Y6.8834
G01 X18.3926 Y6.9438
G01 X18.3338 Y6.9971
G01 X18.2697 Y7.0447
G01 X18.1997 Y7.0866
G01 X18.1279 Y7.1205
G01 X18.0524 Y7.1475
G01 X17.9745 Y7.1670
G01 X17.8960 Y7.1787
G01 X17.8150 Y7.1827
G01 X17.7349 Y7.1788
G01 X17.6555 Y7.1670
G01 X17.5776 Y7.1475
G01 X17.5021 Y7.1205
G01 X17.4296 Y7.0862
G01 X17.3607 Y7.0449
G01 X17.2963 Y6.9971
G01 X17.2368 Y6.9432
G01 X17.1829 Y6.8838
G01 X17.1351 Y6.8193
G01 X17.0939 Y6.7505
G01 X17.0596 Y6.6779
G01 X17.0325 Y6.6024
G01 X17.0130 Y6.5245
G01 X17.0012 Y6.4452
G01 X16.9973 Y6.3650
G01 X17.0012 Y6.2849
G01 X17.0130 Y6.2055
G01 X17.0325 Y6.1276
G01 X17.0596 Y6.0521
G01 X17.0939 Y5.9796
G01 X17.1351 Y5.9107
G01 X17.1829 Y5.8463
G01 X17.2368 Y5.7868
G01 X17.2963 Y5.7329
G01 X17.3607 Y5.6851
G01 X17.4296 Y5.6439
G01 X17.5021 Y5.6096
G01 X17.5776 Y5.5825
G01 X17.6555 Y5.5630
G01 X17.7349 Y5.5512
G01 X17.8159 Y5.5473
G00 Z2.0000
G00 X10.5512 Y5.6300
G01 F60.00
G01 Z-0.1001
G01 F120.00
G01 X13.8056 Y2.3756
G01 X13.8258 Y2.3574
G01 X13.8462 Y2.3423
G01 X13.8688 Y2.3288
G01 X13.8925 Y2.3176
G01 X13.9164 Y2.3090
G01 X13.9428 Y2.3023
G01 X13.9688 Y2.2985
G01 X13.9950 Y2.2972
G01 X27.9650 Y2.2972
G01 X27.9921 Y2.2986
G01 X28.0173 Y2.3023
G01 X28.0428 Y2.3087
G01 X28.0683 Y2.3179
G01 X28.0913 Y2.3288
G01 X28.1138 Y2.3423
G01 X28.1349 Y2.3580
G01 X28.1544 Y2.3756
G01 X30.6742 Y4.8955
G01 X30.6916 Y4.9146
G01 X30.7067 Y4.9350
G01 X30.7211 Y4.9590
G01 X30.7320 Y4.9820
G01 X30.7408 Y5.0068
G01 X30.7472 Y5.0323
G01 X30.7510 Y5.0578
G01 X30.7523 Y5.0845
G01 X30.7523 Y16.5955
G01 X30.7511 Y16.6213
G01 X30.7470 Y16.6486
G01 X30.7408 Y16.6732
G01 X30.7320 Y16.6980
G01 X30.7207 Y16.7218
G01 X30.7077 Y16.7436
G01 X30.6910 Y16.7661
G01 X30.6739 Y16.7849
G01 X29.9700 Y17.4888
G01 X29.9906 Y17.5325
G01 X30.0174 Y17.6072
G01 X30.0371 Y17.6859
G01 X30.0488 Y17.7657
G01 X30.0527 Y17.8450
G01 X30.0488 Y17.9247
G01 X30.0370 Y18.0045
G01 X30.0172 Y18.0832
G01 X29.9905 Y18.1579
G01 X29.9566 Y18.2297
G01 X29.9149 Y18.2993
G01 X29.8665 Y18.3644
G01 X29.8132 Y18.4232
G01 X29.7544 Y18.4765
G01 X29.6893 Y18.5249
G01 X29.6197 Y18.5666
G01 X29.5479 Y18.6005
G01 X29.4732 Y18.6272
G01 X29.3945 Y18.6470
G01 X29.3143 Y18.6588
G01 X29.2350 Y18.6627
G01 X29.1557 Y18.6588
G01 X29.0746 Y18.6468
G01 X28.9976 Y18.6275
G01 X28.9221 Y18.6005
G01 X28.8488 Y18.5657
G01 X28.7807 Y18.5249
G01 X28.7166 Y18.4774
G01 X28.6562 Y18.4226
G01 X28.6029 Y18.3638
G01 X28.5554 Y18.2997
G01 X28.5137 Y18.2301
G01 X28.4797 Y18.1583
G01 X28.4634 Y18.1128
G01 X26.1823 Y18.1128
G01 X26.1801 Y18.1187
G01 X26.1457 Y18.1912
G01 X26.1049 Y18.2593
G01 X26.0571 Y18.3238
G01 X26.0032 Y18.3832
G01 X25.9444 Y18.4365
G01 X25.8786 Y18.4854
G01 X25.8105 Y18.5262
G01 X25.7379 Y18.5605
G01 X25.6624 Y18.5875
G01 X25.5854 Y18.6068
G01 X25.5043 Y18.6188
G01 X25.4250 Y18.6227
G01 X25.3453 Y18.6188
G01 X25.2655 Y18.6070
G01 X25.1885 Y18.5877
G01 X25.1113 Y18.5601
G01 X25.0396 Y18.5262
G01 X24.9707 Y18.4849
G01 X24.9063 Y18.4371
G01 X24.8468 Y18.3832
G01 X24.7929 Y18.3238
G01 X24.7456 Y18.2600
G01 X24.7035 Y18.1897
G01 X24.6696 Y18.1179
G01 X24.6425 Y18.0424
G01 X24.6230 Y17.9645
G01 X24.6113 Y17.8856
G01 X24.6073 Y17.8050
G01 X24.6112 Y17.7249
G01 X24.6230 Y17.6455
G01 X24.6423 Y17.5685
G01 X24.6699 Y17.4913
G01 X24.7039 Y17.4196
G01 X24.7456 Y17.3500
G01 X24.7929 Y17.2863
G01 X24.8468 Y17.2268
G01 X24.9063 Y17.1729
G01 X24.9707 Y17.1251
G01 X25.0396 Y17.0839
G01 X25.1121 Y17.0496
G01 X25.1876 Y17.0225
G01 X25.2646 Y17.0032
G01 X25.3449 Y16.9912
G01 X25.4250 Y16.9873
G01 X25.5052 Y16.9912
G01 X25.5845 Y17.0030
G01 X25.6624 Y17.0225
G01 X25.7379 Y17.0496
G01 X25.8105 Y17.0839
G01 X25.8786 Y17.1247
G01 X25.9438 Y17.1729
G01 X26.0032 Y17.2268
G01 X26.0571 Y17.2863
G01 X26.1044 Y17.3500
G01 X26.1462 Y17.4196
G01 X26.1801 Y17.4913
G01 X26.2072 Y17.5668
G01 X26.2099 Y17.5772
G01 X28.4634 Y17.5772
G01 X28.4797 Y17.5317
G01 X28.5137 Y17.4599
G01 X28.5549 Y17.3911
G01 X28.6029 Y17.3263
G01 X28.6565 Y17.2671
G01 X28.7163 Y17.2129
G01 X28.7807 Y17.1651
G01 X28.8496 Y17.1239
G01 X28.9221 Y17.0896
G01 X28.9976 Y17.0625
G01 X29.0755 Y17.0430
G01 X29.1549 Y17.0312
G01 X29.2354 Y17.0273
G01 X29.3152 Y17.0312
G01 X29.3950 Y17.0431
G01 X29.4728 Y17.0627
G01 X29.5475 Y17.0894
G01 X29.5912 Y17.1100
G01 X30.2167 Y16.4846
G01 X30.2167 Y5.1955
G01 X27.8541 Y2.8328
G01 X14.1059 Y2.8328
G01 X10.9300 Y6.0088
G01 X10.9506 Y6.0525
G01 X10.9776 Y6.1281
G01 X10.9970 Y6.2055
G01 X11.0087 Y6.2844
G01 X11.0127 Y6.3659
G01 X11.0088 Y6.4452
G01 X10.9971 Y6.5241
G01 X10.9772 Y6.6032
G01 X10.9505 Y6.6779
G01 X10.9162 Y6.7505
G01 X10.8749 Y6.8193
G01 X10.8276 Y6.8831
G01 X10.7732 Y6.9432
G01 X10.7138 Y6.9971
G01 X10.6500 Y7.0444
G01 X10.5805 Y7.0862
G01 X10.5079 Y7.1205
G01 X10.4332 Y7.1472
G01 X10.3537 Y7.1671
G01 X10.2752 Y7.1788
G01 X10.1950 Y7.1827
G01 X10.1149 Y7.1788
G01 X10.0363 Y7.1671
G01 X9.9568 Y7.1472
G01 X9.8821 Y7.1205
G01 X9.8099 Y7.0864
G01 X9.7407 Y7.0449
G01 X9.6763 Y6.9971
G01 X9.6168 Y6.9432
G01 X9.5629 Y6.8838
G01 X9.5151 Y6.8193
G01 X9.4739 Y6.7505
G01 X9.4396 Y6.6779
G01 X9.4125 Y6.6024
G01 X9.3930 Y6.5245
G01 X9.3812 Y6.4452
G01 X9.3773 Y6.3650
G01 X9.3812 Y6.2849
G01 X9.3930 Y6.2055
G01 X9.4125 Y6.1276
G01 X9.4396 Y6.0521
G01 X9.4737 Y5.9799
G01 X9.5151 Y5.9107
G01 X9.5629 Y5.8463
G01 X9.6168 Y5.7868
G01 X9.6763 Y5.7329
G01 X9.7407 Y5.6851
G01 X9.8096 Y5.6439
G01 X9.8821 Y5.6096
G01 X9.9572 Y5.5827
G01 X10.0355 Y5.5630
G01 X10.1149 Y5.5512
G01 X10.1950 Y5.5473
G01 X10.2747 Y5.5512
G01 X10.3545 Y5.5630
G01 X10.4320 Y5.5824
G01 X10.5075 Y5.6094
G01 X10.5512 Y5.6300
G00 Z2.0000
G00 X28.8027 Y6.3754
G01 F60.00
G01 Z-0.1001
G01 F120.00
G01 X28.7983 Y6.4650
G01 X28.7851 Y6.5540
G01 X28.7632 Y6.6414
G01 X28.7329 Y6.7262
G01 X28.6944 Y6.8076
G01 X28.6481 Y6.8849
G01 X28.5944 Y6.9572
G01 X28.5339 Y7.0239
G01 X28.4672 Y7.0844
G01 X28.3949 Y7.1381
G01 X28.3176 Y7.1844
G01 X28.2362 Y7.2229
G01 X28.1514 Y7.2532
G01 X28.0640 Y7.2751
G01 X27.9750 Y7.2883
G01 X27.8850 Y7.2927
G01 X27.7951 Y7.2883
G01 X27.7060 Y7.2751
G01 X27.6186 Y7.2532
G01 X27.5338 Y7.2229
G01 X27.4524 Y7.1844
G01 X27.3752 Y7.1381
G01 X27.3028 Y7.0844
G01 X27.2361 Y7.0239
G01 X27.1756 Y6.9572
G01 X27.1220 Y6.8849
G01 X27.0757 Y6.8076
G01 X27.0372 Y6.7262
G01 X27.0068 Y6.6414
G01 X26.9849 Y6.5540
G01 X26.9717 Y6.4650
G01 X26.9673 Y6.3750
G01 X26.9717 Y6.2851
G01 X26.9849 Y6.1960
G01 X27.0068 Y6.1086
G01 X27.0372 Y6.0238
G01 X27.0757 Y5.9424
G01 X27.1220 Y5.8652
G01 X27.1756 Y5.7928
G01 X27.2361 Y5.7261
G01 X27.3028 Y5.6656
G01 X27.3752 Y5.6120
G01 X27.4524 Y5.5657
G01 X27.5338 Y5.5272
G01 X27.6186 Y5.4968
G01 X27.7060 Y5.4749
G01 X27.7951 Y5.4617
G01 X27.8850 Y5.4573
G01 X27.9750 Y5.4617
G01 X28.0640 Y5.4749
G01 X28.1514 Y5.4968
G01 X28.2362 Y5.5272
G01 X28.3176 Y5.5657
G01 X28.3949 Y5.6120
G01 X28.4672 Y5.6656
G01 X28.5339 Y5.7261
G01 X28.5944 Y5.7928
G01 X28.6481 Y5.8652
G01 X28.6944 Y5.9424
G01 X28.7329 Y6.0238
G01 X28.7632 Y6.1086
G01 X28.7851 Y6.1960
G01 X28.7983 Y6.2851
G01 X28.8027 Y6.3754
G00 Z2.0000
G00 X28.8027 Y8.8754
G01 F60.00
G01 Z-0.1001
G01 F120.00
G01 X28.7983 Y8.9650
G01 X28.7851 Y9.0540
G01 X28.7632 Y9.1414
G01 X28.7329 Y9.2262
G01 X28.6944 Y9.3076
G01 X28.6481 Y9.3849
G01 X28.5944 Y9.4572
G01 X28.5339 Y9.5239
G01 X28.4672 Y9.5844
G01 X28.3949 Y9.6381
G01 X28.3176 Y9.6844
G01 X28.2362 Y9.7229
G01 X28.1514 Y9.7532
G01 X28.0640 Y9.7751
G01 X27.9750 Y9.7883
G01 X27.8850 Y9.7927
G01 X27.7951 Y9.7883
G01 X27.7060 Y9.7751
G01 X27.6186 Y9.7532
G01 X27.5338 Y9.7229
G01 X27.4524 Y9.6844
G01 X27.3752 Y9.6381
G01 X27.3028 Y9.5844
G01 X27.2361 Y9.5239
G01 X27.1756 Y9.4572
G01 X27.1220 Y9.3849
G01 X27.0757 Y9.3076
G01 X27.0372 Y9.2262
G01 X27.0068 Y9.1414
G01 X26.9849 Y9.0540
G01 X26.9717 Y8.9650
G01 X26.9673 Y8.8750
G01 X26.9717 Y8.7851
G01 X26.9849 Y8.6960
G01 X27.0068 Y8.6086
G01 X27.0372 Y8.5238
G01 X27.0757 Y8.4424
G01 X27.1220 Y8.3652
G01 X27.1756 Y8.2928
G01 X27.2361 Y8.2261
G01 X27.3028 Y8.1656
G01 X27.3752 Y8.1120
G01 X27.4524 Y8.0657
G01 X27.5338 Y8.0272
G01 X27.6186 Y7.9968
G01 X27.7060 Y7.9749
G01 X27.7951 Y7.9617
G01 X27.8850 Y7.9573
G01 X27.9750 Y7.9617
G01 X28.0640 Y7.9749
G01 X28.1514 Y7.9968
G01 X28.2362 Y8.0272
G01 X28.3176 Y8.0657
G01 X28.3949 Y8.1120
G01 X28.4672 Y8.1656
G01 X28.5339 Y8.2261
G01 X28.5944 Y8.2928
G01 X28.6481 Y8.3652
G01 X28.6944 Y8.4424
G01 X28.7329 Y8.5238
G01 X28.7632 Y8.6086
G01 X28.7851 Y8.6960
G01 X28.7983 Y8.7851
G01 X28.8027 Y8.8754
G00 Z2.0000
G00 X26.1823 Y20.6528
G01 F60.00
G01 Z-0.1001
G01 F120.00
G01 X26.1801 Y20.6587
G01 X26.1462 Y20.7305
G01 X26.1049 Y20.7993
G01 X26.0571 Y20.8638
G01 X26.0032 Y20.9232
G01 X25.9438 Y20.9771
G01 X25.8793 Y21.0249
G01 X25.8105 Y21.0662
G01 X25.7379 Y21.1005
G01 X25.6624 Y21.1275
G01 X25.5845 Y21.1470
G01 X25.5052 Y21.1588
G01 X25.4250 Y21.1627
G01 X25.3449 Y21.1588
G01 X25.2655 Y21.1470
G01 X25.1876 Y21.1275
G01 X25.1121 Y21.1005
G01 X25.0396 Y21.0662
G01 X24.9707 Y21.0249
G01 X24.9063 Y20.9771
G01 X24.8468 Y20.9232
G01 X24.7929 Y20.8638
G01 X24.7451 Y20.7993
G01 X24.7039 Y20.7305
G01 X24.6696 Y20.6579
G01 X24.6425 Y20.5824
G01 X24.6230 Y20.5045
G01 X24.6112 Y20.4252
G01 X24.6073 Y20.3450
G01 X24.6112 Y20.2649
G01 X24.6230 Y20.1855
G01 X24.6425 Y20.1076
G01 X24.6696 Y20.0321
G01 X24.7039 Y19.9596
G01 X24.7447 Y19.8915
G01 X24.7929 Y19.8263
G01 X24.8468 Y19.7668
G01 X24.9056 Y19.7135
G01 X24.9707 Y19.6651
G01 X25.0396 Y19.6239
G01 X25.1113 Y19.5899
G01 X25.1876 Y19.5625
G01 X25.2655 Y19.5430
G01 X25.3440 Y19.5314
G01 X25.4254 Y19.5273
G01 X25.5052 Y19.5312
G01 X25.5837 Y19.5429
G01 X25.6632 Y19.5628
G01 X25.7379 Y19.5896
G01 X25.8105 Y19.6239
G01 X25.8793 Y19.6651
G01 X25.9431 Y19.7124
G01 X26.0038 Y19.7674
G01 X26.0571 Y19.8263
G01 X26.1049 Y19.8907
G01 X26.1462 Y19.9596
G01 X26.1801 Y20.0313
G01 X26.2072 Y20.1068
G01 X26.2099 Y20.1172
G01 X28.4634 Y20.1172
G01 X28.4797 Y20.0717
G01 X28.5141 Y19.9992
G01 X28.5551 Y19.9307
G01 X28.6027 Y19.8666
G01 X28.6568 Y19.8068
G01 X28.7156 Y19.7535
G01 X28.7811 Y19.7049
G01 X28.8496 Y19.6639
G01 X28.9213 Y19.6299
G01 X28.9985 Y19.6023
G01 X29.0755 Y19.5830
G01 X29.1549 Y19.5712
G01 X29.2350 Y19.5673
G01 X29.3143 Y19.5712
G01 X29.3954 Y19.5832
G01 X29.4724 Y19.6025
G01 X29.5487 Y19.6299
G01 X29.6205 Y19.6639
G01 X29.6893 Y19.7051
G01 X29.7538 Y19.7529
G01 X29.8132 Y19.8068
G01 X29.8671 Y19.8663
G01 X29.9144 Y19.9300
G01 X29.9566 Y20.0003
G01 X29.9905 Y20.0721
G01 X30.0175 Y20.1476
G01 X30.0370 Y20.2255
G01 X30.0488 Y20.3049
G01 X30.0527 Y20.3850
G01 X30.0488 Y20.4652
G01 X30.0370 Y20.5445
G01 X30.0175 Y20.6224
G01 X29.9905 Y20.6979
G01 X29.9562 Y20.7705
G01 X29.9149 Y20.8393
G01 X29.8671 Y20.9038
G01 X29.8132 Y20.9632
G01 X29.7538 Y21.0171
G01 X29.6893 Y21.0649
G01 X29.6205 Y21.1062
G01 X29.5479 Y21.1405
G01 X29.4724 Y21.1675
G01 X29.3945 Y21.1870
G01 X29.3152 Y21.1988
G01 X29.2350 Y21.2027
G01 X29.1557 Y21.1988
G01 X29.0746 Y21.1868
G01 X28.9976 Y21.1675
G01 X28.9221 Y21.1405
G01 X28.8496 Y21.1062
G01 X28.7811 Y21.0651
G01 X28.7156 Y21.0165
G01 X28.6568 Y20.9632
G01 X28.6027 Y20.9034
G01 X28.5551 Y20.8393
G01 X28.5141 Y20.7709
G01 X28.4797 Y20.6983
G01 X28.4634 Y20.6528
G01 X26.1823 Y20.6528
G00 Z2.0000
M05
G00 Z2.0000
G00 Z15.00


