(G-CODE GENERATED BY FLATCAM v8.994 - www.flatcam.org - Version Date: 2020/11/7)

(Name: ecg_pcd_drawing-PTH.drl_edit_cnc)
(Type: G-code from Geometry)
(Units: MM)

(Created on Saturday, 09 December 2023 at 17:16)

(This preprocessor is the default preprocessor used by FlatCAM.)
(It is made to work with MACH3 compatible motion controllers.)


(TOOLS DIAMETER: )
(Tool: 1 -> Dia: 0.7)

(FEEDRATE Z: )
(Tool: 1 -> Feedrate: 40.0)

(FEEDRATE RAPIDS: )
(Tool: 1 -> Feedrate Rapids: 1500)

(Z_CUT: )
(Tool: 1 -> Z_Cut: -0.617)

(Tools Offset: )
(Tool: 1 -> Offset Z: 0.0)

(Z_MOVE: )
(Tool: 1 -> Z_Move: 2.0)

(Z Toolchange: 15 mm)
(X,Y Toolchange: 0.0000, 0.0000 mm)
(Z Start: None mm)
(Z End: 0.5 mm)
(X,Y End: None mm)
(Steps per circle: 64)
(Preprocessor Excellon: default)

(X range:    5.3559 ...   94.4099  mm)
(Y range:   14.9900 ...   48.7100  mm)

(Spindle Speed: 0 RPM)
G21
G90
G94

G01 F40.00

M5
G00 Z15.0000
T1
G00 X0.0000 Y0.0000                
M6
(MSG, Change to Tool Dia = 0.7000 ||| Total drills for tool T1 = 87)
M0
G00 Z15.0000

G01 F40.00
M03
G00 X8.2459 Y43.2400
G01 Z-0.6170
G01 Z0
G00 Z2.0000
G00 X10.7859 Y43.2400
G01 Z-0.6170
G01 Z0
G00 Z2.0000
G00 X15.8659 Y45.8200
G01 Z-0.6170
G01 Z0
G00 Z2.0000
G00 X18.4059 Y45.8200
G01 Z-0.6170
G01 Z0
G00 Z2.0000
G00 X20.9459 Y45.8200
G01 Z-0.6170
G01 Z0
G00 Z2.0000
G00 X23.4859 Y45.8200
G01 Z-0.6170
G01 Z0
G00 Z2.0000
G00 X26.0259 Y45.8200
G01 Z-0.6170
G01 Z0
G00 Z2.0000
G00 X33.6459 Y48.3600
G01 Z-0.6170
G01 Z0
G00 Z2.0000
G00 X36.1859 Y48.3600
G01 Z-0.6170
G01 Z0
G00 Z2.0000
G00 X38.7259 Y48.3600
G01 Z-0.6170
G01 Z0
G00 Z2.0000
G00 X45.0759 Y48.3600
G01 Z-0.6170
G01 Z0
G00 Z2.0000
G00 X57.7759 Y48.3600
G01 Z-0.6170
G01 Z0
G00 Z2.0000
G00 X56.5059 Y40.7400
G01 Z-0.6170
G01 Z0
G00 Z2.0000
G00 X50.1459 Y35.6600
G01 Z-0.6170
G01 Z0
G00 Z2.0000
G00 X50.1459 Y33.1200
G01 Z-0.6170
G01 Z0
G00 Z2.0000
G00 X50.1459 Y30.5800
G01 Z-0.6170
G01 Z0
G00 Z2.0000
G00 X50.1459 Y28.0400
G01 Z-0.6170
G01 Z0
G00 Z2.0000
G00 X56.5059 Y28.0400
G01 Z-0.6170
G01 Z0
G00 Z2.0000
G00 X64.1259 Y28.0400
G01 Z-0.6170
G01 Z0
G00 Z2.0000
G00 X69.2059 Y28.0400
G01 Z-0.6170
G01 Z0
G00 Z2.0000
G00 X64.1259 Y40.7400
G01 Z-0.6170
G01 Z0
G00 Z2.0000
G00 X61.6259 Y43.2800
G01 Z-0.6170
G01 Z0
G00 Z2.0000
G00 X64.1259 Y43.2800
G01 Z-0.6170
G01 Z0
G00 Z2.0000
G00 X69.2059 Y40.7400
G01 Z-0.6170
G01 Z0
G00 Z2.0000
G00 X69.2059 Y43.2800
G01 Z-0.6170
G01 Z0
G00 Z2.0000
G00 X71.7059 Y43.2800
G01 Z-0.6170
G01 Z0
G00 Z2.0000
G00 X76.8259 Y45.8200
G01 Z-0.6170
G01 Z0
G00 Z2.0000
G00 X79.3659 Y42.0000
G01 Z-0.6170
G01 Z0
G00 Z2.0000
G00 X79.3659 Y39.4600
G01 Z-0.6170
G01 Z0
G00 Z2.0000
G00 X79.3659 Y36.9200
G01 Z-0.6170
G01 Z0
G00 Z2.0000
G00 X76.8259 Y35.6200
G01 Z-0.6170
G01 Z0
G00 Z2.0000
G00 X74.2859 Y35.6200
G01 Z-0.6170
G01 Z0
G00 Z2.0000
G00 X74.2859 Y33.1200
G01 Z-0.6170
G01 Z0
G00 Z2.0000
G00 X76.8259 Y33.1200
G01 Z-0.6170
G01 Z0
G00 Z2.0000
G00 X79.3659 Y34.3800
G01 Z-0.6170
G01 Z0
G00 Z2.0000
G00 X81.9059 Y30.5400
G01 Z-0.6170
G01 Z0
G00 Z2.0000
G00 X81.9059 Y28.0400
G01 Z-0.6170
G01 Z0
G00 Z2.0000
G00 X84.4459 Y28.0800
G01 Z-0.6170
G01 Z0
G00 Z2.0000
G00 X84.4459 Y30.5800
G01 Z-0.6170
G01 Z0
G00 Z2.0000
G00 X88.9799 Y30.5800
G01 Z-0.6170
G01 Z0
G00 Z2.0000
G00 X86.9859 Y34.3800
G01 Z-0.6170
G01 Z0
G00 Z2.0000
G00 X86.9859 Y36.9200
G01 Z-0.6170
G01 Z0
G00 Z2.0000
G00 X86.9859 Y39.4600
G01 Z-0.6170
G01 Z0
G00 Z2.0000
G00 X86.9859 Y42.0000
G01 Z-0.6170
G01 Z0
G00 Z2.0000
G00 X89.5259 Y45.8200
G01 Z-0.6170
G01 Z0
G00 Z2.0000
G00 X94.0599 Y30.5800
G01 Z-0.6170
G01 Z0
G00 Z2.0000
G00 X94.0599 Y17.8800
G01 Z-0.6170
G01 Z0
G00 Z2.0000
G00 X88.9799 Y17.8800
G01 Z-0.6170
G01 Z0
G00 Z2.0000
G00 X84.4459 Y15.3400
G01 Z-0.6170
G01 Z0
G00 Z2.0000
G00 X76.8259 Y25.5000
G01 Z-0.6170
G01 Z0
G00 Z2.0000
G00 X76.8259 Y22.9600
G01 Z-0.6170
G01 Z0
G00 Z2.0000
G00 X76.8259 Y20.4200
G01 Z-0.6170
G01 Z0
G00 Z2.0000
G00 X71.7459 Y15.3400
G01 Z-0.6170
G01 Z0
G00 Z2.0000
G00 X69.2059 Y17.8800
G01 Z-0.6170
G01 Z0
G00 Z2.0000
G00 X56.5059 Y17.8800
G01 Z-0.6170
G01 Z0
G00 Z2.0000
G00 X48.8859 Y23.0000
G01 Z-0.6170
G01 Z0
G00 Z2.0000
G00 X46.3459 Y23.0000
G01 Z-0.6170
G01 Z0
G00 Z2.0000
G00 X48.8859 Y25.5000
G01 Z-0.6170
G01 Z0
G00 Z2.0000
G00 X46.3459 Y25.5000
G01 Z-0.6170
G01 Z0
G00 Z2.0000
G00 X42.5259 Y28.0400
G01 Z-0.6170
G01 Z0
G00 Z2.0000
G00 X42.5259 Y30.5800
G01 Z-0.6170
G01 Z0
G00 Z2.0000
G00 X42.5259 Y33.1200
G01 Z-0.6170
G01 Z0
G00 Z2.0000
G00 X42.5259 Y35.6600
G01 Z-0.6170
G01 Z0
G00 Z2.0000
G00 X38.7259 Y30.5400
G01 Z-0.6170
G01 Z0
G00 Z2.0000
G00 X38.7259 Y28.0400
G01 Z-0.6170
G01 Z0
G00 Z2.0000
G00 X36.1859 Y30.5400
G01 Z-0.6170
G01 Z0
G00 Z2.0000
G00 X36.1859 Y28.0400
G01 Z-0.6170
G01 Z0
G00 Z2.0000
G00 X32.5739 Y25.5000
G01 Z-0.6170
G01 Z0
G00 Z2.0000
G00 X29.2899 Y28.0400
G01 Z-0.6170
G01 Z0
G00 Z2.0000
G00 X32.5739 Y38.2000
G01 Z-0.6170
G01 Z0
G00 Z2.0000
G00 X27.4939 Y38.2000
G01 Z-0.6170
G01 Z0
G00 Z2.0000
G00 X27.4939 Y35.7000
G01 Z-0.6170
G01 Z0
G00 Z2.0000
G00 X24.9539 Y35.7000
G01 Z-0.6170
G01 Z0
G00 Z2.0000
G00 X24.9539 Y38.2000
G01 Z-0.6170
G01 Z0
G00 Z2.0000
G00 X21.2809 Y40.7400
G01 Z-0.6170
G01 Z0
G00 Z2.0000
G00 X21.2809 Y38.2000
G01 Z-0.6170
G01 Z0
G00 Z2.0000
G00 X21.2809 Y35.6600
G01 Z-0.6170
G01 Z0
G00 Z2.0000
G00 X21.2809 Y33.1200
G01 Z-0.6170
G01 Z0
G00 Z2.0000
G00 X16.5899 Y28.0400
G01 Z-0.6170
G01 Z0
G00 Z2.0000
G00 X18.4059 Y20.4200
G01 Z-0.6170
G01 Z0
G00 Z2.0000
G00 X5.7059 Y20.4200
G01 Z-0.6170
G01 Z0
G00 Z2.0000
G00 X13.6609 Y33.1200
G01 Z-0.6170
G01 Z0
G00 Z2.0000
G00 X13.6609 Y35.6600
G01 Z-0.6170
G01 Z0
G00 Z2.0000
G00 X13.6609 Y38.2000
G01 Z-0.6170
G01 Z0
G00 Z2.0000
G00 X13.6609 Y40.7400
G01 Z-0.6170
G01 Z0
G00 Z2.0000
G00 X10.7859 Y40.7400
G01 Z-0.6170
G01 Z0
G00 Z2.0000
G00 X8.2459 Y40.7400
G01 Z-0.6170
G01 Z0
G00 Z2.0000
M05
G00 Z0.50


