(G-CODE GENERATED BY FLATCAM v8.994 - www.flatcam.org - Version Date: 2020/11/7)

(Name: Filter DualOp-F_Cu.gbr_iso_combined_cnc)
(Type: G-code from Geometry)
(Units: MM)

(Created on Thursday, 07 December 2023 at 00:30)

(This preprocessor is the default preprocessor used by FlatCAM.)
(It is made to work with MACH3 compatible motion controllers.)

(TOOL DIAMETER: 0.1 mm)
(Feedrate_XY: 100.0 mm/min)
(Feedrate_Z: 100.0 mm/min)
(Feedrate rapids 1500.0 mm/min)

(Z_Cut: 0.0 mm)
(Z_Move: 2.0 mm)
(Z Start: None mm)
(Z End: 5.0 mm)
(X,Y End: None mm)
(Steps per circle: 64)
(Preprocessor Geometry: default)

(X range:    0.0000 ...   33.1700  mm)
(Y range:    0.0000 ...   29.3600  mm)

(Spindle Speed: 0.0 RPM)
G21
G90
G94

G01 F100.00

M5
G00 Z15.0000
G00 X0.0000 Y0.0000
T1
M6    
(MSG, Change to Tool Dia = 0.1000)
M0
G00 Z15.0000

M03
G01 F100.00
G00 X0.0001 Y0.0726
G01 F100.00
G01 Z0.0000
G01 F100.00
G01 X0.0005 Y0.0664
G01 X0.0017 Y0.0592
G01 X0.0036 Y0.0521
G01 X0.0062 Y0.0452
G01 X0.0094 Y0.0386
G01 X0.0133 Y0.0323
G01 X0.0178 Y0.0265
G01 X0.0228 Y0.0211
G01 X0.0274 Y0.0170
G01 X0.0333 Y0.0126
G01 X0.0397 Y0.0089
G01 X0.0463 Y0.0057
G01 X0.0532 Y0.0032
G01 X0.0604 Y0.0014
G01 X0.0677 Y0.0004
G01 X0.0750 Y0.0000
G01 X33.0950 Y0.0000
G01 X33.1024 Y0.0004
G01 X33.1084 Y0.0012
G01 X33.1156 Y0.0029
G01 X33.1214 Y0.0048
G01 X33.1325 Y0.0101
G01 X33.1377 Y0.0133
G01 X33.1435 Y0.0178
G01 X33.1489 Y0.0228
G01 X33.1545 Y0.0294
G01 X33.1587 Y0.0354
G01 X33.1633 Y0.0441
G01 X33.1664 Y0.0521
G01 X33.1683 Y0.0592
G01 X33.1697 Y0.0677
G01 X33.1700 Y0.0750
G01 X33.1700 Y29.2850
G01 X33.1697 Y29.2924
G01 X33.1688 Y29.2984
G01 X33.1671 Y29.3056
G01 X33.1652 Y29.3114
G01 X33.1600 Y29.3225
G01 X33.1567 Y29.3277
G01 X33.1522 Y29.3335
G01 X33.1472 Y29.3389
G01 X33.1407 Y29.3445
G01 X33.1346 Y29.3487
G01 X33.1260 Y29.3533
G01 X33.1180 Y29.3564
G01 X33.1108 Y29.3583
G01 X33.1024 Y29.3597
G01 X33.0950 Y29.3600
G01 X0.0750 Y29.3600
G01 X0.0677 Y29.3597
G01 X0.0616 Y29.3588
G01 X0.0544 Y29.3571
G01 X0.0486 Y29.3552
G01 X0.0375 Y29.3500
G01 X0.0323 Y29.3467
G01 X0.0265 Y29.3422
G01 X0.0211 Y29.3372
G01 X0.0155 Y29.3307
G01 X0.0113 Y29.3246
G01 X0.0067 Y29.3160
G01 X0.0036 Y29.3080
G01 X0.0017 Y29.3008
G01 X0.0004 Y29.2924
G01 X0.0000 Y29.2850
G01 X0.0001 Y0.0726
G00 Z2.0000
G00 X0.1500 Y0.1500
G01 F100.00
G01 Z0.0000
G01 F100.00
G01 X33.0200 Y0.1500
G01 X33.0200 Y29.2100
G01 X0.1500 Y29.2100
G01 X0.1500 Y0.1500
G00 Z2.0000
G00 X9.3994 Y6.3293
G01 F100.00
G01 Z0.0000
G01 F100.00
G01 X9.4113 Y6.2492
G01 X9.4310 Y6.1706
G01 X9.4588 Y6.0920
G01 X9.4954 Y6.0143
G01 X9.5383 Y5.9428
G01 X9.5880 Y5.8758
G01 X9.6457 Y5.8123
G01 X9.7058 Y5.7580
G01 X9.7708 Y5.7097
G01 X9.8433 Y5.6660
G01 X9.9197 Y5.6297
G01 X10.0006 Y5.6010
G01 X10.0792 Y5.5813
G01 X10.1593 Y5.5694
G01 X10.2438 Y5.5650
G01 X10.3283 Y5.5691
G01 X10.4120 Y5.5816
G01 X10.4929 Y5.6020
G01 X10.5692 Y5.6293
G01 X10.5945 Y5.6411
G01 X13.8328 Y2.4028
G01 X13.8546 Y2.3830
G01 X13.8763 Y2.3669
G01 X13.9035 Y2.3503
G01 X13.9324 Y2.3368
G01 X13.9579 Y2.3278
G01 X13.9853 Y2.3209
G01 X14.0156 Y2.3163
G01 X14.0450 Y2.3149
G01 X28.0150 Y2.3149
G01 X28.0469 Y2.3166
G01 X28.0736 Y2.3207
G01 X28.0998 Y2.3272
G01 X28.1299 Y2.3377
G01 X28.1576 Y2.3509
G01 X28.1818 Y2.3655
G01 X28.2035 Y2.3815
G01 X28.2272 Y2.4028
G01 X30.7476 Y4.9232
G01 X30.7665 Y4.9441
G01 X30.7841 Y4.9678
G01 X30.7992 Y4.9930
G01 X30.8108 Y5.0174
G01 X30.8224 Y5.0498
G01 X30.8289 Y5.0760
G01 X30.8331 Y5.1039
G01 X30.8346 Y5.1345
G01 X30.8346 Y16.6455
G01 X30.8334 Y16.6725
G01 X30.8283 Y16.7064
G01 X30.8217 Y16.7326
G01 X30.8118 Y16.7604
G01 X30.7992 Y16.7870
G01 X30.7854 Y16.8102
G01 X30.7649 Y16.8378
G01 X30.7467 Y16.8577
G01 X30.0589 Y17.5455
G01 X30.0708 Y17.5709
G01 X30.0980 Y17.6471
G01 X30.1184 Y17.7280
G01 X30.1309 Y17.8117
G01 X30.1350 Y17.8962
G01 X30.1306 Y17.9808
G01 X30.1187 Y18.0608
G01 X30.0991 Y18.1394
G01 X30.0703 Y18.2203
G01 X30.0341 Y18.2968
G01 X29.9918 Y18.3672
G01 X29.9436 Y18.4323
G01 X29.8861 Y18.4961
G01 X29.8223 Y18.5536
G01 X29.7572 Y18.6018
G01 X29.6878 Y18.6434
G01 X29.6103 Y18.6803
G01 X29.5294 Y18.7091
G01 X29.4508 Y18.7287
G01 X29.3708 Y18.7406
G01 X29.2838 Y18.7450
G01 X29.2017 Y18.7409
G01 X29.1216 Y18.7291
G01 X29.0383 Y18.7084
G01 X28.9597 Y18.6803
G01 X28.8865 Y18.6457
G01 X28.8118 Y18.6011
G01 X28.7458 Y18.5521
G01 X28.6857 Y18.4977
G01 X28.6272 Y18.4333
G01 X28.5783 Y18.3672
G01 X28.5360 Y18.2968
G01 X28.5002 Y18.2214
G01 X28.4906 Y18.1951
G01 X26.2534 Y18.1951
G01 X26.2246 Y18.2557
G01 X26.1818 Y18.3272
G01 X26.1321 Y18.3942
G01 X26.0777 Y18.4543
G01 X26.0123 Y18.5136
G01 X25.9472 Y18.5618
G01 X25.8778 Y18.6034
G01 X25.7980 Y18.6412
G01 X25.7218 Y18.6684
G01 X25.6408 Y18.6887
G01 X25.5559 Y18.7011
G01 X25.4750 Y18.7050
G01 X25.3929 Y18.7010
G01 X25.3092 Y18.6887
G01 X25.2306 Y18.6691
G01 X25.1475 Y18.6393
G01 X25.0743 Y18.6046
G01 X25.0028 Y18.5618
G01 X24.9358 Y18.5121
G01 X24.8740 Y18.4561
G01 X24.8180 Y18.3942
G01 X24.7697 Y18.3293
G01 X24.7243 Y18.2535
G01 X24.6897 Y18.1803
G01 X24.6616 Y18.1018
G01 X24.6413 Y18.0208
G01 X24.6294 Y17.9408
G01 X24.6251 Y17.8526
G01 X24.6291 Y17.7717
G01 X24.6419 Y17.6868
G01 X24.6616 Y17.6083
G01 X24.6897 Y17.5297
G01 X24.7254 Y17.4543
G01 X24.7683 Y17.3828
G01 X24.8180 Y17.3158
G01 X24.8740 Y17.2540
G01 X24.9358 Y17.1980
G01 X25.0008 Y17.1497
G01 X25.0743 Y17.1054
G01 X25.1475 Y17.0707
G01 X25.2306 Y17.0410
G01 X25.3092 Y17.0213
G01 X25.3917 Y17.0091
G01 X25.4750 Y17.0050
G01 X25.5583 Y17.0091
G01 X25.6408 Y17.0213
G01 X25.7218 Y17.0416
G01 X25.8003 Y17.0697
G01 X25.8757 Y17.1054
G01 X25.9472 Y17.1483
G01 X26.0142 Y17.1980
G01 X26.0761 Y17.2540
G01 X26.1321 Y17.3158
G01 X26.1818 Y17.3828
G01 X26.2246 Y17.4543
G01 X26.2603 Y17.5297
G01 X26.2837 Y17.5949
G01 X28.4907 Y17.5949
G01 X28.5002 Y17.5686
G01 X28.5348 Y17.4954
G01 X28.5776 Y17.4238
G01 X28.6280 Y17.3558
G01 X28.6831 Y17.2949
G01 X28.7458 Y17.2380
G01 X28.8128 Y17.1883
G01 X28.8843 Y17.1454
G01 X28.9597 Y17.1097
G01 X29.0383 Y17.0816
G01 X29.1192 Y17.0613
G01 X29.2017 Y17.0491
G01 X29.2862 Y17.0450
G01 X29.3683 Y17.0491
G01 X29.4520 Y17.0616
G01 X29.5329 Y17.0820
G01 X29.6092 Y17.1093
G01 X29.6345 Y17.1211
G01 X30.2344 Y16.5212
G01 X30.2344 Y5.2588
G01 X27.8907 Y2.9151
G01 X14.1693 Y2.9151
G01 X11.0189 Y6.0655
G01 X11.0308 Y6.0909
G01 X11.0588 Y6.1694
G01 X11.0787 Y6.2492
G01 X11.0910 Y6.3329
G01 X11.0950 Y6.4150
G01 X11.0909 Y6.4983
G01 X11.0787 Y6.5808
G01 X11.0588 Y6.6606
G01 X11.0303 Y6.7403
G01 X10.9957 Y6.8135
G01 X10.9503 Y6.8893
G01 X10.9021 Y6.9542
G01 X10.8461 Y7.0161
G01 X10.7842 Y7.0721
G01 X10.7183 Y7.1211
G01 X10.6435 Y7.1657
G01 X10.5703 Y7.2003
G01 X10.4918 Y7.2284
G01 X10.4108 Y7.2487
G01 X10.3308 Y7.2606
G01 X10.2450 Y7.2650
G01 X10.1617 Y7.2609
G01 X10.0816 Y7.2491
G01 X9.9983 Y7.2284
G01 X9.9175 Y7.1993
G01 X9.8443 Y7.1646
G01 X9.7749 Y7.1231
G01 X9.7039 Y7.0705
G01 X9.6440 Y7.0161
G01 X9.5880 Y6.9542
G01 X9.5370 Y6.8852
G01 X9.4954 Y6.8157
G01 X9.4607 Y6.7425
G01 X9.4316 Y6.6618
G01 X9.4109 Y6.5784
G01 X9.3991 Y6.4983
G01 X9.3951 Y6.4175
G01 X9.3994 Y6.3293
G00 Z2.0000
G00 X5.5794 Y11.4193
G01 F100.00
G01 Z0.0000
G01 F100.00
G01 X5.5913 Y11.3392
G01 X5.6116 Y11.2583
G01 X5.6397 Y11.1797
G01 X5.6754 Y11.1043
G01 X5.7183 Y11.0328
G01 X5.7680 Y10.9658
G01 X5.8240 Y10.9040
G01 X5.8839 Y10.8496
G01 X5.9549 Y10.7970
G01 X6.0243 Y10.7554
G01 X6.1020 Y10.7188
G01 X6.1783 Y10.6916
G01 X6.2592 Y10.6713
G01 X6.3417 Y10.6591
G01 X6.4238 Y10.6550
G01 X6.5108 Y10.6594
G01 X6.5908 Y10.6713
G01 X6.6718 Y10.6916
G01 X6.7503 Y10.7197
G01 X6.8235 Y10.7543
G01 X6.8983 Y10.7990
G01 X6.9642 Y10.8480
G01 X7.0243 Y10.9023
G01 X7.0828 Y10.9667
G01 X7.1318 Y11.0328
G01 X7.1741 Y11.1033
G01 X7.2098 Y11.1786
G01 X7.2194 Y11.2049
G01 X9.3950 Y11.2049
G01 X9.3953 Y10.6901
G01 X9.3972 Y10.6805
G01 X9.4004 Y10.6725
G01 X9.4056 Y10.6643
G01 X9.4114 Y10.6580
G01 X9.4183 Y10.6528
G01 X9.4270 Y10.6484
G01 X9.4353 Y10.6460
G01 X9.4450 Y10.6450
G01 X11.0450 Y10.6450
G01 X11.0536 Y10.6457
G01 X11.0619 Y10.6479
G01 X11.0686 Y10.6509
G01 X11.0758 Y10.6556
G01 X11.0821 Y10.6614
G01 X11.0873 Y10.6683
G01 X11.0912 Y10.6759
G01 X11.0938 Y10.6841
G01 X11.0949 Y10.6913
G01 X11.0950 Y11.1949
G01 X12.6607 Y11.1949
G01 X16.4033 Y7.4523
G01 X16.4251 Y7.4325
G01 X16.4468 Y7.4164
G01 X16.4762 Y7.3987
G01 X16.5029 Y7.3864
G01 X16.5284 Y7.3773
G01 X16.5546 Y7.3707
G01 X16.5861 Y7.3658
G01 X16.6155 Y7.3644
G01 X21.5712 Y7.3644
G01 X21.9905 Y6.9451
G01 X21.9873 Y6.9228
G01 X21.9850 Y6.8750
G01 X21.9850 Y5.9750
G01 X21.9874 Y5.9260
G01 X21.9942 Y5.8799
G01 X22.0065 Y5.8299
G01 X22.0231 Y5.7837
G01 X22.0441 Y5.7393
G01 X22.0693 Y5.6972
G01 X22.0985 Y5.6578
G01 X22.1315 Y5.6215
G01 X22.1678 Y5.5885
G01 X22.2072 Y5.5593
G01 X22.2515 Y5.5329
G01 X22.2937 Y5.5131
G01 X22.3375 Y5.4973
G01 X22.3875 Y5.4846
G01 X22.4385 Y5.4772
G01 X22.4850 Y5.4750
G01 X23.3850 Y5.4750
G01 X23.4340 Y5.4774
G01 X23.4814 Y5.4844
G01 X23.5325 Y5.4973
G01 X23.5764 Y5.5131
G01 X23.6185 Y5.5329
G01 X23.6628 Y5.5593
G01 X23.7041 Y5.5901
G01 X23.7386 Y5.6215
G01 X23.7699 Y5.6560
G01 X23.8007 Y5.6972
G01 X23.8260 Y5.7393
G01 X23.8460 Y5.7814
G01 X23.8635 Y5.8299
G01 X23.8758 Y5.8799
G01 X23.8826 Y5.9260
G01 X23.8850 Y5.9738
G01 X23.8850 Y6.8750
G01 X23.8826 Y6.9240
G01 X23.8754 Y6.9726
G01 X23.8641 Y7.0178
G01 X23.8460 Y7.0686
G01 X23.8260 Y7.1107
G01 X23.8007 Y7.1528
G01 X23.7715 Y7.1922
G01 X23.7386 Y7.2286
G01 X23.7022 Y7.2615
G01 X23.6628 Y7.2907
G01 X23.6207 Y7.3160
G01 X23.5786 Y7.3360
G01 X23.5278 Y7.3541
G01 X23.4826 Y7.3654
G01 X23.4340 Y7.3726
G01 X23.3850 Y7.3750
G01 X22.4850 Y7.3750
G01 X22.4372 Y7.3727
G01 X22.4149 Y7.3695
G01 X21.9059 Y7.8784
G01 X21.8859 Y7.8965
G01 X21.8642 Y7.9127
G01 X21.8391 Y7.9280
G01 X21.8104 Y7.9418
G01 X21.7826 Y7.9517
G01 X21.7516 Y7.9593
G01 X21.7249 Y7.9632
G01 X21.6955 Y7.9646
G01 X16.7398 Y7.9646
G01 X12.9972 Y11.7072
G01 X12.9745 Y11.7278
G01 X12.9518 Y11.7446
G01 X12.9286 Y11.7585
G01 X12.8976 Y11.7732
G01 X12.8721 Y11.7822
G01 X12.8436 Y11.7894
G01 X12.8144 Y11.7937
G01 X12.7862 Y11.7951
G01 X11.0950 Y11.7951
G01 X11.0949 Y12.2987
G01 X11.0938 Y12.3060
G01 X11.0917 Y12.3130
G01 X11.0885 Y12.3197
G01 X11.0844 Y12.3258
G01 X11.0795 Y12.3312
G01 X11.0738 Y12.3359
G01 X11.0664 Y12.3402
G01 X11.0595 Y12.3429
G01 X11.0523 Y12.3445
G01 X11.0450 Y12.3450
G01 X9.4450 Y12.3450
G01 X9.4377 Y12.3445
G01 X9.4293 Y12.3425
G01 X9.4225 Y12.3397
G01 X9.4162 Y12.3359
G01 X9.4105 Y12.3312
G01 X9.4056 Y12.3258
G01 X9.4015 Y12.3197
G01 X9.3984 Y12.3130
G01 X9.3962 Y12.3060
G01 X9.3951 Y12.2987
G01 X9.3950 Y11.8051
G01 X7.2194 Y11.8051
G01 X7.2098 Y11.8314
G01 X7.1741 Y11.9068
G01 X7.1318 Y11.9772
G01 X7.0813 Y12.0452
G01 X7.0261 Y12.1061
G01 X6.9642 Y12.1621
G01 X6.8972 Y12.2118
G01 X6.8268 Y12.2541
G01 X6.7503 Y12.2903
G01 X6.6741 Y12.3176
G01 X6.5884 Y12.3391
G01 X6.5083 Y12.3509
G01 X6.4250 Y12.3550
G01 X6.3417 Y12.3509
G01 X6.2604 Y12.3389
G01 X6.1783 Y12.3184
G01 X6.0997 Y12.2903
G01 X6.0243 Y12.2546
G01 X5.9528 Y12.2118
G01 X5.8858 Y12.1621
G01 X5.8240 Y12.1061
G01 X5.7680 Y12.0442
G01 X5.7197 Y11.9793
G01 X5.6754 Y11.9057
G01 X5.6407 Y11.8325
G01 X5.6110 Y11.7494
G01 X5.5913 Y11.6708
G01 X5.5791 Y11.5883
G01 X5.5750 Y11.5050
G01 X5.5794 Y11.4193
G00 Z2.0000
G00 X2.3149 Y12.2111
G01 F100.00
G01 Z0.0000
G01 F100.00
G01 X2.3163 Y12.1841
G01 X2.3207 Y12.1550
G01 X2.3278 Y12.1264
G01 X2.3377 Y12.0987
G01 X2.3503 Y12.0721
G01 X2.3655 Y12.0468
G01 X2.3830 Y12.0232
G01 X2.4019 Y12.0022
G01 X4.3708 Y10.0333
G01 X4.3917 Y10.0143
G01 X4.4184 Y9.9946
G01 X4.4416 Y9.9808
G01 X4.4682 Y9.9682
G01 X4.4983 Y9.9576
G01 X4.5245 Y9.9511
G01 X4.5512 Y9.9471
G01 X4.5831 Y9.9454
G01 X4.8959 Y9.9454
G01 X5.1162 Y9.7251
G01 X5.1202 Y9.7215
G01 X5.1431 Y9.7031
G01 X5.1483 Y9.6998
G01 X5.1527 Y9.6976
G01 X5.1584 Y9.6955
G01 X5.2277 Y9.6752
G01 X5.2335 Y9.6740
G01 X5.2395 Y9.6735
G01 X5.2931 Y9.6735
G01 X5.2992 Y9.6739
G01 X5.3529 Y9.6844
G01 X5.3608 Y9.6871
G01 X5.3682 Y9.6910
G01 X5.4311 Y9.7413
G01 X5.4366 Y9.7476
G01 X5.4573 Y9.7771
G01 X5.6130 Y9.9328
G01 X5.6310 Y9.9454
G01 X11.0360 Y9.9454
G01 X11.0401 Y9.9386
G01 X11.0449 Y9.9329
G01 X11.0527 Y9.9261
G01 X11.0570 Y9.9228
G01 X11.2128 Y9.7670
G01 X11.3391 Y9.5867
G01 X11.4321 Y9.3871
G01 X11.4891 Y9.1744
G01 X11.5083 Y8.9550
G01 X11.4891 Y8.7356
G01 X11.4321 Y8.5229
G01 X11.3391 Y8.3234
G01 X11.2128 Y8.1430
G01 X11.0570 Y7.9873
G01 X10.8767 Y7.8610
G01 X10.8403 Y7.8440
G01 X10.8338 Y7.8401
G01 X10.7767 Y7.7909
G01 X10.7724 Y7.7866
G01 X10.7681 Y7.7807
G01 X10.7651 Y7.7753
G01 X10.7629 Y7.7696
G01 X10.7419 Y7.7005
G01 X10.7405 Y7.6944
G01 X10.7398 Y7.6870
G01 X10.7401 Y7.6808
G01 X10.7414 Y7.6735
G01 X10.7612 Y7.6040
G01 X10.7643 Y7.5959
G01 X10.7687 Y7.5885
G01 X10.7744 Y7.5819
G01 X10.8332 Y7.5303
G01 X10.8404 Y7.5260
G01 X10.8767 Y7.5091
G01 X11.0570 Y7.3828
G01 X11.2128 Y7.2270
G01 X11.3391 Y7.0467
G01 X11.4321 Y6.8471
G01 X11.4891 Y6.6344
G01 X11.5083 Y6.4150
G01 X11.4944 Y6.2552
G01 X11.4944 Y6.2489
G01 X11.4970 Y6.2087
G01 X11.4990 Y6.1993
G01 X11.5022 Y6.1914
G01 X11.5368 Y6.1281
G01 X11.5421 Y6.1202
G01 X14.2869 Y3.3751
G01 X14.2909 Y3.3715
G01 X14.3138 Y3.3531
G01 X14.3201 Y3.3492
G01 X14.3280 Y3.3459
G01 X14.3984 Y3.3252
G01 X14.4043 Y3.3240
G01 X14.4114 Y3.3235
G01 X17.2190 Y3.3235
G01 X17.2640 Y3.2740
G01 X17.3239 Y3.2196
G01 X17.3908 Y3.1697
G01 X17.4643 Y3.1254
G01 X17.5375 Y3.0907
G01 X17.6183 Y3.0616
G01 X17.6992 Y3.0413
G01 X17.7817 Y3.0291
G01 X17.8650 Y3.0250
G01 X17.9483 Y3.0291
G01 X18.0308 Y3.0413
G01 X18.1118 Y3.0616
G01 X18.1925 Y3.0907
G01 X18.2657 Y3.1254
G01 X18.3393 Y3.1697
G01 X18.4061 Y3.2196
G01 X18.4661 Y3.2740
G01 X18.5110 Y3.3235
G01 X27.6513 Y3.3236
G01 X27.6832 Y3.3270
G01 X27.6892 Y3.3283
G01 X27.6950 Y3.3304
G01 X27.7627 Y3.3671
G01 X27.7677 Y3.3704
G01 X27.7722 Y3.3742
G01 X28.4658 Y4.0678
G01 X28.4744 Y4.0772
G01 X28.4798 Y4.0855
G01 X28.5103 Y4.1523
G01 X28.5126 Y4.1581
G01 X28.5146 Y4.1678
G01 X28.5146 Y4.1777
G01 X28.5040 Y4.2517
G01 X28.5026 Y4.2577
G01 X28.5005 Y4.2635
G01 X28.4976 Y4.2691
G01 X28.4941 Y4.2742
G01 X28.4452 Y4.3307
G01 X28.4398 Y4.3358
G01 X28.4348 Y4.3394
G01 X28.4293 Y4.3424
G01 X28.4235 Y4.3446
G01 X28.3542 Y4.3650
G01 X28.3461 Y4.3666
G01 X28.3401 Y4.3670
G01 X26.7975 Y4.3670
G01 X26.7211 Y4.3650
G01 X26.7139 Y4.3662
G01 X26.6977 Y4.3673
G01 X26.6303 Y4.3838
G01 X26.5594 Y4.3986
G01 X26.5537 Y4.4010
G01 X26.5407 Y4.4056
G01 X26.5359 Y4.4069
G01 X26.4752 Y4.4379
G01 X26.4097 Y4.4686
G01 X26.4057 Y4.4716
G01 X26.3941 Y4.4791
G01 X26.3887 Y4.4820
G01 X26.3369 Y4.5261
G01 X26.3128 Y4.5453
G01 X26.2994 Y4.5579
G01 X26.2628 Y4.5890
G01 X26.2519 Y4.6038
G01 X26.2361 Y4.6219
G01 X25.8221 Y5.0360
G01 X25.8175 Y5.0400
G01 X25.7796 Y5.0669
G01 X25.7744 Y5.0699
G01 X25.7677 Y5.0727
G01 X25.7596 Y5.0747
G01 X25.6895 Y5.0859
G01 X25.6836 Y5.0865
G01 X25.6753 Y5.0861
G01 X25.4968 Y5.0633
G01 X25.2736 Y5.0714
G01 X25.2082 Y5.0847
G01 X25.2005 Y5.0857
G01 X25.1423 Y5.0852
G01 X25.1338 Y5.0838
G01 X25.1246 Y5.0804
G01 X25.0591 Y5.0447
G01 X25.0541 Y5.0414
G01 X25.0495 Y5.0376
G01 X24.5956 Y4.5837
G01 X24.5431 Y4.5283
G01 X24.5372 Y4.5240
G01 X24.5248 Y4.5133
G01 X24.4655 Y4.4773
G01 X24.4049 Y4.4377
G01 X24.3992 Y4.4354
G01 X24.3867 Y4.4294
G01 X24.3824 Y4.4269
G01 X24.3136 Y4.4045
G01 X24.2496 Y4.3813
G01 X24.2447 Y4.3806
G01 X24.2312 Y4.3777
G01 X24.2253 Y4.3760
G01 X24.1574 Y4.3705
G01 X24.1269 Y4.3670
G01 X24.1085 Y4.3665
G01 X24.0606 Y4.3626
G01 X24.0424 Y4.3653
G01 X24.0184 Y4.3670
G01 X20.3488 Y4.3670
G01 X20.2725 Y4.3650
G01 X20.2653 Y4.3661
G01 X20.2491 Y4.3673
G01 X20.1816 Y4.3838
G01 X20.1107 Y4.3986
G01 X20.1051 Y4.4010
G01 X20.0921 Y4.4056
G01 X20.0873 Y4.4069
G01 X20.0266 Y4.4379
G01 X19.9611 Y4.4686
G01 X19.9561 Y4.4722
G01 X19.9445 Y4.4797
G01 X19.9401 Y4.4820
G01 X19.8883 Y4.5261
G01 X19.8642 Y4.5452
G01 X19.8508 Y4.5579
G01 X19.8142 Y4.5890
G01 X19.8032 Y4.6038
G01 X19.7875 Y4.6219
G01 X18.9441 Y5.4654
G01 X18.9367 Y5.4714
G01 X18.8907 Y5.5010
G01 X18.8852 Y5.5041
G01 X18.8794 Y5.5064
G01 X18.8734 Y5.5080
G01 X18.8685 Y5.5087
G01 X18.7939 Y5.5140
G01 X18.7889 Y5.5139
G01 X18.7828 Y5.5130
G01 X18.7768 Y5.5114
G01 X18.7711 Y5.5091
G01 X18.7025 Y5.4714
G01 X18.6960 Y5.4662
G01 X18.6771 Y5.4473
G01 X18.4967 Y5.3210
G01 X18.2971 Y5.2279
G01 X18.0844 Y5.1709
G01 X17.8650 Y5.1517
G01 X17.6456 Y5.1709
G01 X17.4329 Y5.2279
G01 X17.2334 Y5.3210
G01 X17.0530 Y5.4473
G01 X16.8973 Y5.6030
G01 X16.7710 Y5.7834
G01 X16.6779 Y5.9829
G01 X16.6209 Y6.1956
G01 X16.6017 Y6.4150
G01 X16.6209 Y6.6344
G01 X16.6505 Y6.7453
G01 X16.6513 Y6.7527
G01 X16.6534 Y6.8101
G01 X16.6531 Y6.8162
G01 X16.6523 Y6.8210
G01 X16.6511 Y6.8257
G01 X16.6489 Y6.8314
G01 X16.6149 Y6.8978
G01 X16.6093 Y6.9060
G01 X16.6041 Y6.9114
G01 X16.5971 Y6.9165
G01 X16.5347 Y6.9528
G01 X16.5282 Y6.9559
G01 X16.5215 Y6.9581
G01 X16.4612 Y6.9728
G01 X16.3903 Y6.9877
G01 X16.3858 Y6.9897
G01 X16.3728 Y6.9943
G01 X16.3669 Y6.9959
G01 X16.3023 Y7.0288
G01 X16.2407 Y7.0576
G01 X16.2357 Y7.0612
G01 X16.2241 Y7.0687
G01 X16.2197 Y7.0711
G01 X16.1679 Y7.1151
G01 X16.1438 Y7.1343
G01 X16.1304 Y7.1469
G01 X16.0938 Y7.1780
G01 X16.0828 Y7.1928
G01 X16.0671 Y7.2110
G01 X12.5431 Y10.7350
G01 X12.5172 Y10.7562
G01 X12.5121 Y10.7596
G01 X12.5066 Y10.7624
G01 X12.5008 Y10.7645
G01 X12.4316 Y10.7848
G01 X12.4258 Y10.7860
G01 X12.4198 Y10.7865
G01 X11.6763 Y10.7865
G01 X11.6683 Y10.7859
G01 X11.6262 Y10.7790
G01 X11.6180 Y10.7765
G01 X11.6102 Y10.7726
G01 X11.5498 Y10.7308
G01 X11.5423 Y10.7244
G01 X11.5361 Y10.7166
G01 X11.5321 Y10.7089
G01 X11.5036 Y10.6400
G01 X11.5015 Y10.6307
G01 X11.4977 Y10.5964
G01 X11.4787 Y10.5456
G01 X5.6046 Y10.5457
G01 X5.4573 Y10.6930
G01 X5.3305 Y10.8744
G01 X5.2379 Y11.0729
G01 X5.1809 Y11.2856
G01 X5.1617 Y11.5050
G01 X5.1809 Y11.7244
G01 X5.2379 Y11.9371
G01 X5.3310 Y12.1367
G01 X5.4573 Y12.3170
G01 X5.6130 Y12.4728
G01 X5.7934 Y12.5991
G01 X5.9929 Y12.6921
G01 X6.2056 Y12.7491
G01 X6.4250 Y12.7683
G01 X6.6444 Y12.7491
G01 X6.8571 Y12.6921
G01 X7.0567 Y12.5991
G01 X7.2370 Y12.4728
G01 X7.3928 Y12.3171
G01 X7.4127 Y12.2886
G01 X7.4165 Y12.2838
G01 X7.4577 Y12.2443
G01 X7.4647 Y12.2397
G01 X7.4735 Y12.2359
G01 X7.5428 Y12.2155
G01 X7.5486 Y12.2142
G01 X7.5569 Y12.2135
G01 X8.8148 Y12.2135
G01 X8.8216 Y12.2140
G01 X8.8637 Y12.2208
G01 X8.8708 Y12.2227
G01 X8.8765 Y12.2251
G01 X8.8829 Y12.2288
G01 X8.9423 Y12.2700
G01 X8.9480 Y12.2748
G01 X8.9529 Y12.2804
G01 X8.9556 Y12.2845
G01 X8.9585 Y12.2900
G01 X8.9871 Y12.3589
G01 X8.9895 Y12.3681
G01 X8.9923 Y12.3937
G01 X9.0387 Y12.5175
G01 X9.1175 Y12.6226
G01 X9.2226 Y12.7013
G01 X9.3464 Y12.7477
G01 X9.3996 Y12.7535
G01 X11.0904 Y12.7535
G01 X11.1437 Y12.7477
G01 X11.2675 Y12.7013
G01 X11.3726 Y12.6226
G01 X11.4513 Y12.5175
G01 X11.4977 Y12.3937
G01 X11.5013 Y12.3605
G01 X11.5023 Y12.3549
G01 X11.5138 Y12.3127
G01 X11.5160 Y12.3069
G01 X11.5182 Y12.3025
G01 X11.5239 Y12.2944
G01 X11.5721 Y12.2389
G01 X11.5766 Y12.2347
G01 X11.5817 Y12.2311
G01 X11.5871 Y12.2282
G01 X11.5929 Y12.2259
G01 X11.6634 Y12.2052
G01 X11.6692 Y12.2040
G01 X11.6751 Y12.2035
G01 X12.7721 Y12.2035
G01 X12.8484 Y12.2055
G01 X12.8556 Y12.2044
G01 X12.8719 Y12.2032
G01 X12.9393 Y12.1867
G01 X13.0102 Y12.1719
G01 X13.0158 Y12.1695
G01 X13.0289 Y12.1649
G01 X13.0337 Y12.1636
G01 X13.0943 Y12.1327
G01 X13.1598 Y12.1019
G01 X13.1648 Y12.0983
G01 X13.1764 Y12.0908
G01 X13.1808 Y12.0885
G01 X13.2327 Y12.0444
G01 X13.2567 Y12.0253
G01 X13.2701 Y12.0126
G01 X13.3067 Y11.9815
G01 X13.3177 Y11.9667
G01 X13.3334 Y11.9486
G01 X16.3155 Y8.9667
G01 X16.3227 Y8.9616
G01 X16.3841 Y8.9274
G01 X16.3908 Y8.9243
G01 X16.3978 Y8.9222
G01 X16.4039 Y8.9213
G01 X16.4100 Y8.9211
G01 X16.4821 Y8.9251
G01 X16.4883 Y8.9258
G01 X16.4955 Y8.9277
G01 X16.5023 Y8.9306
G01 X16.5086 Y8.9345
G01 X16.5671 Y8.9769
G01 X16.5709 Y8.9801
G01 X16.5752 Y8.9846
G01 X16.5795 Y8.9906
G01 X16.5829 Y8.9973
G01 X16.6108 Y9.0690
G01 X16.6124 Y9.0772
G01 X16.6158 Y9.1173
G01 X16.6133 Y9.1589
G01 X16.6120 Y9.1672
G01 X16.6103 Y9.1730
G01 X16.6078 Y9.1786
G01 X16.5732 Y9.2420
G01 X16.5694 Y9.2480
G01 X16.5647 Y9.2534
G01 X9.9931 Y15.8250
G01 X9.9681 Y15.8454
G01 X9.9621 Y15.8496
G01 X9.9577 Y15.8519
G01 X9.9520 Y15.8541
G01 X9.8827 Y15.8745
G01 X9.8758 Y15.8760
G01 X9.8686 Y15.8765
G01 X5.7920 Y15.8765
G01 X5.7561 Y15.9161
G01 X5.6952 Y15.9713
G01 X5.6283 Y16.0211
G01 X5.5557 Y16.0646
G01 X5.4814 Y16.0998
G01 X5.4018 Y16.1284
G01 X5.3208 Y16.1487
G01 X5.2383 Y16.1609
G01 X5.1550 Y16.1650
G01 X5.0717 Y16.1609
G01 X4.9892 Y16.1487
G01 X4.9083 Y16.1284
G01 X4.8286 Y16.0998
G01 X4.7543 Y16.0646
G01 X4.6818 Y16.0211
G01 X4.6148 Y15.9713
G01 X4.5549 Y15.9169
G01 X4.5279 Y15.8874
G01 X4.4994 Y15.8943
G01 X4.4328 Y15.9082
G01 X4.4271 Y15.9106
G01 X4.4141 Y15.9151
G01 X4.4093 Y15.9164
G01 X4.3448 Y15.9493
G01 X4.2831 Y15.9781
G01 X4.2782 Y15.9817
G01 X4.2665 Y15.9892
G01 X4.2622 Y15.9916
G01 X4.2103 Y16.0356
G01 X4.1862 Y16.0548
G01 X4.1728 Y16.0674
G01 X4.1362 Y16.0985
G01 X4.1253 Y16.1133
G01 X4.1095 Y16.1315
G01 X3.3932 Y16.8478
G01 X3.3378 Y16.9004
G01 X3.3335 Y16.9063
G01 X3.3228 Y16.9186
G01 X3.2868 Y16.9779
G01 X3.2472 Y17.0385
G01 X3.2449 Y17.0442
G01 X3.2389 Y17.0567
G01 X3.2364 Y17.0610
G01 X3.2140 Y17.1298
G01 X3.1908 Y17.1938
G01 X3.1901 Y17.1988
G01 X3.1872 Y17.2123
G01 X3.1855 Y17.2182
G01 X3.1800 Y17.2860
G01 X3.1765 Y17.3165
G01 X3.1760 Y17.3350
G01 X3.1721 Y17.3828
G01 X3.1748 Y17.4010
G01 X3.1765 Y17.4250
G01 X3.1765 Y21.6721
G01 X3.1745 Y21.7484
G01 X3.1757 Y21.7556
G01 X3.1768 Y21.7719
G01 X3.1933 Y21.8393
G01 X3.2082 Y21.9102
G01 X3.2106 Y21.9158
G01 X3.2151 Y21.9289
G01 X3.2164 Y21.9337
G01 X3.2474 Y21.9943
G01 X3.2781 Y22.0598
G01 X3.2817 Y22.0648
G01 X3.2892 Y22.0764
G01 X3.2916 Y22.0808
G01 X3.3356 Y22.1327
G01 X3.3548 Y22.1567
G01 X3.3674 Y22.1701
G01 X3.3985 Y22.2067
G01 X3.4133 Y22.2177
G01 X3.4315 Y22.2334
G01 X6.3864 Y25.1885
G01 X6.4127 Y25.2238
G01 X6.4159 Y25.2290
G01 X6.4184 Y25.2345
G01 X6.4208 Y25.2426
G01 X6.4355 Y25.3170
G01 X6.4356 Y25.3265
G01 X6.4217 Y25.4850
G01 X6.4267 Y25.5428
G01 X6.4269 Y25.5695
G01 X7.3023 Y26.4449
G01 X8.5069 Y26.4449
G01 X8.5103 Y26.4400
G01 X8.5142 Y26.4356
G01 X8.6528 Y26.2971
G01 X8.7791 Y26.1167
G01 X8.8721 Y25.9171
G01 X8.9291 Y25.7044
G01 X8.9483 Y25.4850
G01 X8.9344 Y25.3252
G01 X8.9344 Y25.3189
G01 X8.9373 Y25.2763
G01 X8.9390 Y25.2693
G01 X8.9422 Y25.2614
G01 X8.9768 Y25.1981
G01 X8.9821 Y25.1902
G01 X11.7574 Y22.4146
G01 X11.7614 Y22.4110
G01 X11.7843 Y22.3926
G01 X11.7906 Y22.3887
G01 X11.7973 Y22.3858
G01 X11.8689 Y22.3647
G01 X11.8748 Y22.3635
G01 X11.8819 Y22.3630
G01 X14.6866 Y22.3630
G01 X14.7049 Y22.3431
G01 X14.7648 Y22.2887
G01 X14.8318 Y22.2390
G01 X14.9043 Y22.1954
G01 X14.9786 Y22.1602
G01 X15.0583 Y22.1316
G01 X15.1392 Y22.1113
G01 X15.2217 Y22.0991
G01 X15.3062 Y22.0950
G01 X15.3883 Y22.0991
G01 X15.4708 Y22.1113
G01 X15.5518 Y22.1316
G01 X15.6314 Y22.1602
G01 X15.7057 Y22.1954
G01 X15.7783 Y22.2390
G01 X15.8452 Y22.2887
G01 X15.9052 Y22.3431
G01 X15.9234 Y22.3630
G01 X18.2701 Y22.3630
G01 X18.2809 Y22.3634
G01 X18.2895 Y22.3644
G01 X18.2966 Y22.3665
G01 X18.3643 Y22.3918
G01 X18.3699 Y22.3944
G01 X18.3741 Y22.3970
G01 X18.3799 Y22.4017
G01 X18.3849 Y22.4072
G01 X18.4282 Y22.4650
G01 X18.4316 Y22.4702
G01 X18.4357 Y22.4793
G01 X18.4370 Y22.4841
G01 X18.4380 Y22.4902
G01 X18.4432 Y22.5635
G01 X18.4431 Y22.5697
G01 X18.4425 Y22.5746
G01 X18.4402 Y22.5830
G01 X18.4371 Y22.5898
G01 X18.4025 Y22.6531
G01 X18.3993 Y22.6581
G01 X18.3962 Y22.6618
G01 X17.5816 Y23.4764
G01 X17.5557 Y23.4974
G01 X17.5505 Y23.5007
G01 X17.5461 Y23.5029
G01 X17.5404 Y23.5050
G01 X17.4699 Y23.5256
G01 X17.4641 Y23.5266
G01 X17.4582 Y23.5270
G01 X15.9234 Y23.5270
G01 X15.9052 Y23.5469
G01 X15.8452 Y23.6013
G01 X15.7783 Y23.6511
G01 X15.7057 Y23.6946
G01 X15.6314 Y23.7298
G01 X15.5518 Y23.7584
G01 X15.4708 Y23.7787
G01 X15.3883 Y23.7909
G01 X15.3050 Y23.7950
G01 X15.2217 Y23.7909
G01 X15.1392 Y23.7787
G01 X15.0583 Y23.7584
G01 X14.9786 Y23.7298
G01 X14.9043 Y23.6946
G01 X14.8318 Y23.6511
G01 X14.7648 Y23.6013
G01 X14.7049 Y23.5469
G01 X14.6866 Y23.5270
G01 X14.0275 Y23.5270
G01 X13.9511 Y23.5250
G01 X13.9439 Y23.5262
G01 X13.9277 Y23.5273
G01 X13.8608 Y23.5437
G01 X10.4472 Y26.9572
G01 X10.4254 Y26.9770
G01 X10.3997 Y26.9959
G01 X10.3765 Y27.0097
G01 X10.3521 Y27.0213
G01 X10.3221 Y27.0322
G01 X10.2911 Y27.0398
G01 X10.2644 Y27.0437
G01 X10.2350 Y27.0451
G01 X7.1779 Y27.0451
G01 X7.1461 Y27.0434
G01 X7.1194 Y27.0394
G01 X7.0932 Y27.0329
G01 X7.0631 Y27.0223
G01 X7.0343 Y27.0085
G01 X7.0112 Y26.9946
G01 X6.9895 Y26.9785
G01 X6.9657 Y26.9572
G01 X2.4028 Y22.3943
G01 X2.3815 Y22.3706
G01 X2.3655 Y22.3488
G01 X2.3503 Y22.3236
G01 X2.3368 Y22.2947
G01 X2.3278 Y22.2692
G01 X2.3212 Y22.2430
G01 X2.3163 Y22.2115
G01 X2.3149 Y22.1821
G01 X2.3149 Y12.2111
G00 Z2.0000
G00 X1.6154 Y11.9213
G01 F100.00
G01 Z0.0000
G01 F100.00
G01 X1.6168 Y11.8944
G01 X1.6211 Y11.8653
G01 X1.6283 Y11.8367
G01 X1.6382 Y11.8089
G01 X1.6508 Y11.7823
G01 X1.6659 Y11.7571
G01 X1.6835 Y11.7334
G01 X1.7024 Y11.7125
G01 X4.6621 Y8.7528
G01 X4.6839 Y8.7330
G01 X4.7096 Y8.7142
G01 X4.7328 Y8.7003
G01 X4.7594 Y8.6877
G01 X4.7872 Y8.6778
G01 X4.8133 Y8.6712
G01 X4.8461 Y8.6662
G01 X4.8743 Y8.6649
G01 X5.6307 Y8.6649
G01 X5.6402 Y8.6386
G01 X5.6748 Y8.5654
G01 X5.7176 Y8.4938
G01 X5.7680 Y8.4258
G01 X5.8249 Y8.3631
G01 X5.8858 Y8.3080
G01 X5.9549 Y8.2570
G01 X6.0243 Y8.2154
G01 X6.0975 Y8.1807
G01 X6.1771 Y8.1520
G01 X6.2592 Y8.1313
G01 X6.3417 Y8.1191
G01 X6.4250 Y8.1150
G01 X6.5083 Y8.1191
G01 X6.5908 Y8.1313
G01 X6.6718 Y8.1516
G01 X6.7503 Y8.1797
G01 X6.8246 Y8.2148
G01 X6.8972 Y8.2583
G01 X6.9642 Y8.3080
G01 X7.0261 Y8.3640
G01 X7.0813 Y8.4248
G01 X7.1318 Y8.4928
G01 X7.1741 Y8.5633
G01 X7.2098 Y8.6386
G01 X7.2194 Y8.6649
G01 X9.4471 Y8.6649
G01 X9.4602 Y8.6286
G01 X9.4960 Y8.5533
G01 X9.5383 Y8.4828
G01 X9.5872 Y8.4167
G01 X9.6440 Y8.3540
G01 X9.7039 Y8.2996
G01 X9.7738 Y8.2476
G01 X9.8443 Y8.2054
G01 X9.9197 Y8.1697
G01 X9.9983 Y8.1416
G01 X10.0768 Y8.1219
G01 X10.1641 Y8.1089
G01 X10.2450 Y8.1050
G01 X10.3295 Y8.1092
G01 X10.4108 Y8.1213
G01 X10.4894 Y8.1410
G01 X10.5703 Y8.1697
G01 X10.6457 Y8.2054
G01 X10.7152 Y8.2470
G01 X10.7842 Y8.2980
G01 X10.8461 Y8.3540
G01 X10.9005 Y8.4139
G01 X10.9518 Y8.4828
G01 X10.9957 Y8.5565
G01 X11.0303 Y8.6297
G01 X11.0576 Y8.7059
G01 X11.0787 Y8.7892
G01 X11.0909 Y8.8717
G01 X11.0950 Y8.9550
G01 X11.0906 Y9.0408
G01 X11.0787 Y9.1208
G01 X11.0591 Y9.1994
G01 X11.0312 Y9.2780
G01 X10.9946 Y9.3557
G01 X10.9518 Y9.4272
G01 X10.9021 Y9.4942
G01 X10.8461 Y9.5561
G01 X10.7842 Y9.6121
G01 X10.7152 Y9.6631
G01 X10.6457 Y9.7046
G01 X10.5725 Y9.7393
G01 X10.4941 Y9.7676
G01 X10.4108 Y9.7887
G01 X10.3283 Y9.8009
G01 X10.2450 Y9.8050
G01 X10.1641 Y9.8011
G01 X10.0768 Y9.7881
G01 X9.9983 Y9.7684
G01 X9.9197 Y9.7403
G01 X9.8443 Y9.7046
G01 X9.7749 Y9.6631
G01 X9.7039 Y9.6105
G01 X9.6440 Y9.5561
G01 X9.5880 Y9.4942
G01 X9.5383 Y9.4272
G01 X9.4966 Y9.3578
G01 X9.4602 Y9.2814
G01 X9.4542 Y9.2651
G01 X7.2194 Y9.2651
G01 X7.2098 Y9.2914
G01 X7.1741 Y9.3668
G01 X7.1318 Y9.4372
G01 X7.0828 Y9.5033
G01 X7.0243 Y9.5677
G01 X6.9642 Y9.6221
G01 X6.8983 Y9.6711
G01 X6.8235 Y9.7157
G01 X6.7503 Y9.7503
G01 X6.6718 Y9.7784
G01 X6.5908 Y9.7987
G01 X6.5108 Y9.8106
G01 X6.4250 Y9.8150
G01 X6.3417 Y9.8109
G01 X6.2616 Y9.7991
G01 X6.1783 Y9.7784
G01 X6.0997 Y9.7503
G01 X6.0265 Y9.7157
G01 X5.9518 Y9.6711
G01 X5.8858 Y9.6221
G01 X5.8257 Y9.5677
G01 X5.7672 Y9.5033
G01 X5.7183 Y9.4372
G01 X5.6760 Y9.3668
G01 X5.6402 Y9.2914
G01 X5.6306 Y9.2651
G01 X4.9986 Y9.2651
G01 X2.2156 Y12.0481
G01 X2.2156 Y22.3475
G01 X7.0125 Y27.1444
G01 X10.6812 Y27.1444
G01 X13.8023 Y24.0233
G01 X13.8241 Y24.0035
G01 X13.8499 Y23.9846
G01 X13.8730 Y23.9708
G01 X13.8974 Y23.9592
G01 X13.9274 Y23.9483
G01 X13.9584 Y23.9407
G01 X13.9851 Y23.9368
G01 X14.0145 Y23.9354
G01 X17.7002 Y23.9354
G01 X20.8911 Y20.7445
G01 X20.8793 Y20.7192
G01 X20.8520 Y20.6429
G01 X20.8316 Y20.5620
G01 X20.8191 Y20.4783
G01 X20.8150 Y20.3962
G01 X20.8191 Y20.3117
G01 X20.8313 Y20.2292
G01 X20.8516 Y20.1483
G01 X20.8793 Y20.0709
G01 X20.9154 Y19.9943
G01 X20.9583 Y19.9228
G01 X21.0080 Y19.8558
G01 X21.0640 Y19.7940
G01 X21.1258 Y19.7380
G01 X21.1928 Y19.6883
G01 X21.2643 Y19.6454
G01 X21.3397 Y19.6097
G01 X21.4206 Y19.5810
G01 X21.4992 Y19.5613
G01 X21.5817 Y19.5491
G01 X21.6675 Y19.5451
G01 X21.7483 Y19.5491
G01 X21.8308 Y19.5613
G01 X21.9118 Y19.5816
G01 X21.9880 Y19.6088
G01 X22.0657 Y19.6454
G01 X22.1372 Y19.6883
G01 X22.2023 Y19.7364
G01 X22.2661 Y19.7940
G01 X22.3236 Y19.8577
G01 X22.3718 Y19.9228
G01 X22.4146 Y19.9943
G01 X22.4503 Y20.0697
G01 X22.4776 Y20.1459
G01 X22.4987 Y20.2292
G01 X22.5109 Y20.3117
G01 X22.5150 Y20.3926
G01 X22.5109 Y20.4783
G01 X22.4987 Y20.5608
G01 X22.4791 Y20.6394
G01 X22.4503 Y20.7203
G01 X22.4146 Y20.7957
G01 X22.3718 Y20.8672
G01 X22.3221 Y20.9342
G01 X22.2661 Y20.9961
G01 X22.2042 Y21.0521
G01 X22.1372 Y21.1018
G01 X22.0657 Y21.1446
G01 X21.9892 Y21.1808
G01 X21.9118 Y21.2084
G01 X21.8308 Y21.2287
G01 X21.7483 Y21.2409
G01 X21.6638 Y21.2450
G01 X21.5817 Y21.2409
G01 X21.4980 Y21.2284
G01 X21.4171 Y21.2080
G01 X21.3409 Y21.1808
G01 X21.3155 Y21.1689
G01 X18.0367 Y24.4477
G01 X18.0149 Y24.4675
G01 X17.9913 Y24.4850
G01 X17.9660 Y24.5002
G01 X17.9416 Y24.5118
G01 X17.9116 Y24.5227
G01 X17.8831 Y24.5299
G01 X17.8539 Y24.5342
G01 X17.8245 Y24.5356
G01 X14.1388 Y24.5356
G01 X11.0177 Y27.6568
G01 X10.9959 Y27.6765
G01 X10.9722 Y27.6941
G01 X10.9470 Y27.7092
G01 X10.9215 Y27.7213
G01 X10.8926 Y27.7317
G01 X10.8640 Y27.7389
G01 X10.8349 Y27.7432
G01 X10.8055 Y27.7447
G01 X6.8882 Y27.7447
G01 X6.8588 Y27.7432
G01 X6.8296 Y27.7389
G01 X6.8011 Y27.7317
G01 X6.7733 Y27.7218
G01 X6.7467 Y27.7092
G01 X6.7214 Y27.6941
G01 X6.6978 Y27.6765
G01 X6.6760 Y27.6568
G01 X1.7033 Y22.6841
G01 X1.6835 Y22.6622
G01 X1.6646 Y22.6365
G01 X1.6508 Y22.6133
G01 X1.6392 Y22.5889
G01 X1.6287 Y22.5601
G01 X1.6207 Y22.5280
G01 X1.6168 Y22.5013
G01 X1.6154 Y22.4718
G01 X1.6154 Y11.9213
G00 Z2.0000
G00 X0.9159 Y11.6316
G01 F100.00
G01 Z0.0000
G01 F100.00
G01 X0.9173 Y11.6046
G01 X0.9216 Y11.5755
G01 X0.9288 Y11.5469
G01 X0.9387 Y11.5192
G01 X0.9513 Y11.4926
G01 X0.9664 Y11.4673
G01 X0.9840 Y11.4437
G01 X1.0038 Y11.4218
G01 X8.7628 Y3.6628
G01 X8.7837 Y3.6438
G01 X8.8103 Y3.6242
G01 X8.8335 Y3.6103
G01 X8.8602 Y3.5977
G01 X8.8879 Y3.5878
G01 X8.9141 Y3.5812
G01 X8.9456 Y3.5763
G01 X8.9750 Y3.5749
G01 X9.4507 Y3.5749
G01 X9.4602 Y3.5486
G01 X9.4948 Y3.4754
G01 X9.5390 Y3.4018
G01 X9.5880 Y3.3358
G01 X9.6423 Y3.2757
G01 X9.7048 Y3.2187
G01 X9.7749 Y3.1670
G01 X9.8443 Y3.1254
G01 X9.9175 Y3.0907
G01 X9.9983 Y3.0616
G01 X10.0804 Y3.0411
G01 X10.1641 Y3.0289
G01 X10.2450 Y3.0250
G01 X10.3259 Y3.0289
G01 X10.4108 Y3.0413
G01 X10.4918 Y3.0616
G01 X10.5703 Y3.0897
G01 X10.6478 Y3.1266
G01 X10.7172 Y3.1683
G01 X10.7823 Y3.2164
G01 X10.8452 Y3.2731
G01 X10.9021 Y3.3358
G01 X10.9518 Y3.4028
G01 X10.9946 Y3.4743
G01 X11.0303 Y3.5497
G01 X11.0584 Y3.6283
G01 X11.0787 Y3.7092
G01 X11.0909 Y3.7917
G01 X11.0950 Y3.8750
G01 X11.0909 Y3.9583
G01 X11.0787 Y4.0408
G01 X11.0584 Y4.1218
G01 X11.0303 Y4.2003
G01 X10.9946 Y4.2757
G01 X10.9518 Y4.3472
G01 X10.9021 Y4.4142
G01 X10.8443 Y4.4777
G01 X10.7842 Y4.5321
G01 X10.7193 Y4.5803
G01 X10.6478 Y4.6234
G01 X10.5703 Y4.6603
G01 X10.4918 Y4.6884
G01 X10.4108 Y4.7087
G01 X10.3259 Y4.7211
G01 X10.2450 Y4.7250
G01 X10.1641 Y4.7211
G01 X10.0804 Y4.7089
G01 X9.9983 Y4.6884
G01 X9.9175 Y4.6593
G01 X9.8443 Y4.6246
G01 X9.7749 Y4.5831
G01 X9.7048 Y4.5313
G01 X9.6440 Y4.4761
G01 X9.5896 Y4.4161
G01 X9.5390 Y4.3483
G01 X9.4948 Y4.2746
G01 X9.4602 Y4.2014
G01 X9.4506 Y4.1751
G01 X9.0993 Y4.1751
G01 X1.5161 Y11.7584
G01 X1.5161 Y22.6373
G01 X6.7228 Y27.8439
G01 X12.5217 Y27.8439
G01 X14.5311 Y25.8345
G01 X14.5193 Y25.8092
G01 X14.4920 Y25.7329
G01 X14.4716 Y25.6520
G01 X14.4591 Y25.5683
G01 X14.4550 Y25.4838
G01 X14.4594 Y25.3993
G01 X14.4713 Y25.3192
G01 X14.4910 Y25.2406
G01 X14.5197 Y25.1597
G01 X14.5548 Y25.0854
G01 X14.5983 Y25.0128
G01 X14.6480 Y24.9458
G01 X14.7040 Y24.8840
G01 X14.7677 Y24.8264
G01 X14.8349 Y24.7770
G01 X14.9043 Y24.7354
G01 X14.9775 Y24.7007
G01 X15.0583 Y24.6716
G01 X15.1392 Y24.6513
G01 X15.2217 Y24.6391
G01 X15.3026 Y24.6351
G01 X15.3883 Y24.6391
G01 X15.4708 Y24.6513
G01 X15.5494 Y24.6710
G01 X15.6325 Y24.7007
G01 X15.7057 Y24.7354
G01 X15.7772 Y24.7783
G01 X15.8442 Y24.8280
G01 X15.9043 Y24.8823
G01 X15.9636 Y24.9477
G01 X16.0118 Y25.0128
G01 X16.0546 Y25.0843
G01 X16.0903 Y25.1597
G01 X16.1176 Y25.2359
G01 X16.1387 Y25.3192
G01 X16.1509 Y25.4017
G01 X16.1550 Y25.4826
G01 X16.1506 Y25.5708
G01 X16.1387 Y25.6508
G01 X16.1184 Y25.7318
G01 X16.0903 Y25.8103
G01 X16.0557 Y25.8835
G01 X16.0103 Y25.9593
G01 X15.9621 Y26.0242
G01 X15.9069 Y26.0852
G01 X15.8423 Y26.1436
G01 X15.7772 Y26.1918
G01 X15.7057 Y26.2346
G01 X15.6303 Y26.2703
G01 X15.5541 Y26.2976
G01 X15.4696 Y26.3189
G01 X15.3883 Y26.3309
G01 X15.3075 Y26.3350
G01 X15.2205 Y26.3308
G01 X15.1392 Y26.3187
G01 X15.0594 Y26.2988
G01 X14.9809 Y26.2708
G01 X14.9555 Y26.2589
G01 X12.8573 Y28.3572
G01 X12.8364 Y28.3760
G01 X12.8147 Y28.3922
G01 X12.7872 Y28.4089
G01 X12.7585 Y28.4222
G01 X12.7332 Y28.4312
G01 X12.7069 Y28.4379
G01 X12.6754 Y28.4427
G01 X12.6460 Y28.4442
G01 X6.5972 Y28.4442
G01 X6.5692 Y28.4427
G01 X6.5400 Y28.4384
G01 X6.5111 Y28.4312
G01 X6.4839 Y28.4215
G01 X6.4567 Y28.4086
G01 X6.4319 Y28.3937
G01 X6.4079 Y28.3759
G01 X6.3871 Y28.3571
G01 X1.0038 Y22.9738
G01 X0.9840 Y22.9520
G01 X0.9651 Y22.9263
G01 X0.9513 Y22.9031
G01 X0.9397 Y22.8787
G01 X0.9291 Y22.8499
G01 X0.9212 Y22.8177
G01 X0.9173 Y22.7910
G01 X0.9158 Y22.7616
G01 X0.9159 Y11.6316
G00 Z2.0000
G00 X3.5849 Y17.3555
G01 F100.00
G01 Z0.0000
G01 F100.00
G01 X3.5863 Y17.3285
G01 X3.5907 Y17.2994
G01 X3.5978 Y17.2708
G01 X3.6077 Y17.2431
G01 X3.6203 Y17.2165
G01 X3.6355 Y17.1912
G01 X3.6530 Y17.1675
G01 X3.6719 Y17.1466
G01 X4.4475 Y16.3711
G01 X4.4675 Y16.3530
G01 X4.4892 Y16.3369
G01 X4.5165 Y16.3203
G01 X4.5431 Y16.3077
G01 X4.5685 Y16.2986
G01 X4.6006 Y16.2904
G01 X4.6285 Y16.2863
G01 X4.6579 Y16.2849
G01 X10.1107 Y16.2849
G01 X17.0911 Y9.3045
G01 X17.0793 Y9.2792
G01 X17.0520 Y9.2029
G01 X17.0316 Y9.1220
G01 X17.0191 Y9.0383
G01 X17.0150 Y8.9538
G01 X17.0194 Y8.8693
G01 X17.0313 Y8.7892
G01 X17.0510 Y8.7106
G01 X17.0797 Y8.6297
G01 X17.1160 Y8.5533
G01 X17.1597 Y8.4808
G01 X17.2080 Y8.4158
G01 X17.2623 Y8.3557
G01 X17.3258 Y8.2980
G01 X17.3928 Y8.2483
G01 X17.4665 Y8.2043
G01 X17.5397 Y8.1697
G01 X17.6159 Y8.1424
G01 X17.6992 Y8.1213
G01 X17.7829 Y8.1090
G01 X17.8650 Y8.1050
G01 X17.9459 Y8.1089
G01 X18.0308 Y8.1213
G01 X18.1141 Y8.1424
G01 X18.1903 Y8.1697
G01 X18.2657 Y8.2054
G01 X18.3372 Y8.2483
G01 X18.4023 Y8.2964
G01 X18.4661 Y8.3540
G01 X18.5236 Y8.4177
G01 X18.5718 Y8.4828
G01 X18.6146 Y8.5543
G01 X18.6503 Y8.6297
G01 X18.6776 Y8.7059
G01 X18.6987 Y8.7892
G01 X18.7109 Y8.8717
G01 X18.7150 Y8.9526
G01 X18.7109 Y9.0383
G01 X18.6987 Y9.1208
G01 X18.6791 Y9.1994
G01 X18.6503 Y9.2803
G01 X18.6146 Y9.3557
G01 X18.5731 Y9.4252
G01 X18.5213 Y9.4952
G01 X18.4661 Y9.5561
G01 X18.4061 Y9.6105
G01 X18.3352 Y9.6631
G01 X18.2657 Y9.7046
G01 X18.1903 Y9.7403
G01 X18.1118 Y9.7684
G01 X18.0320 Y9.7884
G01 X17.9483 Y9.8009
G01 X17.8675 Y9.8050
G01 X17.7805 Y9.8008
G01 X17.6992 Y9.7887
G01 X17.6194 Y9.7688
G01 X17.5409 Y9.7408
G01 X17.5155 Y9.7289
G01 X10.4472 Y16.7972
G01 X10.4254 Y16.8170
G01 X10.4028 Y16.8339
G01 X10.3743 Y16.8508
G01 X10.3499 Y16.8623
G01 X10.3221 Y16.8722
G01 X10.2911 Y16.8798
G01 X10.2644 Y16.8837
G01 X10.2350 Y16.8851
G01 X4.7823 Y16.8851
G01 X4.1851 Y17.4823
G01 X4.1851 Y21.5607
G01 X7.3355 Y24.7111
G01 X7.3609 Y24.6993
G01 X7.4371 Y24.6720
G01 X7.5180 Y24.6516
G01 X7.6017 Y24.6391
G01 X7.6850 Y24.6350
G01 X7.7683 Y24.6391
G01 X7.8520 Y24.6516
G01 X7.9329 Y24.6720
G01 X8.0092 Y24.6993
G01 X8.0345 Y24.7111
G01 X11.3033 Y21.4423
G01 X11.3251 Y21.4225
G01 X11.3488 Y21.4050
G01 X11.3740 Y21.3898
G01 X11.4006 Y21.3772
G01 X11.4284 Y21.3673
G01 X11.4569 Y21.3602
G01 X11.4861 Y21.3558
G01 X11.5155 Y21.3544
G01 X18.5032 Y21.3544
G01 X20.9653 Y18.8923
G01 X20.9871 Y18.8725
G01 X21.0097 Y18.8557
G01 X21.0382 Y18.8387
G01 X21.0626 Y18.8272
G01 X21.0904 Y18.8173
G01 X21.1214 Y18.8097
G01 X21.1481 Y18.8058
G01 X21.1750 Y18.8045
G01 X22.0583 Y18.8044
G01 X24.9120 Y15.9506
G01 X24.8740 Y15.9161
G01 X24.8187 Y15.8552
G01 X24.7690 Y15.7883
G01 X24.7254 Y15.7157
G01 X24.6902 Y15.6414
G01 X24.6616 Y15.5618
G01 X24.6413 Y15.4808
G01 X24.6291 Y15.3983
G01 X24.6251 Y15.3126
G01 X24.6291 Y15.2317
G01 X24.6409 Y15.1516
G01 X24.6616 Y15.0683
G01 X24.6897 Y14.9897
G01 X24.7243 Y14.9165
G01 X24.7690 Y14.8418
G01 X24.8180 Y14.7758
G01 X24.8723 Y14.7157
G01 X24.9367 Y14.6572
G01 X25.0028 Y14.6083
G01 X25.0733 Y14.5660
G01 X25.1486 Y14.5302
G01 X25.1749 Y14.5206
G01 X25.1749 Y9.8381
G01 X25.1569 Y9.8333
G01 X25.0692 Y9.8017
G01 X24.9872 Y9.7628
G01 X24.9072 Y9.7149
G01 X24.8323 Y9.6594
G01 X24.7650 Y9.5985
G01 X24.6991 Y9.5258
G01 X24.6451 Y9.4528
G01 X24.5972 Y9.3728
G01 X24.5573 Y9.2886
G01 X24.5267 Y9.2031
G01 X24.5028 Y9.1079
G01 X24.4896 Y9.0181
G01 X24.4850 Y8.9238
G01 X24.4896 Y8.8319
G01 X24.5028 Y8.7421
G01 X24.5259 Y8.6492
G01 X24.5573 Y8.5615
G01 X24.5961 Y8.4794
G01 X24.6451 Y8.3972
G01 X24.7023 Y8.3205
G01 X24.7633 Y8.2533
G01 X24.8323 Y8.1907
G01 X24.9093 Y8.1338
G01 X24.9872 Y8.0872
G01 X25.0715 Y8.0473
G01 X25.1592 Y8.0159
G01 X25.2521 Y7.9928
G01 X25.3443 Y7.9794
G01 X25.4350 Y7.9750
G01 X25.5257 Y7.9794
G01 X25.6203 Y7.9933
G01 X25.7108 Y8.0159
G01 X25.7986 Y8.0473
G01 X25.8850 Y8.0884
G01 X25.9628 Y8.1351
G01 X26.0358 Y8.1891
G01 X26.1050 Y8.2516
G01 X26.1694 Y8.3223
G01 X26.2249 Y8.3972
G01 X26.2739 Y8.4794
G01 X26.3127 Y8.5615
G01 X26.3433 Y8.6469
G01 X26.3668 Y8.7397
G01 X26.3804 Y8.8319
G01 X26.3850 Y8.9250
G01 X26.3806 Y9.0157
G01 X26.3662 Y9.1127
G01 X26.3441 Y9.2008
G01 X26.3127 Y9.2886
G01 X26.2728 Y9.3728
G01 X26.2256 Y9.4518
G01 X26.1678 Y9.5295
G01 X26.1068 Y9.5968
G01 X26.0367 Y9.6601
G01 X25.9628 Y9.7149
G01 X25.8839 Y9.7622
G01 X25.7997 Y9.8022
G01 X25.7751 Y9.8111
G01 X25.7751 Y14.5207
G01 X25.8014 Y14.5302
G01 X25.8746 Y14.5648
G01 X25.9462 Y14.6076
G01 X26.0142 Y14.6580
G01 X26.0761 Y14.7140
G01 X26.1321 Y14.7758
G01 X26.1824 Y14.8438
G01 X26.2252 Y14.9154
G01 X26.2598 Y14.9886
G01 X26.2694 Y15.0149
G01 X28.4907 Y15.0149
G01 X28.5002 Y14.9886
G01 X28.5360 Y14.9133
G01 X28.5783 Y14.8428
G01 X28.6287 Y14.7748
G01 X28.6840 Y14.7140
G01 X28.7458 Y14.6580
G01 X28.8128 Y14.6083
G01 X28.8833 Y14.5660
G01 X28.9597 Y14.5297
G01 X29.0359 Y14.5024
G01 X29.1216 Y14.4809
G01 X29.2017 Y14.4691
G01 X29.2850 Y14.4650
G01 X29.3683 Y14.4691
G01 X29.4496 Y14.4811
G01 X29.5318 Y14.5016
G01 X29.6080 Y14.5288
G01 X29.6878 Y14.5666
G01 X29.7572 Y14.6083
G01 X29.8242 Y14.6580
G01 X29.8861 Y14.7140
G01 X29.9405 Y14.7739
G01 X29.9931 Y14.8449
G01 X30.0346 Y14.9143
G01 X30.0703 Y14.9897
G01 X30.0984 Y15.0683
G01 X30.1181 Y15.1468
G01 X30.1310 Y15.2329
G01 X30.1350 Y15.3150
G01 X30.1309 Y15.3983
G01 X30.1187 Y15.4808
G01 X30.0984 Y15.5618
G01 X30.0703 Y15.6403
G01 X30.0346 Y15.7157
G01 X29.9918 Y15.7872
G01 X29.9421 Y15.8542
G01 X29.8861 Y15.9161
G01 X29.8242 Y15.9721
G01 X29.7572 Y16.0218
G01 X29.6857 Y16.0646
G01 X29.6103 Y16.1003
G01 X29.5318 Y16.1284
G01 X29.4508 Y16.1487
G01 X29.3683 Y16.1609
G01 X29.2850 Y16.1650
G01 X29.2041 Y16.1611
G01 X29.1168 Y16.1481
G01 X29.0383 Y16.1284
G01 X28.9597 Y16.1003
G01 X28.8843 Y16.0646
G01 X28.8138 Y16.0224
G01 X28.7458 Y15.9721
G01 X28.6857 Y15.9177
G01 X28.6272 Y15.8533
G01 X28.5783 Y15.7872
G01 X28.5360 Y15.7168
G01 X28.5002 Y15.6414
G01 X28.4906 Y15.6151
G01 X26.2694 Y15.6151
G01 X26.2598 Y15.6414
G01 X26.2252 Y15.7146
G01 X26.1811 Y15.7883
G01 X26.1321 Y15.8542
G01 X26.0777 Y15.9143
G01 X26.0123 Y15.9736
G01 X25.9472 Y16.0218
G01 X25.8778 Y16.0634
G01 X25.8003 Y16.1003
G01 X25.7218 Y16.1284
G01 X25.6432 Y16.1481
G01 X25.5608 Y16.1606
G01 X25.5502 Y16.1614
G01 X22.3948 Y19.3167
G01 X22.3730 Y19.3365
G01 X22.3472 Y19.3554
G01 X22.3241 Y19.3692
G01 X22.2974 Y19.3818
G01 X22.2697 Y19.3917
G01 X22.2435 Y19.3983
G01 X22.2108 Y19.4033
G01 X22.1826 Y19.4046
G01 X21.3018 Y19.4046
G01 X18.8397 Y21.8667
G01 X18.8179 Y21.8865
G01 X18.7942 Y21.9041
G01 X18.7690 Y21.9192
G01 X18.7401 Y21.9327
G01 X18.7146 Y21.9417
G01 X18.6861 Y21.9489
G01 X18.6569 Y21.9532
G01 X18.6275 Y21.9546
G01 X11.6398 Y21.9546
G01 X8.4589 Y25.1355
G01 X8.4708 Y25.1609
G01 X8.4980 Y25.2371
G01 X8.5184 Y25.3180
G01 X8.5309 Y25.4017
G01 X8.5350 Y25.4862
G01 X8.5306 Y25.5708
G01 X8.5187 Y25.6508
G01 X8.4991 Y25.7294
G01 X8.4703 Y25.8103
G01 X8.4341 Y25.8868
G01 X8.3903 Y25.9593
G01 X8.3421 Y26.0242
G01 X8.2877 Y26.0843
G01 X8.2242 Y26.1421
G01 X8.1572 Y26.1918
G01 X8.0835 Y26.2357
G01 X8.0103 Y26.2703
G01 X7.9341 Y26.2976
G01 X7.8508 Y26.3187
G01 X7.7671 Y26.3310
G01 X7.6850 Y26.3350
G01 X7.5993 Y26.3306
G01 X7.5192 Y26.3187
G01 X7.4406 Y26.2991
G01 X7.3620 Y26.2712
G01 X7.2843 Y26.2346
G01 X7.2128 Y26.1918
G01 X7.1458 Y26.1421
G01 X7.0823 Y26.0843
G01 X7.0280 Y26.0242
G01 X6.9797 Y25.9593
G01 X6.9354 Y25.8857
G01 X6.8997 Y25.8103
G01 X6.8724 Y25.7341
G01 X6.8511 Y25.6496
G01 X6.8391 Y25.5683
G01 X6.8351 Y25.4875
G01 X6.8392 Y25.4005
G01 X6.8513 Y25.3192
G01 X6.8713 Y25.2394
G01 X6.8993 Y25.1609
G01 X6.9111 Y25.1355
G01 X3.6728 Y21.8972
G01 X3.6530 Y21.8754
G01 X3.6355 Y21.8518
G01 X3.6203 Y21.8265
G01 X3.6087 Y21.8021
G01 X3.5978 Y21.7721
G01 X3.5907 Y21.7436
G01 X3.5863 Y21.7144
G01 X3.5849 Y21.6850
G01 X3.5849 Y17.3555
G00 Z2.0000
G00 X4.3094 Y17.7693
G01 F100.00
G01 Z0.0000
G01 F100.00
G01 X4.3213 Y17.6892
G01 X4.3416 Y17.6083
G01 X4.3697 Y17.5297
G01 X4.4054 Y17.4543
G01 X4.4483 Y17.3828
G01 X4.4980 Y17.3158
G01 X4.5540 Y17.2540
G01 X4.6139 Y17.1996
G01 X4.6849 Y17.1470
G01 X4.7543 Y17.1054
G01 X4.8320 Y17.0688
G01 X4.9083 Y17.0416
G01 X4.9892 Y17.0213
G01 X5.0717 Y17.0091
G01 X5.1538 Y17.0050
G01 X5.2408 Y17.0094
G01 X5.3208 Y17.0213
G01 X5.4018 Y17.0416
G01 X5.4803 Y17.0697
G01 X5.5535 Y17.1043
G01 X5.6283 Y17.1490
G01 X5.6942 Y17.1980
G01 X5.7543 Y17.2523
G01 X5.8128 Y17.3167
G01 X5.8618 Y17.3828
G01 X5.9041 Y17.4533
G01 X5.9398 Y17.5286
G01 X5.9530 Y17.5649
G01 X6.8907 Y17.5649
G01 X6.9002 Y17.5386
G01 X6.9360 Y17.4633
G01 X6.9783 Y17.3928
G01 X7.0272 Y17.3267
G01 X7.0857 Y17.2623
G01 X7.1458 Y17.2080
G01 X7.2118 Y17.1590
G01 X7.2865 Y17.1143
G01 X7.3597 Y17.0797
G01 X7.4383 Y17.0516
G01 X7.5192 Y17.0313
G01 X7.5993 Y17.0194
G01 X7.6850 Y17.0150
G01 X7.7708 Y17.0194
G01 X7.8508 Y17.0313
G01 X7.9318 Y17.0516
G01 X8.0103 Y17.0797
G01 X8.0835 Y17.1143
G01 X8.1583 Y17.1590
G01 X8.2242 Y17.2080
G01 X8.2843 Y17.2623
G01 X8.3428 Y17.3267
G01 X8.3918 Y17.3928
G01 X8.4341 Y17.4633
G01 X8.4698 Y17.5386
G01 X8.4794 Y17.5649
G01 X11.3707 Y17.5649
G01 X17.0911 Y11.8445
G01 X17.0793 Y11.8192
G01 X17.0513 Y11.7406
G01 X17.0313 Y11.6608
G01 X17.0192 Y11.5795
G01 X17.0151 Y11.4926
G01 X17.0191 Y11.4117
G01 X17.0316 Y11.3280
G01 X17.0516 Y11.2483
G01 X17.0797 Y11.1697
G01 X17.1154 Y11.0943
G01 X17.1570 Y11.0249
G01 X17.2096 Y10.9539
G01 X17.2640 Y10.8940
G01 X17.3248 Y10.8387
G01 X17.3928 Y10.7883
G01 X17.4665 Y10.7443
G01 X17.5397 Y10.7097
G01 X17.6159 Y10.6824
G01 X17.6968 Y10.6619
G01 X17.7817 Y10.6491
G01 X17.8650 Y10.6450
G01 X17.9483 Y10.6491
G01 X18.0332 Y10.6619
G01 X18.1118 Y10.6816
G01 X18.1880 Y10.7088
G01 X18.2635 Y10.7443
G01 X18.3372 Y10.7883
G01 X18.4042 Y10.8380
G01 X18.4661 Y10.8940
G01 X18.5236 Y10.9577
G01 X18.5731 Y11.0249
G01 X18.6146 Y11.0943
G01 X18.6493 Y11.1675
G01 X18.6791 Y11.2506
G01 X18.6987 Y11.3292
G01 X18.7109 Y11.4117
G01 X18.7150 Y11.4975
G01 X18.7109 Y11.5783
G01 X18.6987 Y11.6608
G01 X18.6776 Y11.7441
G01 X18.6503 Y11.8203
G01 X18.6146 Y11.8957
G01 X18.5718 Y11.9672
G01 X18.5236 Y12.0323
G01 X18.4661 Y12.0961
G01 X18.4042 Y12.1521
G01 X18.3393 Y12.2003
G01 X18.2657 Y12.2446
G01 X18.1903 Y12.2803
G01 X18.1141 Y12.3076
G01 X18.0296 Y12.3289
G01 X17.9483 Y12.3409
G01 X17.8675 Y12.3450
G01 X17.7805 Y12.3408
G01 X17.6992 Y12.3287
G01 X17.6194 Y12.3088
G01 X17.5409 Y12.2808
G01 X17.5155 Y12.2689
G01 X11.7072 Y18.0772
G01 X11.6854 Y18.0970
G01 X11.6618 Y18.1146
G01 X11.6365 Y18.1297
G01 X11.6121 Y18.1413
G01 X11.5821 Y18.1522
G01 X11.5536 Y18.1594
G01 X11.5244 Y18.1637
G01 X11.4950 Y18.1651
G01 X8.4794 Y18.1651
G01 X8.4698 Y18.1914
G01 X8.4341 Y18.2668
G01 X8.3918 Y18.3372
G01 X8.3428 Y18.4033
G01 X8.2843 Y18.4677
G01 X8.2242 Y18.5221
G01 X8.1583 Y18.5711
G01 X8.0835 Y18.6157
G01 X8.0103 Y18.6503
G01 X7.9318 Y18.6784
G01 X7.8508 Y18.6987
G01 X7.7708 Y18.7106
G01 X7.6850 Y18.7150
G01 X7.5993 Y18.7106
G01 X7.5192 Y18.6987
G01 X7.4383 Y18.6784
G01 X7.3597 Y18.6503
G01 X7.2865 Y18.6157
G01 X7.2118 Y18.5711
G01 X7.1458 Y18.5221
G01 X7.0857 Y18.4677
G01 X7.0272 Y18.4033
G01 X6.9783 Y18.3372
G01 X6.9360 Y18.2668
G01 X6.9002 Y18.1914
G01 X6.8906 Y18.1651
G01 X5.9458 Y18.1651
G01 X5.9398 Y18.1814
G01 X5.9034 Y18.2578
G01 X5.8618 Y18.3272
G01 X5.8121 Y18.3942
G01 X5.7561 Y18.4561
G01 X5.6961 Y18.5105
G01 X5.6252 Y18.5631
G01 X5.5557 Y18.6046
G01 X5.4825 Y18.6393
G01 X5.3994 Y18.6691
G01 X5.3208 Y18.6887
G01 X5.2383 Y18.7009
G01 X5.1550 Y18.7050
G01 X5.0741 Y18.7011
G01 X4.9892 Y18.6887
G01 X4.9083 Y18.6684
G01 X4.8297 Y18.6403
G01 X4.7543 Y18.6046
G01 X4.6828 Y18.5618
G01 X4.6158 Y18.5121
G01 X4.5540 Y18.4561
G01 X4.4980 Y18.3942
G01 X4.4483 Y18.3272
G01 X4.4054 Y18.2557
G01 X4.3697 Y18.1803
G01 X4.3416 Y18.1018
G01 X4.3213 Y18.0208
G01 X4.3091 Y17.9383
G01 X4.3050 Y17.8550
G01 X4.3094 Y17.7693
G00 Z2.0000
G00 X4.3094 Y20.3093
G01 F100.00
G01 Z0.0000
G01 F100.00
G01 X4.3213 Y20.2292
G01 X4.3416 Y20.1483
G01 X4.3697 Y20.0697
G01 X4.4043 Y19.9965
G01 X4.4497 Y19.9208
G01 X4.4980 Y19.8558
G01 X4.5540 Y19.7940
G01 X4.6158 Y19.7380
G01 X4.6808 Y19.6897
G01 X4.7565 Y19.6443
G01 X4.8297 Y19.6097
G01 X4.9083 Y19.5816
G01 X4.9892 Y19.5613
G01 X5.0693 Y19.5494
G01 X5.1575 Y19.5451
G01 X5.2383 Y19.5491
G01 X5.3232 Y19.5619
G01 X5.4018 Y19.5816
G01 X5.4803 Y19.6097
G01 X5.5557 Y19.6454
G01 X5.6262 Y19.6876
G01 X5.6942 Y19.7380
G01 X5.7543 Y19.7923
G01 X5.8128 Y19.8567
G01 X5.8618 Y19.9228
G01 X5.9041 Y19.9933
G01 X5.9398 Y20.0686
G01 X5.9494 Y20.0949
G01 X6.8942 Y20.0949
G01 X6.9002 Y20.0786
G01 X6.9354 Y20.0043
G01 X6.9797 Y19.9308
G01 X7.0280 Y19.8658
G01 X7.0823 Y19.8057
G01 X7.1458 Y19.7480
G01 X7.2149 Y19.6970
G01 X7.2843 Y19.6554
G01 X7.3575 Y19.6207
G01 X7.4383 Y19.5916
G01 X7.5216 Y19.5709
G01 X7.6017 Y19.5591
G01 X7.6875 Y19.5551
G01 X7.7708 Y19.5594
G01 X7.8508 Y19.5713
G01 X7.9294 Y19.5910
G01 X8.0103 Y19.6197
G01 X8.0857 Y19.6554
G01 X8.1572 Y19.6983
G01 X8.2233 Y19.7472
G01 X8.2861 Y19.8040
G01 X8.3436 Y19.8677
G01 X8.3918 Y19.9328
G01 X8.4334 Y20.0022
G01 X8.4703 Y20.0797
G01 X8.4984 Y20.1583
G01 X8.5191 Y20.2416
G01 X8.5309 Y20.3217
G01 X8.5350 Y20.4026
G01 X8.5309 Y20.4883
G01 X8.5187 Y20.5708
G01 X8.4991 Y20.6494
G01 X8.4703 Y20.7303
G01 X8.4334 Y20.8078
G01 X8.3918 Y20.8772
G01 X8.3428 Y20.9433
G01 X8.2843 Y21.0077
G01 X8.2242 Y21.0621
G01 X8.1583 Y21.1111
G01 X8.0846 Y21.1552
G01 X8.0114 Y21.1898
G01 X7.9851 Y21.1994
G01 X7.9851 Y22.1507
G01 X8.0114 Y22.1602
G01 X8.0846 Y22.1948
G01 X8.1562 Y22.2376
G01 X8.2242 Y22.2880
G01 X8.2869 Y22.3449
G01 X8.3436 Y22.4077
G01 X8.3918 Y22.4728
G01 X8.4334 Y22.5422
G01 X8.4703 Y22.6197
G01 X8.4988 Y22.6994
G01 X8.5191 Y22.7816
G01 X8.5309 Y22.8617
G01 X8.5350 Y22.9426
G01 X8.5309 Y23.0283
G01 X8.5187 Y23.1108
G01 X8.4984 Y23.1918
G01 X8.4693 Y23.2725
G01 X8.4346 Y23.3457
G01 X8.3931 Y23.4152
G01 X8.3428 Y23.4833
G01 X8.2861 Y23.5461
G01 X8.2223 Y23.6036
G01 X8.1572 Y23.6518
G01 X8.0878 Y23.6934
G01 X8.0103 Y23.7303
G01 X7.9318 Y23.7584
G01 X7.8484 Y23.7791
G01 X7.7683 Y23.7909
G01 X7.6875 Y23.7950
G01 X7.6017 Y23.7909
G01 X7.5192 Y23.7787
G01 X7.4359 Y23.7576
G01 X7.3597 Y23.7303
G01 X7.2865 Y23.6957
G01 X7.2128 Y23.6518
G01 X7.1458 Y23.6021
G01 X7.0823 Y23.5443
G01 X7.0280 Y23.4842
G01 X6.9797 Y23.4193
G01 X6.9354 Y23.3457
G01 X6.8997 Y23.2703
G01 X6.8724 Y23.1941
G01 X6.8509 Y23.1084
G01 X6.8391 Y23.0283
G01 X6.8350 Y22.9450
G01 X6.8391 Y22.8617
G01 X6.8513 Y22.7792
G01 X6.8724 Y22.6959
G01 X6.8997 Y22.6197
G01 X6.9343 Y22.5465
G01 X6.9783 Y22.4728
G01 X7.0287 Y22.4048
G01 X7.0840 Y22.3440
G01 X7.1439 Y22.2896
G01 X7.2118 Y22.2390
G01 X7.2854 Y22.1948
G01 X7.3586 Y22.1602
G01 X7.3849 Y22.1506
G01 X7.3849 Y21.1994
G01 X7.3586 Y21.1898
G01 X7.2854 Y21.1552
G01 X7.2138 Y21.1124
G01 X7.1458 Y21.0621
G01 X7.0840 Y21.0061
G01 X7.0280 Y20.9442
G01 X6.9776 Y20.8762
G01 X6.9348 Y20.8046
G01 X6.9002 Y20.7314
G01 X6.8871 Y20.6951
G01 X5.9494 Y20.6951
G01 X5.9398 Y20.7214
G01 X5.9041 Y20.7968
G01 X5.8618 Y20.8672
G01 X5.8113 Y20.9352
G01 X5.7561 Y20.9961
G01 X5.6942 Y21.0521
G01 X5.6272 Y21.1018
G01 X5.5568 Y21.1441
G01 X5.4803 Y21.1803
G01 X5.4041 Y21.2076
G01 X5.3184 Y21.2291
G01 X5.2383 Y21.2409
G01 X5.1550 Y21.2450
G01 X5.0717 Y21.2409
G01 X4.9916 Y21.2291
G01 X4.9083 Y21.2084
G01 X4.8297 Y21.1803
G01 X4.7543 Y21.1446
G01 X4.6849 Y21.1031
G01 X4.6158 Y21.0521
G01 X4.5557 Y20.9977
G01 X4.4964 Y20.9323
G01 X4.4483 Y20.8672
G01 X4.4054 Y20.7957
G01 X4.3697 Y20.7203
G01 X4.3416 Y20.6418
G01 X4.3213 Y20.5608
G01 X4.3091 Y20.4783
G01 X4.3050 Y20.3950
G01 X4.3094 Y20.3093
G00 Z2.0000
G00 X13.7449 Y16.6235
G01 F100.00
G01 Z0.0000
G01 F100.00
G01 X13.7463 Y16.5966
G01 X13.7507 Y16.5674
G01 X13.7578 Y16.5389
G01 X13.7668 Y16.5134
G01 X13.7815 Y16.4824
G01 X13.7955 Y16.4592
G01 X13.8130 Y16.4356
G01 X13.8319 Y16.4146
G01 X13.8451 Y16.4016
G01 X13.8651 Y16.3835
G01 X13.8898 Y16.3653
G01 X13.9140 Y16.3508
G01 X13.9406 Y16.3382
G01 X13.9684 Y16.3283
G01 X13.9957 Y16.3214
G01 X14.0261 Y16.3168
G01 X14.0555 Y16.3154
G01 X15.1202 Y16.3154
G01 X22.0861 Y9.3495
G01 X22.0573 Y9.2886
G01 X22.0259 Y9.2008
G01 X22.0033 Y9.1103
G01 X21.9897 Y9.0193
G01 X21.9850 Y8.9250
G01 X21.9894 Y8.8343
G01 X22.0035 Y8.7385
G01 X22.0259 Y8.6492
G01 X22.0573 Y8.5615
G01 X22.0972 Y8.4772
G01 X22.1438 Y8.3993
G01 X22.2023 Y8.3205
G01 X22.2633 Y8.2533
G01 X22.3323 Y8.1907
G01 X22.4072 Y8.1351
G01 X22.4872 Y8.0872
G01 X22.5715 Y8.0473
G01 X22.6592 Y8.0159
G01 X22.7497 Y7.9933
G01 X22.8419 Y7.9796
G01 X22.9350 Y7.9750
G01 X23.0281 Y7.9796
G01 X23.1203 Y7.9933
G01 X23.2108 Y8.0159
G01 X23.2986 Y8.0473
G01 X23.3828 Y8.0872
G01 X23.4628 Y8.1351
G01 X23.5377 Y8.1907
G01 X23.6068 Y8.2533
G01 X23.6694 Y8.3223
G01 X23.7249 Y8.3972
G01 X23.7728 Y8.4772
G01 X23.8127 Y8.5615
G01 X23.8441 Y8.6492
G01 X23.8668 Y8.7397
G01 X23.8804 Y8.8319
G01 X23.8850 Y8.9250
G01 X23.8806 Y9.0157
G01 X23.8668 Y9.1103
G01 X23.8441 Y9.2008
G01 X23.8127 Y9.2886
G01 X23.7739 Y9.3706
G01 X23.7249 Y9.4528
G01 X23.6709 Y9.5258
G01 X23.6050 Y9.5985
G01 X23.5377 Y9.6594
G01 X23.4648 Y9.7135
G01 X23.3828 Y9.7628
G01 X23.2986 Y9.8027
G01 X23.2131 Y9.8333
G01 X23.1179 Y9.8572
G01 X23.0281 Y9.8704
G01 X22.9375 Y9.8750
G01 X22.8395 Y9.8701
G01 X22.7497 Y9.8568
G01 X22.6592 Y9.8341
G01 X22.5715 Y9.8027
G01 X22.5105 Y9.7739
G01 X15.4567 Y16.8277
G01 X15.4340 Y16.8483
G01 X15.4113 Y16.8650
G01 X15.3881 Y16.8790
G01 X15.3594 Y16.8928
G01 X15.3316 Y16.9027
G01 X15.3055 Y16.9093
G01 X15.2727 Y16.9143
G01 X15.2445 Y16.9156
G01 X14.3451 Y16.9156
G01 X14.3451 Y19.0207
G01 X14.9555 Y19.6311
G01 X14.9809 Y19.6193
G01 X15.0571 Y19.5920
G01 X15.1380 Y19.5716
G01 X15.2217 Y19.5591
G01 X15.3038 Y19.5550
G01 X15.3883 Y19.5591
G01 X15.4708 Y19.5713
G01 X15.5518 Y19.5916
G01 X15.6303 Y19.6197
G01 X15.7057 Y19.6554
G01 X15.7772 Y19.6983
G01 X15.8442 Y19.7480
G01 X15.9069 Y19.8049
G01 X15.9621 Y19.8658
G01 X16.0124 Y19.9338
G01 X16.0552 Y20.0054
G01 X16.0898 Y20.0786
G01 X16.0994 Y20.1049
G01 X17.1545 Y20.1049
G01 X17.1815 Y20.0297
G01 X17.2160 Y19.9565
G01 X17.2587 Y19.8849
G01 X17.3097 Y19.8158
G01 X17.3640 Y19.7557
G01 X17.4275 Y19.6980
G01 X17.4945 Y19.6483
G01 X17.5661 Y19.6054
G01 X17.6392 Y19.5707
G01 X17.7200 Y19.5416
G01 X17.8009 Y19.5213
G01 X17.8835 Y19.5091
G01 X17.9668 Y19.5050
G01 X18.0501 Y19.5091
G01 X18.1326 Y19.5213
G01 X18.2135 Y19.5416
G01 X18.2909 Y19.5693
G01 X18.3675 Y19.6054
G01 X18.4410 Y19.6497
G01 X18.5060 Y19.6980
G01 X18.5660 Y19.7523
G01 X18.6238 Y19.8158
G01 X18.6748 Y19.8849
G01 X18.7164 Y19.9543
G01 X18.7511 Y20.0275
G01 X18.7802 Y20.1083
G01 X18.8009 Y20.1916
G01 X18.8127 Y20.2717
G01 X18.8167 Y20.3526
G01 X18.8127 Y20.4383
G01 X18.7999 Y20.5232
G01 X18.7802 Y20.6018
G01 X18.7529 Y20.6780
G01 X18.7164 Y20.7557
G01 X18.6721 Y20.8293
G01 X18.6238 Y20.8942
G01 X18.5695 Y20.9543
G01 X18.5060 Y21.0121
G01 X18.4390 Y21.0618
G01 X18.3653 Y21.1057
G01 X18.2920 Y21.1403
G01 X18.2158 Y21.1676
G01 X18.1350 Y21.1881
G01 X18.0501 Y21.2009
G01 X17.9668 Y21.2050
G01 X17.8835 Y21.2009
G01 X17.7997 Y21.1884
G01 X17.7200 Y21.1684
G01 X17.6392 Y21.1393
G01 X17.5661 Y21.1046
G01 X17.4966 Y21.0631
G01 X17.4285 Y21.0128
G01 X17.3657 Y20.9561
G01 X17.3089 Y20.8933
G01 X17.2587 Y20.8252
G01 X17.2171 Y20.7557
G01 X17.1932 Y20.7051
G01 X16.0994 Y20.7051
G01 X16.0898 Y20.7314
G01 X16.0552 Y20.8046
G01 X16.0111 Y20.8783
G01 X15.9621 Y20.9442
G01 X15.9077 Y21.0043
G01 X15.8433 Y21.0628
G01 X15.7772 Y21.1118
G01 X15.7078 Y21.1534
G01 X15.6303 Y21.1903
G01 X15.5494 Y21.2191
G01 X15.4708 Y21.2387
G01 X15.3895 Y21.2508
G01 X15.3050 Y21.2550
G01 X15.2217 Y21.2509
G01 X15.1392 Y21.2387
G01 X15.0559 Y21.2176
G01 X14.9775 Y21.1893
G01 X14.9043 Y21.1546
G01 X14.8349 Y21.1131
G01 X14.7658 Y21.0621
G01 X14.7057 Y21.0077
G01 X14.6464 Y20.9423
G01 X14.5983 Y20.8772
G01 X14.5554 Y20.8057
G01 X14.5197 Y20.7303
G01 X14.4924 Y20.6541
G01 X14.4711 Y20.5696
G01 X14.4591 Y20.4883
G01 X14.4551 Y20.4075
G01 X14.4592 Y20.3205
G01 X14.4713 Y20.2392
G01 X14.4913 Y20.1594
G01 X14.5193 Y20.0809
G01 X14.5311 Y20.0555
G01 X13.8311 Y19.3555
G01 X13.8130 Y19.3354
G01 X13.7969 Y19.3138
G01 X13.7803 Y19.2865
G01 X13.7668 Y19.2576
G01 X13.7578 Y19.2321
G01 X13.7509 Y19.2048
G01 X13.7463 Y19.1744
G01 X13.7449 Y19.1450
G01 X13.7449 Y16.6235
G00 Z2.0000
G00 X14.5050 Y17.0150
G01 F100.00
G01 Z0.0000
G01 F100.00
G01 X16.1050 Y17.0150
G01 X16.1148 Y17.0160
G01 X16.1219 Y17.0179
G01 X16.1297 Y17.0215
G01 X16.1367 Y17.0264
G01 X16.1429 Y17.0324
G01 X16.1479 Y17.0393
G01 X16.1512 Y17.0459
G01 X16.1538 Y17.0541
G01 X16.1549 Y17.0613
G01 X16.1550 Y17.5649
G01 X17.1688 Y17.5649
G01 X17.1820 Y17.5286
G01 X17.2166 Y17.4554
G01 X17.2607 Y17.3818
G01 X17.3097 Y17.3158
G01 X17.3640 Y17.2557
G01 X17.4285 Y17.1972
G01 X17.4945 Y17.1483
G01 X17.5639 Y17.1066
G01 X17.6415 Y17.0697
G01 X17.7224 Y17.0410
G01 X17.8009 Y17.0213
G01 X17.8822 Y17.0092
G01 X17.9668 Y17.0050
G01 X18.0476 Y17.0089
G01 X18.1350 Y17.0219
G01 X18.2135 Y17.0416
G01 X18.2920 Y17.0697
G01 X18.3675 Y17.1054
G01 X18.4380 Y17.1476
G01 X18.5060 Y17.1980
G01 X18.5660 Y17.2523
G01 X18.6246 Y17.3167
G01 X18.6735 Y17.3828
G01 X18.7158 Y17.4533
G01 X18.7516 Y17.5286
G01 X18.7611 Y17.5549
G01 X20.8707 Y17.5549
G01 X20.8802 Y17.5286
G01 X20.9160 Y17.4533
G01 X20.9583 Y17.3828
G01 X21.0072 Y17.3167
G01 X21.0640 Y17.2540
G01 X21.1239 Y17.1996
G01 X21.1938 Y17.1476
G01 X21.2643 Y17.1054
G01 X21.3397 Y17.0697
G01 X21.4183 Y17.0416
G01 X21.4968 Y17.0219
G01 X21.5841 Y17.0089
G01 X21.6650 Y17.0050
G01 X21.7495 Y17.0092
G01 X21.8308 Y17.0213
G01 X21.9118 Y17.0416
G01 X21.9903 Y17.0697
G01 X22.0657 Y17.1054
G01 X22.1372 Y17.1483
G01 X22.2042 Y17.1980
G01 X22.2661 Y17.2540
G01 X22.3221 Y17.3158
G01 X22.3718 Y17.3828
G01 X22.4146 Y17.4543
G01 X22.4503 Y17.5297
G01 X22.4784 Y17.6083
G01 X22.4987 Y17.6892
G01 X22.5109 Y17.7717
G01 X22.5150 Y17.8550
G01 X22.5108 Y17.9395
G01 X22.4987 Y18.0208
G01 X22.4784 Y18.1018
G01 X22.4503 Y18.1803
G01 X22.4157 Y18.2535
G01 X22.3703 Y18.3293
G01 X22.3221 Y18.3942
G01 X22.2661 Y18.4561
G01 X22.2042 Y18.5121
G01 X22.1372 Y18.5618
G01 X22.0657 Y18.6046
G01 X21.9925 Y18.6393
G01 X21.9094 Y18.6691
G01 X21.8308 Y18.6887
G01 X21.7483 Y18.7009
G01 X21.6650 Y18.7050
G01 X21.5841 Y18.7011
G01 X21.4968 Y18.6881
G01 X21.4183 Y18.6684
G01 X21.3397 Y18.6403
G01 X21.2643 Y18.6046
G01 X21.1938 Y18.5624
G01 X21.1258 Y18.5121
G01 X21.0657 Y18.4577
G01 X21.0072 Y18.3933
G01 X20.9583 Y18.3272
G01 X20.9160 Y18.2568
G01 X20.8802 Y18.1814
G01 X20.8706 Y18.1551
G01 X18.7611 Y18.1551
G01 X18.7516 Y18.1814
G01 X18.7170 Y18.2546
G01 X18.6728 Y18.3283
G01 X18.6238 Y18.3942
G01 X18.5695 Y18.4543
G01 X18.5050 Y18.5128
G01 X18.4390 Y18.5618
G01 X18.3696 Y18.6034
G01 X18.2920 Y18.6403
G01 X18.2111 Y18.6691
G01 X18.1326 Y18.6887
G01 X18.0513 Y18.7008
G01 X17.9668 Y18.7050
G01 X17.8859 Y18.7011
G01 X17.7985 Y18.6881
G01 X17.7200 Y18.6684
G01 X17.6415 Y18.6403
G01 X17.5661 Y18.6046
G01 X17.4966 Y18.5631
G01 X17.4257 Y18.5105
G01 X17.3657 Y18.4561
G01 X17.3097 Y18.3942
G01 X17.2600 Y18.3272
G01 X17.2183 Y18.2578
G01 X17.1820 Y18.1814
G01 X17.1760 Y18.1651
G01 X16.1550 Y18.1651
G01 X16.1549 Y18.6687
G01 X16.1538 Y18.6760
G01 X16.1517 Y18.6830
G01 X16.1485 Y18.6897
G01 X16.1444 Y18.6958
G01 X16.1395 Y18.7012
G01 X16.1338 Y18.7059
G01 X16.1275 Y18.7097
G01 X16.1207 Y18.7125
G01 X16.1123 Y18.7145
G01 X16.1050 Y18.7150
G01 X14.5050 Y18.7150
G01 X14.4989 Y18.7146
G01 X14.4905 Y18.7129
G01 X14.4825 Y18.7097
G01 X14.4743 Y18.7044
G01 X14.4680 Y18.6986
G01 X14.4621 Y18.6907
G01 X14.4584 Y18.6830
G01 X14.4560 Y18.6748
G01 X14.4550 Y18.6662
G01 X14.4550 Y17.0650
G01 X14.4560 Y17.0553
G01 X14.4588 Y17.0459
G01 X14.4634 Y17.0372
G01 X14.4697 Y17.0297
G01 X14.4772 Y17.0234
G01 X14.4859 Y17.0188
G01 X14.4953 Y17.0160
G01 X14.5050 Y17.0150
G00 Z2.0000
G00 X24.6294 Y20.3093
G01 F100.00
G01 Z0.0000
G01 F100.00
G01 X24.6413 Y20.2292
G01 X24.6610 Y20.1506
G01 X24.6907 Y20.0675
G01 X24.7254 Y19.9943
G01 X24.7683 Y19.9228
G01 X24.8180 Y19.8558
G01 X24.8723 Y19.7957
G01 X24.9377 Y19.7364
G01 X25.0028 Y19.6883
G01 X25.0743 Y19.6454
G01 X25.1497 Y19.6097
G01 X25.2259 Y19.5824
G01 X25.3116 Y19.5609
G01 X25.3917 Y19.5491
G01 X25.4750 Y19.5450
G01 X25.5583 Y19.5491
G01 X25.6384 Y19.5609
G01 X25.7241 Y19.5824
G01 X25.8003 Y19.6097
G01 X25.8778 Y19.6466
G01 X25.9472 Y19.6883
G01 X26.0142 Y19.7380
G01 X26.0761 Y19.7940
G01 X26.1321 Y19.8558
G01 X26.1818 Y19.9228
G01 X26.2246 Y19.9943
G01 X26.2603 Y20.0697
G01 X26.2837 Y20.1349
G01 X28.4907 Y20.1349
G01 X28.5002 Y20.1086
G01 X28.5360 Y20.0333
G01 X28.5783 Y19.9628
G01 X28.6272 Y19.8967
G01 X28.6857 Y19.8323
G01 X28.7458 Y19.7780
G01 X28.8118 Y19.7290
G01 X28.8865 Y19.6843
G01 X28.9597 Y19.6497
G01 X29.0383 Y19.6216
G01 X29.1192 Y19.6013
G01 X29.1993 Y19.5894
G01 X29.2862 Y19.5850
G01 X29.3683 Y19.5891
G01 X29.4508 Y19.6013
G01 X29.5318 Y19.6216
G01 X29.6103 Y19.6497
G01 X29.6857 Y19.6854
G01 X29.7572 Y19.7283
G01 X29.8242 Y19.7780
G01 X29.8861 Y19.8340
G01 X29.9421 Y19.8958
G01 X29.9918 Y19.9628
G01 X30.0346 Y20.0343
G01 X30.0703 Y20.1097
G01 X30.0984 Y20.1883
G01 X30.1187 Y20.2692
G01 X30.1309 Y20.3517
G01 X30.1350 Y20.4362
G01 X30.1309 Y20.5183
G01 X30.1187 Y20.6008
G01 X30.0984 Y20.6818
G01 X30.0712 Y20.7580
G01 X30.0334 Y20.8378
G01 X29.9918 Y20.9072
G01 X29.9421 Y20.9742
G01 X29.8861 Y21.0361
G01 X29.8242 Y21.0921
G01 X29.7572 Y21.1418
G01 X29.6878 Y21.1834
G01 X29.6080 Y21.2212
G01 X29.5318 Y21.2484
G01 X29.4496 Y21.2689
G01 X29.3683 Y21.2809
G01 X29.2850 Y21.2850
G01 X29.2017 Y21.2809
G01 X29.1216 Y21.2691
G01 X29.0359 Y21.2476
G01 X28.9597 Y21.2203
G01 X28.8833 Y21.1841
G01 X28.8128 Y21.1418
G01 X28.7458 Y21.0921
G01 X28.6840 Y21.0361
G01 X28.6287 Y20.9752
G01 X28.5783 Y20.9072
G01 X28.5360 Y20.8368
G01 X28.5002 Y20.7614
G01 X28.4906 Y20.7351
G01 X26.2534 Y20.7351
G01 X26.2246 Y20.7957
G01 X26.1831 Y20.8652
G01 X26.1321 Y20.9342
G01 X26.0761 Y20.9961
G01 X26.0161 Y21.0505
G01 X25.9472 Y21.1018
G01 X25.8757 Y21.1446
G01 X25.8025 Y21.1793
G01 X25.7218 Y21.2084
G01 X25.6408 Y21.2287
G01 X25.5608 Y21.2406
G01 X25.4738 Y21.2450
G01 X25.3917 Y21.2409
G01 X25.3092 Y21.2287
G01 X25.2283 Y21.2084
G01 X25.1475 Y21.1793
G01 X25.0743 Y21.1446
G01 X25.0049 Y21.1031
G01 X24.9377 Y21.0536
G01 X24.8740 Y20.9961
G01 X24.8196 Y20.9361
G01 X24.7683 Y20.8672
G01 X24.7254 Y20.7957
G01 X24.6897 Y20.7203
G01 X24.6616 Y20.6418
G01 X24.6413 Y20.5608
G01 X24.6291 Y20.4783
G01 X24.6250 Y20.3950
G01 X24.6294 Y20.3093
G00 Z2.0000
G00 X26.9899 Y8.8295
G01 F100.00
G01 Z0.0000
G01 F100.00
G01 X27.0033 Y8.7397
G01 X27.0259 Y8.6492
G01 X27.0573 Y8.5615
G01 X27.0972 Y8.4772
G01 X27.1451 Y8.3972
G01 X27.2007 Y8.3223
G01 X27.2633 Y8.2533
G01 X27.3323 Y8.1907
G01 X27.4072 Y8.1351
G01 X27.4872 Y8.0872
G01 X27.5715 Y8.0473
G01 X27.6592 Y8.0159
G01 X27.7497 Y7.9933
G01 X27.8419 Y7.9796
G01 X27.9350 Y7.9750
G01 X28.0281 Y7.9796
G01 X28.1203 Y7.9933
G01 X28.2108 Y8.0159
G01 X28.2986 Y8.0473
G01 X28.3828 Y8.0872
G01 X28.4628 Y8.1351
G01 X28.5377 Y8.1907
G01 X28.6068 Y8.2533
G01 X28.6694 Y8.3223
G01 X28.7249 Y8.3972
G01 X28.7728 Y8.4772
G01 X28.8127 Y8.5615
G01 X28.8441 Y8.6492
G01 X28.8668 Y8.7397
G01 X28.8804 Y8.8319
G01 X28.8850 Y8.9250
G01 X28.8804 Y9.0181
G01 X28.8668 Y9.1103
G01 X28.8441 Y9.2008
G01 X28.8127 Y9.2886
G01 X28.7728 Y9.3728
G01 X28.7249 Y9.4528
G01 X28.6694 Y9.5277
G01 X28.6068 Y9.5968
G01 X28.5377 Y9.6594
G01 X28.4628 Y9.7149
G01 X28.3828 Y9.7628
G01 X28.2986 Y9.8027
G01 X28.2108 Y9.8341
G01 X28.1203 Y9.8568
G01 X28.0281 Y9.8704
G01 X27.9350 Y9.8750
G01 X27.8419 Y9.8704
G01 X27.7497 Y9.8568
G01 X27.6592 Y9.8341
G01 X27.5715 Y9.8027
G01 X27.4872 Y9.7628
G01 X27.4072 Y9.7149
G01 X27.3323 Y9.6594
G01 X27.2633 Y9.5968
G01 X27.2007 Y9.5277
G01 X27.1451 Y9.4528
G01 X27.0972 Y9.3728
G01 X27.0573 Y9.2886
G01 X27.0259 Y9.2008
G01 X27.0033 Y9.1103
G01 X26.9896 Y9.0181
G01 X26.9850 Y8.9250
G01 X26.9899 Y8.8295
G00 Z2.0000
G00 X26.9899 Y6.3295
G01 F100.00
G01 Z0.0000
G01 F100.00
G01 X27.0033 Y6.2397
G01 X27.0259 Y6.1492
G01 X27.0573 Y6.0615
G01 X27.0972 Y5.9772
G01 X27.1451 Y5.8972
G01 X27.2007 Y5.8223
G01 X27.2633 Y5.7533
G01 X27.3323 Y5.6907
G01 X27.4072 Y5.6351
G01 X27.4872 Y5.5872
G01 X27.5715 Y5.5473
G01 X27.6592 Y5.5159
G01 X27.7497 Y5.4933
G01 X27.8419 Y5.4796
G01 X27.9350 Y5.4750
G01 X28.0281 Y5.4796
G01 X28.1203 Y5.4933
G01 X28.2108 Y5.5159
G01 X28.2986 Y5.5473
G01 X28.3828 Y5.5872
G01 X28.4628 Y5.6351
G01 X28.5377 Y5.6907
G01 X28.6068 Y5.7533
G01 X28.6694 Y5.8223
G01 X28.7249 Y5.8972
G01 X28.7728 Y5.9772
G01 X28.8127 Y6.0615
G01 X28.8441 Y6.1492
G01 X28.8668 Y6.2397
G01 X28.8804 Y6.3319
G01 X28.8850 Y6.4250
G01 X28.8804 Y6.5181
G01 X28.8668 Y6.6103
G01 X28.8441 Y6.7008
G01 X28.8127 Y6.7886
G01 X28.7728 Y6.8728
G01 X28.7249 Y6.9528
G01 X28.6694 Y7.0277
G01 X28.6068 Y7.0968
G01 X28.5377 Y7.1594
G01 X28.4628 Y7.2149
G01 X28.3828 Y7.2628
G01 X28.2986 Y7.3027
G01 X28.2108 Y7.3341
G01 X28.1203 Y7.3568
G01 X28.0281 Y7.3704
G01 X27.9350 Y7.3750
G01 X27.8419 Y7.3704
G01 X27.7497 Y7.3568
G01 X27.6592 Y7.3341
G01 X27.5715 Y7.3027
G01 X27.4872 Y7.2628
G01 X27.4072 Y7.2149
G01 X27.3323 Y7.1594
G01 X27.2633 Y7.0968
G01 X27.2007 Y7.0277
G01 X27.1451 Y6.9528
G01 X27.0972 Y6.8728
G01 X27.0573 Y6.7886
G01 X27.0259 Y6.7008
G01 X27.0033 Y6.6103
G01 X26.9896 Y6.5181
G01 X26.9850 Y6.4250
G01 X26.9899 Y6.3295
G00 Z2.0000
G00 X17.0194 Y6.3293
G01 F100.00
G01 Z0.0000
G01 F100.00
G01 X17.0313 Y6.2492
G01 X17.0516 Y6.1683
G01 X17.0797 Y6.0897
G01 X17.1143 Y6.0165
G01 X17.1597 Y5.9408
G01 X17.2080 Y5.8758
G01 X17.2640 Y5.8140
G01 X17.3258 Y5.7580
G01 X17.3908 Y5.7097
G01 X17.4665 Y5.6643
G01 X17.5397 Y5.6297
G01 X17.6183 Y5.6016
G01 X17.6992 Y5.5813
G01 X17.7805 Y5.5692
G01 X17.8675 Y5.5651
G01 X17.9483 Y5.5691
G01 X18.0308 Y5.5813
G01 X18.1141 Y5.6024
G01 X18.1903 Y5.6297
G01 X18.2646 Y5.6648
G01 X18.3372 Y5.7083
G01 X18.4042 Y5.7580
G01 X18.4661 Y5.8140
G01 X18.5213 Y5.8748
G01 X18.5718 Y5.9428
G01 X18.6141 Y6.0133
G01 X18.6498 Y6.0886
G01 X18.6594 Y6.1149
G01 X18.8721 Y6.1149
G01 X20.1246 Y4.8624
G01 X20.1455 Y4.8435
G01 X20.1692 Y4.8259
G01 X20.1944 Y4.8108
G01 X20.2188 Y4.7992
G01 X20.2511 Y4.7876
G01 X20.2774 Y4.7811
G01 X20.3053 Y4.7769
G01 X20.3359 Y4.7754
G01 X24.0855 Y4.7754
G01 X24.1149 Y4.7768
G01 X24.1428 Y4.7809
G01 X24.1749 Y4.7891
G01 X24.2003 Y4.7982
G01 X24.2270 Y4.8108
G01 X24.2542 Y4.8274
G01 X24.2759 Y4.8435
G01 X24.2959 Y4.8616
G01 X25.0105 Y5.5761
G01 X25.0715 Y5.5473
G01 X25.1569 Y5.5167
G01 X25.2473 Y5.4938
G01 X25.3419 Y5.4796
G01 X25.4350 Y5.4750
G01 X25.5281 Y5.4796
G01 X25.6227 Y5.4938
G01 X25.7131 Y5.5167
G01 X25.7986 Y5.5473
G01 X25.8595 Y5.5761
G01 X26.5741 Y4.8616
G01 X26.5941 Y4.8435
G01 X26.6158 Y4.8274
G01 X26.6430 Y4.8108
G01 X26.6720 Y4.7973
G01 X26.6974 Y4.7883
G01 X26.7260 Y4.7811
G01 X26.7551 Y4.7768
G01 X26.7845 Y4.7754
G01 X28.4952 Y4.7754
G01 X28.5259 Y4.7771
G01 X28.5526 Y4.7811
G01 X28.5788 Y4.7876
G01 X28.6089 Y4.7982
G01 X28.6355 Y4.8108
G01 X28.6607 Y4.8260
G01 X28.6825 Y4.8420
G01 X28.7062 Y4.8633
G01 X29.4981 Y5.6552
G01 X29.5170 Y5.6761
G01 X29.5331 Y5.6978
G01 X29.5497 Y5.7250
G01 X29.5623 Y5.7517
G01 X29.5714 Y5.7771
G01 X29.5796 Y5.8092
G01 X29.5837 Y5.8371
G01 X29.5851 Y5.8665
G01 X29.5851 Y12.0207
G01 X29.6114 Y12.0302
G01 X29.6846 Y12.0648
G01 X29.7562 Y12.1076
G01 X29.8242 Y12.1580
G01 X29.8852 Y12.2131
G01 X29.9421 Y12.2758
G01 X29.9918 Y12.3428
G01 X30.0346 Y12.4143
G01 X30.0708 Y12.4909
G01 X30.0984 Y12.5683
G01 X30.1191 Y12.6516
G01 X30.1309 Y12.7317
G01 X30.1350 Y12.8126
G01 X30.1311 Y12.8959
G01 X30.1187 Y12.9808
G01 X30.0984 Y13.0618
G01 X30.0703 Y13.1403
G01 X30.0346 Y13.2157
G01 X29.9918 Y13.2872
G01 X29.9436 Y13.3523
G01 X29.8861 Y13.4161
G01 X29.8242 Y13.4721
G01 X29.7593 Y13.5203
G01 X29.6857 Y13.5646
G01 X29.6103 Y13.6003
G01 X29.5341 Y13.6276
G01 X29.4508 Y13.6487
G01 X29.3683 Y13.6609
G01 X29.2875 Y13.6650
G01 X29.1993 Y13.6606
G01 X29.1192 Y13.6487
G01 X29.0406 Y13.6291
G01 X28.9575 Y13.5993
G01 X28.8843 Y13.5646
G01 X28.8128 Y13.5218
G01 X28.7458 Y13.4721
G01 X28.6857 Y13.4177
G01 X28.6264 Y13.3523
G01 X28.5783 Y13.2872
G01 X28.5354 Y13.2157
G01 X28.4988 Y13.1380
G01 X28.4716 Y13.0618
G01 X28.4516 Y12.9820
G01 X28.4391 Y12.8983
G01 X28.4350 Y12.8150
G01 X28.4391 Y12.7317
G01 X28.4509 Y12.6516
G01 X28.4724 Y12.5659
G01 X28.4997 Y12.4897
G01 X28.5360 Y12.4133
G01 X28.5783 Y12.3428
G01 X28.6280 Y12.2758
G01 X28.6840 Y12.2140
G01 X28.7448 Y12.1587
G01 X28.8128 Y12.1083
G01 X28.8833 Y12.0660
G01 X28.9586 Y12.0302
G01 X28.9849 Y12.0206
G01 X28.9849 Y5.9908
G01 X28.3697 Y5.3756
G01 X26.9088 Y5.3756
G01 X26.2839 Y6.0005
G01 X26.3127 Y6.0615
G01 X26.3433 Y6.1469
G01 X26.3668 Y6.2397
G01 X26.3806 Y6.3343
G01 X26.3850 Y6.4250
G01 X26.3805 Y6.5169
G01 X26.3668 Y6.6103
G01 X26.3433 Y6.7031
G01 X26.3127 Y6.7886
G01 X26.2739 Y6.8706
G01 X26.2242 Y6.9538
G01 X26.1694 Y7.0277
G01 X26.1050 Y7.0985
G01 X26.0358 Y7.1609
G01 X25.9628 Y7.2149
G01 X25.8850 Y7.2616
G01 X25.7986 Y7.3027
G01 X25.7108 Y7.3341
G01 X25.6203 Y7.3568
G01 X25.5269 Y7.3705
G01 X25.4326 Y7.3750
G01 X25.3419 Y7.3704
G01 X25.2521 Y7.3572
G01 X25.1592 Y7.3341
G01 X25.0715 Y7.3027
G01 X24.9851 Y7.2616
G01 X24.9072 Y7.2149
G01 X24.8343 Y7.1609
G01 X24.7633 Y7.0968
G01 X24.6999 Y7.0267
G01 X24.6451 Y6.9528
G01 X24.5984 Y6.8750
G01 X24.5573 Y6.7886
G01 X24.5253 Y6.6984
G01 X24.5033 Y6.6103
G01 X24.4896 Y6.5181
G01 X24.4850 Y6.4250
G01 X24.4894 Y6.3343
G01 X24.5033 Y6.2397
G01 X24.5267 Y6.1469
G01 X24.5573 Y6.0615
G01 X24.5861 Y6.0005
G01 X23.9612 Y5.3756
G01 X20.4602 Y5.3756
G01 X19.2086 Y6.6272
G01 X19.1848 Y6.6485
G01 X19.1631 Y6.6646
G01 X19.1400 Y6.6785
G01 X19.1112 Y6.6923
G01 X19.0811 Y6.7029
G01 X19.0549 Y6.7094
G01 X19.0270 Y6.7136
G01 X18.9964 Y6.7151
G01 X18.6594 Y6.7151
G01 X18.6498 Y6.7414
G01 X18.6152 Y6.8146
G01 X18.5711 Y6.8883
G01 X18.5221 Y6.9542
G01 X18.4677 Y7.0143
G01 X18.4033 Y7.0728
G01 X18.3372 Y7.1218
G01 X18.2678 Y7.1634
G01 X18.1903 Y7.2003
G01 X18.1094 Y7.2291
G01 X18.0308 Y7.2487
G01 X17.9508 Y7.2606
G01 X17.8650 Y7.2650
G01 X17.7817 Y7.2609
G01 X17.6992 Y7.2487
G01 X17.6159 Y7.2276
G01 X17.5375 Y7.1993
G01 X17.4643 Y7.1646
G01 X17.3949 Y7.1231
G01 X17.3258 Y7.0721
G01 X17.2640 Y7.0161
G01 X17.2080 Y6.9542
G01 X17.1570 Y6.8852
G01 X17.1154 Y6.8157
G01 X17.0807 Y6.7425
G01 X17.0524 Y6.6641
G01 X17.0313 Y6.5808
G01 X17.0191 Y6.4983
G01 X17.0150 Y6.4150
G01 X17.0194 Y6.3293
G00 Z2.0000
M05
G00 Z2.0000
G00 Z5.00


