(G-CODE GENERATED BY FLATCAM v8.994 - www.flatcam.org - Version Date: 2020/11/7)

(Name: Filter DualOp-PTH.drl_cnc)
(Type: G-code from Geometry)
(Units: MM)

(Created on Thursday, 07 December 2023 at 00:25)

(This preprocessor is the default preprocessor used by FlatCAM.)
(It is made to work with MACH3 compatible motion controllers.)


(TOOLS DIAMETER: )
(Tool: 1 -> Dia: 0.8000999999999999)
(Tool: 2 -> Dia: 1.0007599999999999)

(FEEDRATE Z: )
(Tool: 1 -> Feedrate: 50.0)
(Tool: 2 -> Feedrate: 50.0)

(FEEDRATE RAPIDS: )
(Tool: 1 -> Feedrate Rapids: 1500)
(Tool: 2 -> Feedrate Rapids: 1500)

(Z_CUT: )
(Tool: 1 -> Z_Cut: -0.5)
(Tool: 2 -> Z_Cut: -0.5)

(Tools Offset: )
(Tool: 1 -> Offset Z: 0.0)
(Tool: 2 -> Offset Z: 0.0)

(Z_MOVE: )
(Tool: 1 -> Z_Move: 2.0)
(Tool: 2 -> Z_Move: 2.0)

(Z Toolchange: 15 mm)
(X,Y Toolchange: 0.0000, 0.0000 mm)
(Z Start: None mm)
(Z End: 0.5 mm)
(X,Y End: None mm)
(Steps per circle: 64)
(Preprocessor Excellon: default)

(X range:    4.7550 ...   29.6851  mm)
(Y range:    3.4748 ...   25.8852  mm)

(Spindle Speed: 0 RPM)
G21
G90
G94

G01 F50.00

M5
G00 Z15.0000
T1
G00 X0.0000 Y0.0000                
M6
(MSG, Change to Tool Dia = 0.8001 ||| Total drills for tool T1 = 38)
M0
G00 Z15.0000

G01 F50.00
M03
G00 X5.1550 Y20.3950
G01 Z-0.5000
G01 Z0
G00 Z2.0000
G00 X7.6848 Y20.4052
G01 Z-0.5000
G01 Z0
G00 Z2.0000
G00 X7.6848 Y22.9452
G01 Z-0.5000
G01 Z0
G00 Z2.0000
G00 X7.6848 Y25.4852
G01 Z-0.5000
G01 Z0
G00 Z2.0000
G00 X15.3048 Y25.4852
G01 Z-0.5000
G01 Z0
G00 Z2.0000
G00 X15.3048 Y22.9452
G01 Z-0.5000
G01 Z0
G00 Z2.0000
G00 X15.3048 Y20.4052
G01 Z-0.5000
G01 Z0
G00 Z2.0000
G00 X15.3048 Y17.8652
G01 Z-0.5000
G01 Z0
G00 Z2.0000
G00 X17.9668 Y17.8550
G01 Z-0.5000
G01 Z0
G00 Z2.0000
G00 X17.9668 Y20.3544
G01 Z-0.5000
G01 Z0
G00 Z2.0000
G00 X21.6650 Y20.3950
G01 Z-0.5000
G01 Z0
G00 Z2.0000
G00 X21.6650 Y17.8550
G01 Z-0.5000
G01 Z0
G00 Z2.0000
G00 X25.4750 Y15.3150
G01 Z-0.5000
G01 Z0
G00 Z2.0000
G00 X25.4750 Y17.8550
G01 Z-0.5000
G01 Z0
G00 Z2.0000
G00 X25.4750 Y20.3950
G01 Z-0.5000
G01 Z0
G00 Z2.0000
G00 X29.2850 Y20.4357
G01 Z-0.5000
G01 Z0
G00 Z2.0000
G00 X29.2850 Y17.8957
G01 Z-0.5000
G01 Z0
G00 Z2.0000
G00 X29.2850 Y15.3150
G01 Z-0.5000
G01 Z0
G00 Z2.0000
G00 X29.2850 Y12.8157
G01 Z-0.5000
G01 Z0
G00 Z2.0000
G00 X25.4344 Y8.9244
G01 Z-0.5000
G01 Z0
G00 Z2.0000
G00 X27.9363 Y8.9244
G01 Z-0.5000
G01 Z0
G00 Z2.0000
G00 X27.9363 Y6.4250
G01 Z-0.5000
G01 Z0
G00 Z2.0000
G00 X25.4344 Y6.4250
G01 Z-0.5000
G01 Z0
G00 Z2.0000
G00 X22.9350 Y6.4250
G01 Z-0.5000
G01 Z0
G00 Z2.0000
G00 X22.9350 Y8.9244
G01 Z-0.5000
G01 Z0
G00 Z2.0000
G00 X17.8652 Y11.4949
G01 Z-0.5000
G01 Z0
G00 Z2.0000
G00 X17.8652 Y8.9549
G01 Z-0.5000
G01 Z0
G00 Z2.0000
G00 X17.8652 Y6.4149
G01 Z-0.5000
G01 Z0
G00 Z2.0000
G00 X17.8652 Y3.8749
G01 Z-0.5000
G01 Z0
G00 Z2.0000
G00 X10.2452 Y3.8749
G01 Z-0.5000
G01 Z0
G00 Z2.0000
G00 X10.2452 Y6.4149
G01 Z-0.5000
G01 Z0
G00 Z2.0000
G00 X10.2452 Y8.9549
G01 Z-0.5000
G01 Z0
G00 Z2.0000
G00 X10.2452 Y11.4949
G01 Z-0.5000
G01 Z0
G00 Z2.0000
G00 X6.4250 Y8.9650
G01 Z-0.5000
G01 Z0
G00 Z2.0000
G00 X6.4250 Y11.5050
G01 Z-0.5000
G01 Z0
G00 Z2.0000
G00 X5.1550 Y15.3150
G01 Z-0.5000
G01 Z0
G00 Z2.0000
G00 X7.6848 Y17.8652
G01 Z-0.5000
G01 Z0
G00 Z2.0000
G00 X5.1550 Y17.8550
G01 Z-0.5000
G01 Z0
G00 Z2.0000
M05
G00 Z0.50


