(G-CODE GENERATED BY FLATCAM v8.994 - www.flatcam.org - Version Date: 2020/11/7)

(Name: ecg_pcd_drawing-F_Cu.gbr_edit_iso_combined_cnc)
(Type: G-code from Geometry)
(Units: MM)

(Created on Saturday, 09 December 2023 at 17:15)

(This preprocessor is the default preprocessor used by FlatCAM.)
(It is made to work with MACH3 compatible motion controllers.)

(TOOL DIAMETER: 0.0371 mm)
(Feedrate_XY: 120.0 mm/min)
(Feedrate_Z: 60.0 mm/min)
(Feedrate rapids 1500.0 mm/min)

(Z_Cut: -0.1049 mm)
(Z_Move: 2.0 mm)
(Z Start: None mm)
(Z End: 15.0 mm)
(X,Y End: None mm)
(Steps per circle: 64)
(Preprocessor Geometry: default)

(X range:    0.6820 ...   98.5781  mm)
(Y range:    0.6820 ...   68.0981  mm)

(Spindle Speed: 0.0 RPM)
G21
G90
G94

G01 F120.00

M5
G00 Z15.0000
G00 X0.0000 Y0.0000
T1
M6    
(MSG, Change to Tool Dia = 0.0371)
M0
G00 Z15.0000

M03
G01 F120.00
G00 X4.9337 Y20.1515
G01 F60.00
G01 Z-0.1049
G01 F120.00
G01 X4.4512 Y20.1515
G01 X4.4972 Y19.9801
G01 X4.5919 Y19.7769
G01 X4.7205 Y19.5932
G01 X4.8791 Y19.4347
G01 X5.0628 Y19.3060
G01 X5.2660 Y19.2113
G01 X5.4374 Y19.1654
G01 X5.4374 Y19.6478
G01 X5.3927 Y19.6638
G01 X5.3205 Y19.6979
G01 X5.2516 Y19.7392
G01 X5.1867 Y19.7873
G01 X5.1271 Y19.8412
G01 X5.0732 Y19.9008
G01 X5.0251 Y19.9657
G01 X4.9838 Y20.0346
G01 X4.9497 Y20.1068
G01 X4.9337 Y20.1515
G00 Z2.0000
G00 X4.4512 Y20.6886
G01 F60.00
G01 Z-0.1049
G01 F120.00
G01 X4.9337 Y20.6886
G01 X4.9497 Y20.7333
G01 X4.9838 Y20.8055
G01 X5.0256 Y20.8752
G01 X5.0732 Y20.9393
G01 X5.1265 Y20.9982
G01 X5.1863 Y21.0525
G01 X5.2512 Y21.1007
G01 X5.3209 Y21.1424
G01 X5.3927 Y21.1763
G01 X5.4674 Y21.2031
G01 X5.5463 Y21.2229
G01 X5.6257 Y21.2347
G01 X5.7059 Y21.2386
G01 X5.7862 Y21.2347
G01 X5.8665 Y21.2227
G01 X5.9444 Y21.2031
G01 X6.0192 Y21.1763
G01 X6.0910 Y21.1424
G01 X6.1607 Y21.1007
G01 X6.2248 Y21.0531
G01 X6.2847 Y20.9989
G01 X6.3392 Y20.9386
G01 X6.3865 Y20.8748
G01 X6.4274 Y20.8067
G01 X6.4622 Y20.7333
G01 X6.4895 Y20.6568
G01 X6.5088 Y20.5797
G01 X6.5204 Y20.5012
G01 X6.5245 Y20.4200
G01 X6.5205 Y20.3394
G01 X6.5088 Y20.2604
G01 X6.4895 Y20.1833
G01 X6.4622 Y20.1068
G01 X6.4274 Y20.0334
G01 X6.3865 Y19.9653
G01 X6.3390 Y19.9011
G01 X6.2841 Y19.8406
G01 X6.2252 Y19.7873
G01 X6.1611 Y19.7397
G01 X6.0913 Y19.6979
G01 X6.0192 Y19.6638
G01 X5.9745 Y19.6478
G01 X5.9745 Y19.1654
G01 X6.1459 Y19.2113
G01 X6.3491 Y19.3060
G01 X6.5328 Y19.4347
G01 X6.6913 Y19.5932
G01 X6.8199 Y19.7769
G01 X6.9147 Y19.9801
G01 X6.9326 Y20.0461
G01 X6.9701 Y20.1078
G01 X6.9725 Y20.1109
G01 X6.9749 Y20.1131
G01 X6.9774 Y20.1146
G01 X7.0406 Y20.1453
G01 X7.0447 Y20.1468
G01 X7.0488 Y20.1472
G01 X7.1203 Y20.1388
G01 X7.1240 Y20.1380
G01 X7.1281 Y20.1360
G01 X7.1681 Y20.1089
G01 X15.1626 Y12.1147
G01 X15.2230 Y12.0511
G01 X15.2761 Y12.0139
G01 X15.3228 Y11.9759
G01 X15.3526 Y11.9603
G01 X15.3600 Y11.9558
G01 X15.3869 Y11.9371
G01 X15.4422 Y11.9133
G01 X15.4998 Y11.8835
G01 X15.5314 Y11.8744
G01 X15.5395 Y11.8715
G01 X15.5704 Y11.8583
G01 X15.6339 Y11.8451
G01 X15.6918 Y11.8285
G01 X15.7253 Y11.8259
G01 X15.7339 Y11.8247
G01 X15.7661 Y11.8181
G01 X15.8309 Y11.8179
G01 X15.8909 Y11.8134
G01 X15.9234 Y11.8175
G01 X15.9333 Y11.8181
G01 X59.0332 Y11.8181
G01 X59.1209 Y11.8159
G01 X59.1801 Y11.8265
G01 X59.2446 Y11.8332
G01 X59.2767 Y11.8433
G01 X59.2851 Y11.8453
G01 X59.3174 Y11.8511
G01 X59.3733 Y11.8734
G01 X59.4352 Y11.8930
G01 X59.4646 Y11.9093
G01 X59.4728 Y11.9132
G01 X59.5029 Y11.9252
G01 X59.5532 Y11.9583
G01 X59.6098 Y11.9899
G01 X59.6353 Y12.0118
G01 X59.6426 Y12.0172
G01 X59.6697 Y12.0351
G01 X59.7122 Y12.0777
G01 X59.7613 Y12.1200
G01 X59.7814 Y12.1460
G01 X59.7879 Y12.1533
G01 X74.9713 Y27.3367
G01 X75.0348 Y27.3971
G01 X75.0692 Y27.4465
G01 X75.1101 Y27.4969
G01 X75.1257 Y27.5267
G01 X75.1301 Y27.5341
G01 X75.1489 Y27.5610
G01 X75.1747 Y27.6206
G01 X75.2025 Y27.6739
G01 X75.2118 Y27.7063
G01 X75.2147 Y27.7143
G01 X75.2277 Y27.7446
G01 X75.2398 Y27.8035
G01 X75.2575 Y27.8659
G01 X75.2601 Y27.8995
G01 X75.2613 Y27.9081
G01 X75.2679 Y27.9402
G01 X75.2681 Y28.0051
G01 X75.2726 Y28.0651
G01 X75.2685 Y28.0975
G01 X75.2679 Y28.1074
G01 X75.2679 Y29.4565
G01 X75.2686 Y29.4608
G01 X75.2883 Y29.5278
G01 X75.2905 Y29.5325
G01 X75.2940 Y29.5366
G01 X75.3468 Y29.5824
G01 X75.3503 Y29.5848
G01 X75.3550 Y29.5865
G01 X75.4065 Y29.5977
G01 X75.4104 Y29.5981
G01 X81.1437 Y29.5980
G01 X81.2144 Y29.5779
G01 X81.3768 Y29.4775
G01 X81.5198 Y29.4220
G01 X81.5228 Y29.4201
G01 X81.5786 Y29.3772
G01 X81.5812 Y29.3746
G01 X81.5833 Y29.3716
G01 X81.6080 Y29.3033
G01 X81.6090 Y29.2976
G01 X81.6086 Y29.2930
G01 X81.5927 Y29.2242
G01 X81.5911 Y29.2201
G01 X81.5883 Y29.2163
G01 X81.5377 Y29.1669
G01 X81.5340 Y29.1641
G01 X81.5182 Y29.1569
G01 X81.3771 Y29.1022
G01 X81.2823 Y29.0435
G01 X81.6248 Y28.7010
G01 X81.6318 Y28.7042
G01 X81.6974 Y28.7277
G01 X81.7658 Y28.7448
G01 X81.8355 Y28.7551
G01 X81.9059 Y28.7586
G01 X81.9764 Y28.7551
G01 X82.0461 Y28.7448
G01 X82.1145 Y28.7277
G01 X82.1801 Y28.7042
G01 X82.1871 Y28.7010
G01 X82.5296 Y29.0435
G01 X82.4348 Y29.1022
G01 X82.2916 Y29.1578
G01 X82.2336 Y29.2020
G01 X82.2295 Y29.2064
G01 X82.2275 Y29.2105
G01 X82.2039 Y29.2762
G01 X82.2028 Y29.2811
G01 X82.2032 Y29.2865
G01 X82.2190 Y29.3547
G01 X82.2208 Y29.3595
G01 X82.2238 Y29.3636
G01 X82.2741 Y29.4126
G01 X82.2779 Y29.4155
G01 X82.2936 Y29.4227
G01 X82.4350 Y29.4775
G01 X82.5975 Y29.5779
G01 X82.6681 Y29.5980
G01 X83.7479 Y29.5980
G01 X83.7511 Y29.5974
G01 X83.8186 Y29.5781
G01 X83.9168 Y29.5175
G01 X84.0598 Y29.4620
G01 X84.0628 Y29.4601
G01 X84.1186 Y29.4172
G01 X84.1215 Y29.4143
G01 X84.1237 Y29.4108
G01 X84.1480 Y29.3433
G01 X84.1490 Y29.3376
G01 X84.1486 Y29.3330
G01 X84.1327 Y29.2642
G01 X84.1311 Y29.2601
G01 X84.1283 Y29.2563
G01 X84.0777 Y29.2069
G01 X84.0740 Y29.2041
G01 X84.0582 Y29.1969
G01 X83.9171 Y29.1422
G01 X83.8223 Y29.0835
G01 X84.1648 Y28.7410
G01 X84.1718 Y28.7442
G01 X84.2374 Y28.7677
G01 X84.3058 Y28.7848
G01 X84.3755 Y28.7951
G01 X84.4459 Y28.7986
G01 X84.5164 Y28.7951
G01 X84.5861 Y28.7848
G01 X84.6545 Y28.7677
G01 X84.7201 Y28.7442
G01 X84.7271 Y28.7410
G01 X85.0696 Y29.0835
G01 X84.9748 Y29.1422
G01 X84.8316 Y29.1978
G01 X84.8290 Y29.1994
G01 X84.7715 Y29.2439
G01 X84.7693 Y29.2468
G01 X84.7675 Y29.2505
G01 X84.7439 Y29.3162
G01 X84.7428 Y29.3215
G01 X84.7432 Y29.3265
G01 X84.7590 Y29.3949
G01 X84.7604 Y29.3987
G01 X84.7627 Y29.4023
G01 X84.8141 Y29.4526
G01 X84.8179 Y29.4555
G01 X84.8336 Y29.4627
G01 X84.9750 Y29.5175
G01 X85.1613 Y29.6328
G01 X85.3231 Y29.7804
G01 X85.4551 Y29.9552
G01 X85.5528 Y30.1513
G01 X85.6014 Y30.3221
G01 X85.6029 Y30.3254
G01 X85.6345 Y30.3791
G01 X85.6371 Y30.3825
G01 X87.6713 Y32.4167
G01 X87.7348 Y32.4771
G01 X87.7408 Y32.4851
G01 X87.7966 Y32.5301
G01 X87.8011 Y32.5328
G01 X87.8063 Y32.5341
G01 X87.8781 Y32.5416
G01 X87.8822 Y32.5411
G01 X87.8860 Y32.5396
G01 X87.9489 Y32.5081
G01 X87.9519 Y32.5061
G01 X87.9542 Y32.5038
G01 X87.9561 Y32.5012
G01 X87.9927 Y32.4390
G01 X87.9941 Y32.4343
G01 X87.9980 Y32.4030
G01 X87.9980 Y31.4558
G01 X87.9973 Y31.4524
G01 X87.9777 Y31.3854
G01 X87.9763 Y31.3820
G01 X87.8656 Y31.2235
G01 X87.7708 Y31.0202
G01 X87.7128 Y30.8035
G01 X87.6932 Y30.5801
G01 X87.7128 Y30.3566
G01 X87.7708 Y30.1399
G01 X87.8656 Y29.9366
G01 X87.9943 Y29.7529
G01 X88.1529 Y29.5943
G01 X88.3366 Y29.4656
G01 X88.5399 Y29.3708
G01 X88.7566 Y29.3128
G01 X88.9800 Y29.2932
G01 X89.2035 Y29.3128
G01 X89.4202 Y29.3708
G01 X89.6235 Y29.4656
G01 X89.8072 Y29.5943
G01 X89.9658 Y29.7529
G01 X90.0945 Y29.9366
G01 X90.1893 Y30.1399
G01 X90.2473 Y30.3566
G01 X90.2669 Y30.5800
G01 X90.2473 Y30.8035
G01 X90.1893 Y31.0202
G01 X90.0945 Y31.2235
G01 X89.9866 Y31.3778
G01 X89.9631 Y31.4468
G01 X89.9621 Y31.4524
G01 X89.9620 Y34.7520
G01 X89.9628 Y34.7564
G01 X89.9826 Y34.8240
G01 X89.9848 Y34.8285
G01 X89.9881 Y34.8322
G01 X90.0409 Y34.8780
G01 X90.0455 Y34.8809
G01 X90.0504 Y34.8823
G01 X90.1210 Y34.8924
G01 X90.1254 Y34.8922
G01 X90.1295 Y34.8909
G01 X90.1939 Y34.8615
G01 X90.1976 Y34.8591
G01 X90.2053 Y34.8519
G01 X93.0363 Y32.0209
G01 X93.0392 Y32.0172
G01 X93.0738 Y31.9536
G01 X93.0751 Y31.9489
G01 X93.0781 Y31.9214
G01 X93.0781 Y31.4576
G01 X93.0778 Y31.4541
G01 X93.0577 Y31.3854
G01 X93.0563 Y31.3820
G01 X92.9456 Y31.2235
G01 X92.8508 Y31.0202
G01 X92.7928 Y30.8035
G01 X92.7732 Y30.5801
G01 X92.7928 Y30.3566
G01 X92.8508 Y30.1399
G01 X92.9456 Y29.9366
G01 X93.0743 Y29.7529
G01 X93.2329 Y29.5943
G01 X93.4166 Y29.4656
G01 X93.6199 Y29.3708
G01 X93.8366 Y29.3128
G01 X94.0600 Y29.2932
G01 X94.2835 Y29.3128
G01 X94.5002 Y29.3708
G01 X94.7035 Y29.4656
G01 X94.8872 Y29.5943
G01 X95.0458 Y29.7529
G01 X95.1745 Y29.9366
G01 X95.2693 Y30.1399
G01 X95.3273 Y30.3566
G01 X95.3469 Y30.5800
G01 X95.3273 Y30.8035
G01 X95.2693 Y31.0202
G01 X95.1745 Y31.2235
G01 X95.0666 Y31.3778
G01 X95.0426 Y31.4486
G01 X95.0420 Y31.4576
G01 X95.0420 Y32.3732
G01 X95.0442 Y32.4609
G01 X95.0336 Y32.5201
G01 X95.0269 Y32.5846
G01 X95.0171 Y32.6158
G01 X95.0150 Y32.6243
G01 X95.0090 Y32.6574
G01 X94.9867 Y32.7133
G01 X94.9671 Y32.7752
G01 X94.9508 Y32.8046
G01 X94.9469 Y32.8128
G01 X94.9349 Y32.8429
G01 X94.8994 Y32.8972
G01 X94.8702 Y32.9498
G01 X94.8483 Y32.9753
G01 X94.8431 Y32.9822
G01 X94.8250 Y33.0097
G01 X94.7825 Y33.0522
G01 X94.7401 Y33.1013
G01 X94.7142 Y33.1214
G01 X94.7067 Y33.1279
G01 X88.2994 Y39.5353
G01 X88.2965 Y39.5392
G01 X88.2630 Y39.6005
G01 X88.2614 Y39.6045
G01 X88.2585 Y39.6229
G01 X88.2532 Y39.6835
G01 X88.1952 Y39.9002
G01 X88.1004 Y40.1035
G01 X87.9717 Y40.2872
G01 X87.8131 Y40.4458
G01 X87.7898 Y40.4621
G01 X87.7872 Y40.4643
G01 X87.7423 Y40.5203
G01 X87.7398 Y40.5247
G01 X87.7384 Y40.5300
G01 X87.7312 Y40.5995
G01 X87.7314 Y40.6050
G01 X87.7331 Y40.6098
G01 X87.7646 Y40.6721
G01 X87.7665 Y40.6751
G01 X87.7691 Y40.6778
G01 X87.7718 Y40.6797
G01 X87.8347 Y40.7165
G01 X87.8377 Y40.7173
G01 X87.8557 Y40.7206
G01 X87.8891 Y40.7242
G01 X88.0193 Y40.7727
G01 X88.1302 Y40.8558
G01 X88.2133 Y40.9667
G01 X88.2618 Y41.0969
G01 X88.2679 Y41.1532
G01 X88.2679 Y42.8469
G01 X88.2618 Y42.9032
G01 X88.2133 Y43.0334
G01 X88.1302 Y43.1443
G01 X88.0250 Y43.2231
G01 X88.0218 Y43.2262
G01 X87.9794 Y43.2828
G01 X87.9776 Y43.2856
G01 X87.9761 Y43.2902
G01 X87.9679 Y43.3359
G01 X87.9679 Y45.6607
G01 X87.9684 Y45.6651
G01 X87.9883 Y45.7330
G01 X87.9907 Y45.7381
G01 X87.9940 Y45.7418
G01 X88.0468 Y45.7875
G01 X88.0518 Y45.7906
G01 X88.0563 Y45.7919
G01 X88.1254 Y45.8018
G01 X88.1308 Y45.8018
G01 X88.1358 Y45.8003
G01 X88.1993 Y45.7713
G01 X88.2026 Y45.7694
G01 X88.2054 Y45.7669
G01 X88.2450 Y45.7057
G01 X88.2472 Y45.7010
G01 X88.2524 Y45.6736
G01 X88.2591 Y45.5967
G01 X88.3172 Y45.3801
G01 X88.4119 Y45.1769
G01 X88.4494 Y45.1233
G01 X88.7900 Y45.4639
G01 X88.7695 Y45.5072
G01 X88.7427 Y45.5820
G01 X88.7232 Y45.6600
G01 X88.7113 Y45.7398
G01 X88.7074 Y45.8200
G01 X88.7113 Y45.9003
G01 X88.7232 Y45.9801
G01 X88.7427 Y46.0581
G01 X88.7695 Y46.1329
G01 X88.7900 Y46.1762
G01 X88.4494 Y46.5168
G01 X88.4119 Y46.4632
G01 X88.3172 Y46.2600
G01 X88.2591 Y46.0434
G01 X88.2520 Y45.9641
G01 X88.2256 Y45.8964
G01 X88.2225 Y45.8914
G01 X88.2194 Y45.8885
G01 X88.1628 Y45.8475
G01 X88.1582 Y45.8451
G01 X88.1529 Y45.8440
G01 X88.0832 Y45.8401
G01 X88.0781 Y45.8406
G01 X88.0730 Y45.8425
G01 X88.0122 Y45.8770
G01 X88.0082 Y45.8800
G01 X88.0049 Y45.8845
G01 X87.9724 Y45.9463
G01 X87.9710 Y45.9499
G01 X87.9704 Y45.9531
G01 X87.9679 Y45.9794
G01 X87.9679 Y48.3473
G01 X87.9701 Y48.4350
G01 X87.9595 Y48.4942
G01 X87.9527 Y48.5587
G01 X87.9427 Y48.5909
G01 X87.9407 Y48.5992
G01 X87.9349 Y48.6316
G01 X87.9125 Y48.6875
G01 X87.8930 Y48.7493
G01 X87.8770 Y48.7780
G01 X87.8733 Y48.7858
G01 X87.8608 Y48.8170
G01 X87.8252 Y48.8713
G01 X87.7960 Y48.9239
G01 X87.7741 Y48.9494
G01 X87.7690 Y48.9564
G01 X87.7509 Y48.9838
G01 X87.7083 Y49.0263
G01 X87.6659 Y49.0754
G01 X87.6400 Y49.0955
G01 X87.6326 Y49.1020
G01 X77.5293 Y59.2054
G01 X77.4688 Y59.2690
G01 X77.4195 Y59.3033
G01 X77.3691 Y59.3442
G01 X77.3401 Y59.3593
G01 X77.3326 Y59.3638
G01 X77.3049 Y59.3830
G01 X77.2454 Y59.4088
G01 X77.1921 Y59.4366
G01 X77.1605 Y59.4457
G01 X77.1523 Y59.4486
G01 X77.1214 Y59.4618
G01 X77.0625 Y59.4739
G01 X77.0001 Y59.4916
G01 X76.9665 Y59.4942
G01 X76.9579 Y59.4954
G01 X76.9258 Y59.5020
G01 X76.8609 Y59.5022
G01 X76.8009 Y59.5067
G01 X76.7685 Y59.5026
G01 X76.7585 Y59.5020
G01 X41.2786 Y59.5020
G01 X41.1910 Y59.5042
G01 X41.1318 Y59.4936
G01 X41.0672 Y59.4869
G01 X41.0351 Y59.4768
G01 X41.0267 Y59.4748
G01 X40.9944 Y59.4690
G01 X40.9385 Y59.4467
G01 X40.8767 Y59.4271
G01 X40.8480 Y59.4111
G01 X40.8402 Y59.4074
G01 X40.8089 Y59.3949
G01 X40.7547 Y59.3594
G01 X40.7021 Y59.3302
G01 X40.6774 Y59.3090
G01 X40.6703 Y59.3035
G01 X40.6422 Y59.2850
G01 X40.5962 Y59.2393
G01 X40.5505 Y59.2001
G01 X40.5305 Y59.1742
G01 X40.5239 Y59.1667
G01 X32.9606 Y51.6034
G01 X32.8970 Y51.5430
G01 X32.8626 Y51.4936
G01 X32.8218 Y51.4432
G01 X32.8062 Y51.4134
G01 X32.8017 Y51.4060
G01 X32.7829 Y51.3790
G01 X32.7592 Y51.3238
G01 X32.7293 Y51.2662
G01 X32.7203 Y51.2346
G01 X32.7174 Y51.2265
G01 X32.7042 Y51.1955
G01 X32.6909 Y51.1320
G01 X32.6744 Y51.0742
G01 X32.6719 Y51.0414
G01 X32.6707 Y51.0329
G01 X32.6640 Y50.9999
G01 X32.6638 Y50.9350
G01 X32.6592 Y50.8750
G01 X32.6634 Y50.8426
G01 X32.6640 Y50.8327
G01 X32.6638 Y49.0959
G01 X32.6426 Y49.0233
G01 X32.6382 Y49.0164
G01 X32.6010 Y48.9633
G01 X32.5121 Y48.7727
G01 X32.4577 Y48.5696
G01 X32.4394 Y48.3601
G01 X32.4577 Y48.1505
G01 X32.5121 Y47.9474
G01 X32.6010 Y47.7568
G01 X32.7217 Y47.5845
G01 X32.8704 Y47.4358
G01 X33.0427 Y47.3152
G01 X33.2333 Y47.2263
G01 X33.4364 Y47.1718
G01 X33.6459 Y47.1535
G01 X33.8554 Y47.1718
G01 X34.0586 Y47.2263
G01 X34.2492 Y47.3152
G01 X34.4215 Y47.4358
G01 X34.5702 Y47.5845
G01 X34.6908 Y47.7568
G01 X34.7800 Y47.9481
G01 X34.7825 Y47.9544
G01 X34.7855 Y47.9588
G01 X34.7897 Y47.9621
G01 X34.8168 Y48.0066
G01 X34.8187 Y48.0092
G01 X34.8215 Y48.0117
G01 X34.8244 Y48.0134
G01 X34.8872 Y48.0440
G01 X34.8922 Y48.0456
G01 X34.8975 Y48.0457
G01 X34.9669 Y48.0374
G01 X34.9710 Y48.0364
G01 X34.9762 Y48.0336
G01 X35.0304 Y47.9888
G01 X35.0327 Y47.9866
G01 X35.0346 Y47.9839
G01 X35.0460 Y47.9591
G01 X35.0480 Y47.9567
G01 X35.0496 Y47.9540
G01 X35.0518 Y47.9481
G01 X35.1410 Y47.7568
G01 X35.1782 Y47.7037
G01 X35.1798 Y47.7010
G01 X35.2029 Y47.6328
G01 X35.2037 Y47.6292
G01 X35.2039 Y46.9428
G01 X35.2032 Y46.9393
G01 X35.1835 Y46.8723
G01 X35.1814 Y46.8676
G01 X35.1779 Y46.8635
G01 X35.1228 Y46.8160
G01 X35.1199 Y46.8146
G01 X35.1169 Y46.8136
G01 X35.0654 Y46.8024
G01 X35.0614 Y46.8020
G01 X27.4396 Y46.8020
G01 X27.4348 Y46.8028
G01 X27.3678 Y46.8224
G01 X27.3639 Y46.8241
G01 X27.3606 Y46.8265
G01 X27.3124 Y46.8819
G01 X27.3101 Y46.8859
G01 X27.3033 Y46.9034
G01 X27.2202 Y47.0143
G01 X27.1093 Y47.0974
G01 X26.9791 Y47.1459
G01 X26.9228 Y47.1520
G01 X25.1291 Y47.1520
G01 X25.0727 Y47.1459
G01 X24.9426 Y47.0974
G01 X24.8316 Y47.0143
G01 X24.7486 Y46.9034
G01 X24.6998 Y46.7728
G01 X24.6980 Y46.7699
G01 X24.6558 Y46.7136
G01 X24.6522 Y46.7101
G01 X24.6482 Y46.7078
G01 X24.5823 Y46.6832
G01 X24.5790 Y46.6823
G01 X24.5753 Y46.6821
G01 X24.5718 Y46.6825
G01 X24.5031 Y46.6975
G01 X24.4996 Y46.6987
G01 X24.4968 Y46.7003
G01 X24.4665 Y46.7232
G01 X24.3454 Y46.8443
G01 X24.1544 Y46.9780
G01 X23.9432 Y47.0765
G01 X23.7181 Y47.1368
G01 X23.4859 Y47.1571
G01 X23.2538 Y47.1368
G01 X23.0286 Y47.0765
G01 X22.8174 Y46.9780
G01 X22.6265 Y46.8443
G01 X22.4617 Y46.6795
G01 X22.3324 Y46.4948
G01 X22.3295 Y46.4916
G01 X22.2742 Y46.4473
G01 X22.2694 Y46.4446
G01 X22.2645 Y46.4434
G01 X22.1927 Y46.4361
G01 X22.1886 Y46.4366
G01 X22.1847 Y46.4381
G01 X22.1221 Y46.4698
G01 X22.1174 Y46.4733
G01 X22.0988 Y46.4948
G01 X21.9698 Y46.6792
G01 X21.8050 Y46.8439
G01 X21.6142 Y46.9775
G01 X21.4030 Y47.0760
G01 X21.2145 Y47.1265
G01 X21.2145 Y46.6453
G01 X21.2783 Y46.6225
G01 X21.3553 Y46.5861
G01 X21.4284 Y46.5422
G01 X21.4962 Y46.4920
G01 X21.5607 Y46.4335
G01 X21.6173 Y46.3710
G01 X21.6676 Y46.3033
G01 X21.7123 Y46.2287
G01 X21.7484 Y46.1524
G01 X21.7771 Y46.0721
G01 X21.7978 Y45.9895
G01 X21.8102 Y45.9061
G01 X21.8145 Y45.8200
G01 X21.8102 Y45.7340
G01 X21.7978 Y45.6506
G01 X21.7771 Y45.5680
G01 X21.7484 Y45.4877
G01 X21.7123 Y45.4114
G01 X21.6676 Y45.3368
G01 X21.6173 Y45.2691
G01 X21.5607 Y45.2066
G01 X21.4962 Y45.1481
G01 X21.4284 Y45.0979
G01 X21.3553 Y45.0540
G01 X21.2783 Y45.0176
G01 X21.2145 Y44.9948
G01 X21.2145 Y44.5136
G01 X21.4030 Y44.5641
G01 X21.6142 Y44.6626
G01 X21.8050 Y44.7962
G01 X21.9698 Y44.9609
G01 X22.1001 Y45.1469
G01 X22.1025 Y45.1491
G01 X22.1574 Y45.1930
G01 X22.1601 Y45.1948
G01 X22.1635 Y45.1961
G01 X22.1667 Y45.1967
G01 X22.2362 Y45.2039
G01 X22.2417 Y45.2037
G01 X22.2465 Y45.2020
G01 X22.3088 Y45.1705
G01 X22.3129 Y45.1677
G01 X22.3324 Y45.1453
G01 X22.4617 Y44.9606
G01 X22.4663 Y44.9549
G01 X22.4687 Y44.9499
G01 X22.4991 Y44.8941
G01 X22.5007 Y44.8898
G01 X22.5040 Y44.8593
G01 X22.5039 Y41.6727
G01 X22.5032 Y41.6689
G01 X22.4835 Y41.6018
G01 X22.4814 Y41.5971
G01 X22.4779 Y41.5930
G01 X22.4251 Y41.5473
G01 X22.4209 Y41.5446
G01 X22.4161 Y41.5430
G01 X22.3464 Y41.5330
G01 X22.3432 Y41.5328
G01 X22.3397 Y41.5333
G01 X22.3361 Y41.5345
G01 X22.2725 Y41.5635
G01 X22.2688 Y41.5658
G01 X22.2606 Y41.5733
G01 X22.1081 Y41.7258
G01 X21.9243 Y41.8545
G01 X21.7211 Y41.9493
G01 X21.5044 Y42.0073
G01 X21.2809 Y42.0269
G01 X21.0575 Y42.0073
G01 X20.8408 Y41.9493
G01 X20.6375 Y41.8545
G01 X20.4538 Y41.7258
G01 X20.2951 Y41.5672
G01 X20.1665 Y41.3835
G01 X20.0717 Y41.1802
G01 X20.0136 Y40.9635
G01 X19.9941 Y40.7401
G01 X20.0136 Y40.5166
G01 X20.0717 Y40.2999
G01 X20.1665 Y40.0966
G01 X20.2951 Y39.9129
G01 X20.4538 Y39.7543
G01 X20.6375 Y39.6256
G01 X20.6940 Y39.5992
G01 X20.6968 Y39.5977
G01 X20.7512 Y39.5499
G01 X20.7543 Y39.5462
G01 X20.7564 Y39.5417
G01 X20.7756 Y39.4742
G01 X20.7763 Y39.4708
G01 X20.7763 Y39.4677
G01 X20.7757 Y39.4641
G01 X20.7552 Y39.3964
G01 X20.7532 Y39.3922
G01 X20.7501 Y39.3885
G01 X20.6967 Y39.3424
G01 X20.6375 Y39.3145
G01 X20.4538 Y39.1858
G01 X20.2951 Y39.0272
G01 X20.1665 Y38.8435
G01 X20.0717 Y38.6402
G01 X20.0136 Y38.4235
G01 X19.9941 Y38.2001
G01 X20.0136 Y37.9766
G01 X20.0717 Y37.7599
G01 X20.1665 Y37.5566
G01 X20.2951 Y37.3729
G01 X20.4538 Y37.2143
G01 X20.6375 Y37.0856
G01 X20.6940 Y37.0592
G01 X20.6968 Y37.0577
G01 X20.7512 Y37.0099
G01 X20.7543 Y37.0062
G01 X20.7562 Y37.0021
G01 X20.7758 Y36.9336
G01 X20.7763 Y36.9286
G01 X20.7755 Y36.9237
G01 X20.7552 Y36.8564
G01 X20.7532 Y36.8522
G01 X20.7501 Y36.8485
G01 X20.6966 Y36.8023
G01 X20.6375 Y36.7745
G01 X20.4828 Y36.6664
G01 X20.4142 Y36.6431
G01 X20.4086 Y36.6421
G01 X19.5286 Y36.6421
G01 X19.5252 Y36.6428
G01 X19.4575 Y36.6626
G01 X19.4538 Y36.6643
G01 X19.4503 Y36.6671
G01 X19.4036 Y36.7209
G01 X19.4014 Y36.7240
G01 X19.3995 Y36.7291
G01 X19.3880 Y36.7823
G01 X19.3879 Y44.8597
G01 X19.3886 Y44.8645
G01 X19.4083 Y44.9316
G01 X19.4102 Y44.9359
G01 X19.4302 Y44.9606
G01 X19.5610 Y45.1472
G01 X19.6176 Y45.1928
G01 X19.6224 Y45.1955
G01 X19.6273 Y45.1967
G01 X19.6968 Y45.2039
G01 X19.7000 Y45.2040
G01 X19.7037 Y45.2033
G01 X19.7071 Y45.2020
G01 X19.7695 Y45.1705
G01 X19.7720 Y45.1689
G01 X19.7745 Y45.1668
G01 X19.7930 Y45.1453
G01 X19.9221 Y44.9609
G01 X20.0868 Y44.7962
G01 X20.2777 Y44.6626
G01 X20.4888 Y44.5641
G01 X20.6774 Y44.5136
G01 X20.6774 Y44.9948
G01 X20.6135 Y45.0176
G01 X20.5365 Y45.0540
G01 X20.4634 Y45.0979
G01 X20.3956 Y45.1481
G01 X20.3311 Y45.2066
G01 X20.2745 Y45.2691
G01 X20.2243 Y45.3368
G01 X20.1795 Y45.4114
G01 X20.1435 Y45.4877
G01 X20.1148 Y45.5680
G01 X20.0941 Y45.6506
G01 X20.0817 Y45.7340
G01 X20.0774 Y45.8200
G01 X20.0817 Y45.9061
G01 X20.0941 Y45.9895
G01 X20.1148 Y46.0721
G01 X20.1435 Y46.1524
G01 X20.1795 Y46.2287
G01 X20.2243 Y46.3033
G01 X20.2745 Y46.3710
G01 X20.3311 Y46.4335
G01 X20.3956 Y46.4920
G01 X20.4634 Y46.5422
G01 X20.5365 Y46.5861
G01 X20.6135 Y46.6225
G01 X20.6774 Y46.6453
G01 X20.6774 Y47.1265
G01 X20.4888 Y47.0760
G01 X20.2777 Y46.9775
G01 X20.0868 Y46.8439
G01 X19.9221 Y46.6792
G01 X19.7930 Y46.4948
G01 X19.7901 Y46.4916
G01 X19.7348 Y46.4473
G01 X19.7300 Y46.4446
G01 X19.7251 Y46.4434
G01 X19.6543 Y46.4361
G01 X19.6497 Y46.4365
G01 X19.6458 Y46.4379
G01 X19.5827 Y46.4698
G01 X19.5780 Y46.4733
G01 X19.5595 Y46.4948
G01 X19.4302 Y46.6795
G01 X19.2654 Y46.8443
G01 X19.0744 Y46.9780
G01 X18.8632 Y47.0765
G01 X18.6381 Y47.1368
G01 X18.4059 Y47.1571
G01 X18.1738 Y47.1368
G01 X17.9486 Y47.0765
G01 X17.7374 Y46.9780
G01 X17.5465 Y46.8443
G01 X17.3817 Y46.6795
G01 X17.2527 Y46.4953
G01 X17.2501 Y46.4923
G01 X17.1945 Y46.4478
G01 X17.1902 Y46.4452
G01 X17.1848 Y46.4438
G01 X17.1144 Y46.4365
G01 X17.1098 Y46.4369
G01 X17.1055 Y46.4383
G01 X17.0424 Y46.4702
G01 X17.0377 Y46.4738
G01 X17.0192 Y46.4953
G01 X16.8902 Y46.6795
G01 X16.7254 Y46.8443
G01 X16.5344 Y46.9780
G01 X16.3232 Y47.0765
G01 X16.0981 Y47.1368
G01 X15.8659 Y47.1571
G01 X15.6338 Y47.1368
G01 X15.4086 Y47.0765
G01 X15.1974 Y46.9780
G01 X15.0065 Y46.8443
G01 X14.8417 Y46.6795
G01 X14.7080 Y46.4886
G01 X14.6095 Y46.2773
G01 X14.5492 Y46.0522
G01 X14.5379 Y45.9255
G01 X14.5117 Y45.8581
G01 X14.5087 Y45.8530
G01 X14.4971 Y45.8400
G01 X12.9756 Y44.3184
G01 X12.9120 Y44.2580
G01 X12.8776 Y44.2086
G01 X12.8368 Y44.1582
G01 X12.8212 Y44.1284
G01 X12.8167 Y44.1210
G01 X12.7979 Y44.0940
G01 X12.7742 Y44.0388
G01 X12.7443 Y43.9812
G01 X12.7353 Y43.9496
G01 X12.7324 Y43.9415
G01 X12.7192 Y43.9105
G01 X12.7059 Y43.8470
G01 X12.6894 Y43.7892
G01 X12.6869 Y43.7564
G01 X12.6857 Y43.7479
G01 X12.6790 Y43.7149
G01 X12.6788 Y43.6500
G01 X12.6742 Y43.5900
G01 X12.6784 Y43.5576
G01 X12.6790 Y43.5477
G01 X12.6790 Y41.8636
G01 X12.6782 Y41.8593
G01 X12.6585 Y41.7923
G01 X12.6562 Y41.7872
G01 X12.6529 Y41.7835
G01 X12.6001 Y41.7377
G01 X12.5974 Y41.7358
G01 X12.5945 Y41.7344
G01 X12.5404 Y41.7224
G01 X12.5364 Y41.7220
G01 X11.4840 Y41.7221
G01 X11.4807 Y41.7227
G01 X11.4133 Y41.7420
G01 X11.3150 Y41.8026
G01 X11.1712 Y41.8585
G01 X11.1136 Y41.9026
G01 X11.1101 Y41.9062
G01 X11.1075 Y41.9110
G01 X11.0837 Y41.9772
G01 X11.0828 Y41.9821
G01 X11.0832 Y41.9871
G01 X11.0990 Y42.0554
G01 X11.1000 Y42.0584
G01 X11.1015 Y42.0611
G01 X11.1041 Y42.0644
G01 X11.1541 Y42.1132
G01 X11.1579 Y42.1160
G01 X11.1736 Y42.1232
G01 X11.3148 Y42.1779
G01 X11.4096 Y42.2366
G01 X11.0671 Y42.5791
G01 X11.0601 Y42.5759
G01 X10.9945 Y42.5524
G01 X10.9261 Y42.5353
G01 X10.8564 Y42.5250
G01 X10.7859 Y42.5215
G01 X10.7155 Y42.5250
G01 X10.6458 Y42.5353
G01 X10.5774 Y42.5524
G01 X10.5118 Y42.5759
G01 X10.5048 Y42.5791
G01 X10.1623 Y42.2366
G01 X10.2570 Y42.1779
G01 X10.4002 Y42.1223
G01 X10.4028 Y42.1207
G01 X10.4603 Y42.0762
G01 X10.4626 Y42.0733
G01 X10.4644 Y42.0696
G01 X10.4880 Y42.0039
G01 X10.4890 Y41.9990
G01 X10.4886 Y41.9936
G01 X10.4728 Y41.9252
G01 X10.4715 Y41.9214
G01 X10.4699 Y41.9188
G01 X10.4677 Y41.9162
G01 X10.4177 Y41.8675
G01 X10.4132 Y41.8642
G01 X10.3982 Y41.8574
G01 X10.2568 Y41.8026
G01 X10.1586 Y41.7420
G01 X10.0911 Y41.7227
G01 X10.0879 Y41.7221
G01 X8.9440 Y41.7221
G01 X8.9407 Y41.7227
G01 X8.8733 Y41.7420
G01 X8.7750 Y41.8026
G01 X8.6312 Y41.8585
G01 X8.5736 Y41.9026
G01 X8.5701 Y41.9062
G01 X8.5675 Y41.9110
G01 X8.5437 Y41.9772
G01 X8.5428 Y41.9821
G01 X8.5432 Y41.9871
G01 X8.5590 Y42.0554
G01 X8.5600 Y42.0584
G01 X8.5615 Y42.0611
G01 X8.5641 Y42.0644
G01 X8.6141 Y42.1132
G01 X8.6179 Y42.1160
G01 X8.6336 Y42.1232
G01 X8.7748 Y42.1779
G01 X8.8696 Y42.2366
G01 X8.5271 Y42.5791
G01 X8.5201 Y42.5759
G01 X8.4545 Y42.5524
G01 X8.3861 Y42.5353
G01 X8.3164 Y42.5250
G01 X8.2459 Y42.5215
G01 X8.1755 Y42.5250
G01 X8.1058 Y42.5353
G01 X8.0374 Y42.5524
G01 X7.9718 Y42.5759
G01 X7.9648 Y42.5791
G01 X7.6223 Y42.2366
G01 X7.7170 Y42.1779
G01 X7.8602 Y42.1223
G01 X7.8628 Y42.1207
G01 X7.9203 Y42.0762
G01 X7.9226 Y42.0733
G01 X7.9244 Y42.0696
G01 X7.9480 Y42.0039
G01 X7.9490 Y41.9986
G01 X7.9486 Y41.9936
G01 X7.9328 Y41.9252
G01 X7.9317 Y41.9218
G01 X7.9296 Y41.9184
G01 X7.8777 Y41.8675
G01 X7.8740 Y41.8646
G01 X7.8582 Y41.8574
G01 X7.7168 Y41.8026
G01 X7.5306 Y41.6873
G01 X7.3687 Y41.5397
G01 X7.2367 Y41.3649
G01 X7.1391 Y41.1689
G01 X7.0904 Y40.9980
G01 X7.0889 Y40.9947
G01 X7.0573 Y40.9410
G01 X7.0554 Y40.9383
G01 X5.0206 Y38.9034
G01 X4.9570 Y38.8430
G01 X4.9226 Y38.7936
G01 X4.8818 Y38.7432
G01 X4.8662 Y38.7134
G01 X4.8617 Y38.7060
G01 X4.8429 Y38.6790
G01 X4.8192 Y38.6238
G01 X4.7893 Y38.5662
G01 X4.7803 Y38.5346
G01 X4.7774 Y38.5265
G01 X4.7642 Y38.4955
G01 X4.7509 Y38.4320
G01 X4.7344 Y38.3742
G01 X4.7319 Y38.3414
G01 X4.7307 Y38.3329
G01 X4.7240 Y38.2999
G01 X4.7238 Y38.2350
G01 X4.7192 Y38.1750
G01 X4.7234 Y38.1426
G01 X4.7240 Y38.1327
G01 X4.7240 Y22.9728
G01 X4.7218 Y22.8851
G01 X4.7324 Y22.8259
G01 X4.7391 Y22.7614
G01 X4.7491 Y22.7293
G01 X4.7512 Y22.7209
G01 X4.7570 Y22.6885
G01 X4.7793 Y22.6327
G01 X4.7989 Y22.5708
G01 X4.8148 Y22.5421
G01 X4.8186 Y22.5343
G01 X4.8311 Y22.5031
G01 X4.8642 Y22.4528
G01 X4.8958 Y22.3962
G01 X4.9177 Y22.3706
G01 X4.9229 Y22.3637
G01 X4.9410 Y22.3363
G01 X4.9835 Y22.2938
G01 X5.0259 Y22.2447
G01 X5.0518 Y22.2246
G01 X5.0592 Y22.2181
G01 X5.3937 Y21.8836
G01 X5.3962 Y21.8800
G01 X5.4299 Y21.8182
G01 X5.4315 Y21.8139
G01 X5.4320 Y21.8094
G01 X5.4269 Y21.7388
G01 X5.4258 Y21.7335
G01 X5.4233 Y21.7290
G01 X5.3814 Y21.6731
G01 X5.3779 Y21.6695
G01 X5.3747 Y21.6675
G01 X5.3306 Y21.6462
G01 X5.2660 Y21.6288
G01 X5.0628 Y21.5341
G01 X4.8791 Y21.4054
G01 X4.7205 Y21.2469
G01 X4.5919 Y21.0632
G01 X4.4972 Y20.8600
G01 X4.4512 Y20.6886
G00 Z2.0000
G00 X5.1871 Y22.9591
G01 F60.00
G01 Z-0.1049
G01 F120.00
G01 X5.1896 Y22.9092
G01 X5.1971 Y22.8589
G01 X5.2094 Y22.8095
G01 X5.2266 Y22.7615
G01 X5.2484 Y22.7155
G01 X5.2745 Y22.6718
G01 X5.3049 Y22.6310
G01 X5.3391 Y22.5932
G01 X15.4991 Y12.4332
G01 X15.5368 Y12.3990
G01 X15.5770 Y12.3692
G01 X15.6214 Y12.3425
G01 X15.6674 Y12.3207
G01 X15.7145 Y12.3039
G01 X15.7647 Y12.2912
G01 X15.8150 Y12.2838
G01 X15.8659 Y12.2812
G01 X59.0459 Y12.2812
G01 X59.0977 Y12.2839
G01 X59.1471 Y12.2912
G01 X59.1965 Y12.3036
G01 X59.2445 Y12.3207
G01 X59.2897 Y12.3421
G01 X59.3349 Y12.3692
G01 X59.3750 Y12.3990
G01 X59.4128 Y12.4332
G01 X74.6528 Y27.6732
G01 X74.6864 Y27.7102
G01 X74.7178 Y27.7526
G01 X74.7435 Y27.7955
G01 X74.7652 Y27.8415
G01 X74.7824 Y27.8895
G01 X74.7946 Y27.9379
G01 X74.8023 Y27.9901
G01 X74.8047 Y28.0400
G01 X74.8047 Y30.0612
G01 X81.3713 Y30.0612
G01 X81.3982 Y30.0316
G01 X81.4498 Y29.9849
G01 X81.5064 Y29.9428
G01 X81.5672 Y29.9063
G01 X81.6305 Y29.8764
G01 X81.6974 Y29.8524
G01 X81.7658 Y29.8353
G01 X81.8355 Y29.8250
G01 X81.9059 Y29.8215
G01 X81.9764 Y29.8250
G01 X82.0461 Y29.8353
G01 X82.1145 Y29.8524
G01 X82.1813 Y29.8764
G01 X82.2446 Y29.9063
G01 X82.3055 Y29.9428
G01 X82.3621 Y29.9849
G01 X82.4137 Y30.0316
G01 X82.4406 Y30.0612
G01 X83.9496 Y30.0612
G01 X83.9901 Y30.0246
G01 X84.0460 Y29.9831
G01 X84.1072 Y29.9463
G01 X84.1718 Y29.9159
G01 X84.2374 Y29.8924
G01 X84.3049 Y29.8755
G01 X84.3755 Y29.8650
G01 X84.4468 Y29.8615
G01 X84.5164 Y29.8650
G01 X84.5852 Y29.8752
G01 X84.6549 Y29.8926
G01 X84.7217 Y29.9166
G01 X84.7846 Y29.9463
G01 X84.8444 Y29.9821
G01 X84.9017 Y30.0246
G01 X84.9543 Y30.0723
G01 X85.0014 Y30.1242
G01 X85.0434 Y30.1809
G01 X85.0796 Y30.2414
G01 X85.1098 Y30.3051
G01 X85.1336 Y30.3715
G01 X85.1507 Y30.4399
G01 X85.1610 Y30.5096
G01 X85.1637 Y30.5641
G01 X87.3528 Y32.7532
G01 X87.3870 Y32.7910
G01 X87.4170 Y32.8315
G01 X87.4435 Y32.8755
G01 X87.4656 Y32.9224
G01 X87.4824 Y32.9695
G01 X87.4946 Y33.0179
G01 X87.5022 Y33.0692
G01 X87.5047 Y33.1200
G01 X87.5047 Y33.7469
G01 X87.5647 Y33.8012
G01 X87.6192 Y33.8615
G01 X87.6665 Y33.9253
G01 X87.7074 Y33.9934
G01 X87.7422 Y34.0668
G01 X87.7695 Y34.1433
G01 X87.7888 Y34.2204
G01 X87.8004 Y34.2989
G01 X87.8045 Y34.3800
G01 X87.8004 Y34.4612
G01 X87.7888 Y34.5397
G01 X87.7695 Y34.6168
G01 X87.7422 Y34.6933
G01 X87.7074 Y34.7667
G01 X87.6665 Y34.8348
G01 X87.6192 Y34.8986
G01 X87.5647 Y34.9589
G01 X87.5045 Y35.0134
G01 X87.4407 Y35.0607
G01 X87.3726 Y35.1015
G01 X87.2992 Y35.1363
G01 X87.2227 Y35.1636
G01 X87.1456 Y35.1829
G01 X87.0662 Y35.1947
G01 X86.9850 Y35.1986
G01 X86.9057 Y35.1947
G01 X86.8271 Y35.1830
G01 X86.7484 Y35.1634
G01 X86.6718 Y35.1359
G01 X86.6001 Y35.1020
G01 X86.5319 Y35.0611
G01 X86.4663 Y35.0125
G01 X86.4071 Y34.9589
G01 X86.3526 Y34.8986
G01 X86.3053 Y34.8348
G01 X86.2645 Y34.7667
G01 X86.2301 Y34.6941
G01 X86.2026 Y34.6176
G01 X86.1831 Y34.5397
G01 X86.1713 Y34.4603
G01 X86.1674 Y34.3800
G01 X86.1713 Y34.2998
G01 X86.1833 Y34.2195
G01 X86.2029 Y34.1416
G01 X86.2297 Y34.0668
G01 X86.2636 Y33.9950
G01 X86.3053 Y33.9253
G01 X86.3532 Y33.8608
G01 X86.4071 Y33.8012
G01 X86.4671 Y33.7469
G01 X86.4671 Y33.3349
G01 X84.4300 Y31.2978
G01 X84.3755 Y31.2951
G01 X84.3058 Y31.2848
G01 X84.2374 Y31.2677
G01 X84.1709 Y31.2439
G01 X84.1072 Y31.2138
G01 X84.0467 Y31.1775
G01 X83.9901 Y31.1355
G01 X83.9496 Y31.0989
G01 X82.3573 Y31.0989
G01 X82.3051 Y31.1375
G01 X82.2446 Y31.1738
G01 X82.1809 Y31.2039
G01 X82.1154 Y31.2274
G01 X82.0452 Y31.2449
G01 X81.9764 Y31.2551
G01 X81.9059 Y31.2586
G01 X81.8355 Y31.2551
G01 X81.7666 Y31.2449
G01 X81.6965 Y31.2274
G01 X81.6309 Y31.2039
G01 X81.5672 Y31.1738
G01 X81.5067 Y31.1375
G01 X81.4546 Y31.0989
G01 X64.1259 Y31.0989
G01 X64.0750 Y31.0963
G01 X64.0256 Y31.0890
G01 X63.9745 Y31.0762
G01 X63.9274 Y31.0594
G01 X63.8822 Y31.0380
G01 X63.8385 Y31.0119
G01 X63.7968 Y30.9811
G01 X63.7591 Y30.9469
G01 X56.2910 Y23.4789
G01 X51.6408 Y23.4789
G01 X49.6037 Y25.5160
G01 X49.6010 Y25.5705
G01 X49.5907 Y25.6402
G01 X49.5736 Y25.7086
G01 X49.5498 Y25.7750
G01 X49.5196 Y25.8387
G01 X49.4834 Y25.8992
G01 X49.4414 Y25.9559
G01 X49.4047 Y25.9964
G01 X49.4047 Y26.5652
G01 X50.0651 Y27.2255
G01 X50.1459 Y27.2215
G01 X50.2262 Y27.2254
G01 X50.3056 Y27.2372
G01 X50.3835 Y27.2567
G01 X50.4592 Y27.2838
G01 X50.5318 Y27.3181
G01 X50.6007 Y27.3594
G01 X50.6652 Y27.4073
G01 X50.7254 Y27.4619
G01 X50.7787 Y27.5208
G01 X50.8265 Y27.5853
G01 X50.8682 Y27.6550
G01 X50.9022 Y27.7268
G01 X50.9291 Y27.8020
G01 X50.9488 Y27.8804
G01 X50.9605 Y27.9598
G01 X50.9645 Y28.0400
G01 X50.9605 Y28.1203
G01 X50.9488 Y28.1997
G01 X50.9292 Y28.2776
G01 X50.9022 Y28.3533
G01 X50.8674 Y28.4267
G01 X50.8265 Y28.4948
G01 X50.7787 Y28.5593
G01 X50.7247 Y28.6189
G01 X50.6645 Y28.6734
G01 X50.6007 Y28.7207
G01 X50.5310 Y28.7624
G01 X50.4592 Y28.7963
G01 X50.3844 Y28.8231
G01 X50.3065 Y28.8427
G01 X50.2262 Y28.8547
G01 X50.1450 Y28.8586
G01 X50.0657 Y28.8547
G01 X49.9871 Y28.8430
G01 X49.9084 Y28.8234
G01 X49.8327 Y28.7963
G01 X49.7593 Y28.7615
G01 X49.6912 Y28.7207
G01 X49.6274 Y28.6734
G01 X49.5674 Y28.6192
G01 X49.5132 Y28.5593
G01 X49.4648 Y28.4940
G01 X49.4236 Y28.4251
G01 X49.3897 Y28.3533
G01 X49.3629 Y28.2785
G01 X49.3431 Y28.1997
G01 X49.3313 Y28.1203
G01 X49.3274 Y28.0400
G01 X49.3314 Y27.9592
G01 X48.5191 Y27.1469
G01 X48.4849 Y27.1091
G01 X48.4548 Y27.0686
G01 X48.4284 Y27.0246
G01 X48.4063 Y26.9777
G01 X48.3894 Y26.9306
G01 X48.3773 Y26.8822
G01 X48.3696 Y26.8305
G01 X48.3671 Y26.7800
G01 X48.3671 Y26.0189
G01 X46.8422 Y26.0189
G01 X46.8017 Y26.0555
G01 X46.7451 Y26.0975
G01 X46.6846 Y26.1338
G01 X46.6209 Y26.1639
G01 X46.5545 Y26.1877
G01 X46.4861 Y26.2048
G01 X46.4164 Y26.2151
G01 X46.3459 Y26.2186
G01 X46.2755 Y26.2151
G01 X46.2058 Y26.2048
G01 X46.1374 Y26.1877
G01 X46.0709 Y26.1639
G01 X46.0072 Y26.1338
G01 X45.9467 Y26.0975
G01 X45.8901 Y26.0555
G01 X45.8378 Y26.0081
G01 X45.7905 Y25.9559
G01 X45.7480 Y25.8985
G01 X45.7122 Y25.8387
G01 X45.6824 Y25.7759
G01 X45.6586 Y25.7095
G01 X45.6412 Y25.6402
G01 X45.6308 Y25.5705
G01 X45.6274 Y25.5000
G01 X45.6308 Y25.4296
G01 X45.6412 Y25.3599
G01 X45.6586 Y25.2906
G01 X45.6824 Y25.2242
G01 X45.7122 Y25.1614
G01 X45.7480 Y25.1016
G01 X45.7905 Y25.0442
G01 X45.8378 Y24.9920
G01 X45.8901 Y24.9446
G01 X45.9467 Y24.9026
G01 X46.0072 Y24.8663
G01 X46.0701 Y24.8366
G01 X46.1374 Y24.8124
G01 X46.2058 Y24.7953
G01 X46.2746 Y24.7851
G01 X46.3464 Y24.7815
G01 X46.4164 Y24.7850
G01 X46.4861 Y24.7953
G01 X46.5545 Y24.8124
G01 X46.6209 Y24.8362
G01 X46.6846 Y24.8663
G01 X46.7451 Y24.9026
G01 X46.8017 Y24.9446
G01 X46.8422 Y24.9812
G01 X48.3896 Y24.9812
G01 X48.4301 Y24.9446
G01 X48.4867 Y24.9026
G01 X48.5472 Y24.8663
G01 X48.6109 Y24.8362
G01 X48.6774 Y24.8124
G01 X48.7458 Y24.7953
G01 X48.8155 Y24.7850
G01 X48.8700 Y24.7823
G01 X51.0594 Y22.5929
G01 X51.0975 Y22.5585
G01 X51.1377 Y22.5287
G01 X51.1806 Y22.5030
G01 X51.2274 Y22.4807
G01 X51.2749 Y22.4637
G01 X51.3256 Y22.4511
G01 X51.3750 Y22.4438
G01 X51.4259 Y22.4412
G01 X56.5059 Y22.4412
G01 X56.5577 Y22.4439
G01 X56.6071 Y22.4512
G01 X56.6565 Y22.4636
G01 X56.7045 Y22.4807
G01 X56.7497 Y22.5021
G01 X56.7949 Y22.5292
G01 X56.8350 Y22.5590
G01 X56.8728 Y22.5932
G01 X64.3408 Y30.0612
G01 X73.7671 Y30.0612
G01 X73.7671 Y28.2549
G01 X58.8310 Y13.3189
G01 X16.0808 Y13.3189
G01 X6.2247 Y23.1749
G01 X6.2247 Y37.9852
G01 X8.2618 Y40.0223
G01 X8.3164 Y40.0250
G01 X8.3861 Y40.0353
G01 X8.4545 Y40.0524
G01 X8.5209 Y40.0762
G01 X8.5846 Y40.1063
G01 X8.6451 Y40.1426
G01 X8.7017 Y40.1846
G01 X8.7422 Y40.2212
G01 X10.2896 Y40.2212
G01 X10.3301 Y40.1846
G01 X10.3867 Y40.1426
G01 X10.4472 Y40.1063
G01 X10.5109 Y40.0762
G01 X10.5774 Y40.0524
G01 X10.6458 Y40.0353
G01 X10.7155 Y40.0250
G01 X10.7859 Y40.0215
G01 X10.8564 Y40.0250
G01 X10.9261 Y40.0353
G01 X10.9945 Y40.0524
G01 X11.0609 Y40.0762
G01 X11.1246 Y40.1063
G01 X11.1851 Y40.1426
G01 X11.2417 Y40.1846
G01 X11.2822 Y40.2212
G01 X13.0278 Y40.2212
G01 X13.0821 Y40.1612
G01 X13.1417 Y40.1073
G01 X13.2062 Y40.0594
G01 X13.2759 Y40.0177
G01 X13.3477 Y39.9838
G01 X13.4224 Y39.9570
G01 X13.5003 Y39.9374
G01 X13.5807 Y39.9254
G01 X13.6609 Y39.9215
G01 X13.7412 Y39.9254
G01 X13.8206 Y39.9372
G01 X13.8985 Y39.9567
G01 X13.9742 Y39.9838
G01 X14.0468 Y40.0181
G01 X14.1157 Y40.0594
G01 X14.1802 Y40.1073
G01 X14.2391 Y40.1606
G01 X14.2937 Y40.2208
G01 X14.3415 Y40.2853
G01 X14.3828 Y40.3542
G01 X14.4172 Y40.4268
G01 X14.4442 Y40.5025
G01 X14.4638 Y40.5804
G01 X14.4755 Y40.6598
G01 X14.4795 Y40.7405
G01 X14.4755 Y40.8203
G01 X14.4635 Y40.9006
G01 X14.4439 Y40.9785
G01 X14.4172 Y41.0533
G01 X14.3832 Y41.1251
G01 X14.3415 Y41.1948
G01 X14.2937 Y41.2593
G01 X14.2397 Y41.3189
G01 X14.1797 Y41.3732
G01 X14.1797 Y43.4002
G01 X15.7411 Y44.9615
G01 X15.7812 Y44.9556
G01 X15.8655 Y44.9515
G01 X15.9506 Y44.9556
G01 X16.0353 Y44.9682
G01 X16.1176 Y44.9888
G01 X16.1983 Y45.0176
G01 X16.2753 Y45.0540
G01 X16.3484 Y45.0979
G01 X16.4176 Y45.1492
G01 X16.4801 Y45.2059
G01 X16.5373 Y45.2691
G01 X16.5881 Y45.3375
G01 X16.6315 Y45.4098
G01 X16.6687 Y45.4885
G01 X16.6971 Y45.5680
G01 X16.7177 Y45.6502
G01 X16.7303 Y45.7349
G01 X16.7345 Y45.8210
G01 X16.7303 Y45.9052
G01 X16.7179 Y45.9886
G01 X16.6971 Y46.0721
G01 X16.6684 Y46.1524
G01 X16.6315 Y46.2303
G01 X16.5876 Y46.3033
G01 X16.5373 Y46.3710
G01 X16.4807 Y46.4335
G01 X16.4169 Y46.4915
G01 X16.3477 Y46.5427
G01 X16.2745 Y46.5865
G01 X16.1983 Y46.6225
G01 X16.1189 Y46.6509
G01 X16.0353 Y46.6719
G01 X15.9511 Y46.6844
G01 X15.8659 Y46.6886
G01 X15.7799 Y46.6843
G01 X15.6965 Y46.6719
G01 X15.6139 Y46.6512
G01 X15.5335 Y46.6225
G01 X15.4573 Y46.5865
G01 X15.3826 Y46.5417
G01 X15.3150 Y46.4915
G01 X15.2511 Y46.4335
G01 X15.1945 Y46.3710
G01 X15.1443 Y46.3033
G01 X15.1004 Y46.2303
G01 X15.0635 Y46.1524
G01 X15.0349 Y46.0726
G01 X15.0141 Y45.9895
G01 X15.0015 Y45.9047
G01 X14.9974 Y45.8196
G01 X15.0015 Y45.7354
G01 X15.0074 Y45.6952
G01 X13.2941 Y43.9819
G01 X13.2599 Y43.9441
G01 X13.2301 Y43.9040
G01 X13.2032 Y43.8592
G01 X13.1813 Y43.8127
G01 X13.1644 Y43.7656
G01 X13.1523 Y43.7172
G01 X13.1446 Y43.6659
G01 X13.1421 Y43.6155
G01 X13.1421 Y41.3732
G01 X13.0821 Y41.3189
G01 X13.0278 Y41.2589
G01 X11.2822 Y41.2589
G01 X11.2417 Y41.2955
G01 X11.1851 Y41.3375
G01 X11.1246 Y41.3738
G01 X11.0609 Y41.4039
G01 X10.9945 Y41.4277
G01 X10.9261 Y41.4448
G01 X10.8564 Y41.4551
G01 X10.7864 Y41.4586
G01 X10.7155 Y41.4551
G01 X10.6458 Y41.4448
G01 X10.5774 Y41.4277
G01 X10.5109 Y41.4039
G01 X10.4472 Y41.3738
G01 X10.3867 Y41.3375
G01 X10.3301 Y41.2955
G01 X10.2896 Y41.2589
G01 X8.7422 Y41.2589
G01 X8.7017 Y41.2955
G01 X8.6459 Y41.3370
G01 X8.5846 Y41.3738
G01 X8.5209 Y41.4039
G01 X8.4554 Y41.4274
G01 X8.3861 Y41.4448
G01 X8.3164 Y41.4551
G01 X8.2468 Y41.4586
G01 X8.1755 Y41.4551
G01 X8.1049 Y41.4446
G01 X8.0374 Y41.4277
G01 X7.9718 Y41.4042
G01 X7.9064 Y41.3733
G01 X7.8467 Y41.3375
G01 X7.7901 Y41.2955
G01 X7.7372 Y41.2475
G01 X7.6905 Y41.1959
G01 X7.6485 Y41.1392
G01 X7.6122 Y41.0787
G01 X7.5824 Y41.0159
G01 X7.5583 Y40.9486
G01 X7.5410 Y40.8793
G01 X7.5308 Y40.8105
G01 X7.5281 Y40.7560
G01 X5.3391 Y38.5669
G01 X5.3049 Y38.5291
G01 X5.2745 Y38.4883
G01 X5.2484 Y38.4446
G01 X5.2268 Y38.3990
G01 X5.2094 Y38.3506
G01 X5.1971 Y38.3012
G01 X5.1896 Y38.2509
G01 X5.1871 Y38.2000
G01 X5.1871 Y22.9591
G00 Z2.0000
G00 X7.7271 Y25.4991
G01 F60.00
G01 Z-0.1049
G01 F120.00
G01 X7.7296 Y25.4492
G01 X7.7371 Y25.3989
G01 X7.7494 Y25.3495
G01 X7.7666 Y25.3015
G01 X7.7884 Y25.2555
G01 X7.8145 Y25.2118
G01 X7.8449 Y25.1710
G01 X7.8791 Y25.1332
G01 X15.4991 Y17.5132
G01 X15.5368 Y17.4790
G01 X15.5770 Y17.4492
G01 X15.6214 Y17.4225
G01 X15.6674 Y17.4007
G01 X15.7145 Y17.3839
G01 X15.7652 Y17.3711
G01 X15.8150 Y17.3638
G01 X15.8659 Y17.3612
G01 X55.8728 Y17.3612
G01 X55.9271 Y17.3012
G01 X55.9874 Y17.2467
G01 X56.0512 Y17.1994
G01 X56.1193 Y17.1586
G01 X56.1918 Y17.1242
G01 X56.2684 Y17.0967
G01 X56.3463 Y17.0772
G01 X56.4257 Y17.0654
G01 X56.5068 Y17.0615
G01 X56.5862 Y17.0654
G01 X56.6647 Y17.0771
G01 X56.7427 Y17.0965
G01 X56.8192 Y17.1238
G01 X56.8910 Y17.1577
G01 X56.9607 Y17.1994
G01 X57.0252 Y17.2473
G01 X57.0847 Y17.3012
G01 X57.1391 Y17.3612
G01 X59.0459 Y17.3612
G01 X59.0959 Y17.3637
G01 X59.1480 Y17.3714
G01 X59.1965 Y17.3836
G01 X59.2445 Y17.4007
G01 X59.2913 Y17.4230
G01 X59.3341 Y17.4487
G01 X59.3750 Y17.4790
G01 X59.4128 Y17.5132
G01 X69.1251 Y27.2255
G01 X69.2059 Y27.2215
G01 X69.2862 Y27.2254
G01 X69.3656 Y27.2372
G01 X69.4444 Y27.2570
G01 X69.5192 Y27.2838
G01 X69.5910 Y27.3177
G01 X69.6599 Y27.3590
G01 X69.7252 Y27.4073
G01 X69.7847 Y27.4612
G01 X69.8387 Y27.5208
G01 X69.8865 Y27.5853
G01 X69.9278 Y27.6542
G01 X69.9622 Y27.7268
G01 X69.9892 Y27.8025
G01 X70.0088 Y27.8804
G01 X70.0205 Y27.9598
G01 X70.0245 Y28.0410
G01 X70.0205 Y28.1203
G01 X70.0089 Y28.1988
G01 X69.9892 Y28.2776
G01 X69.9618 Y28.3541
G01 X69.9278 Y28.4259
G01 X69.8865 Y28.4948
G01 X69.8387 Y28.5593
G01 X69.7854 Y28.6182
G01 X69.7252 Y28.6728
G01 X69.6599 Y28.7211
G01 X69.5918 Y28.7620
G01 X69.5200 Y28.7959
G01 X69.4435 Y28.8234
G01 X69.3647 Y28.8430
G01 X69.2862 Y28.8547
G01 X69.2068 Y28.8586
G01 X69.1248 Y28.8545
G01 X69.0463 Y28.8429
G01 X68.9692 Y28.8236
G01 X68.8927 Y28.7963
G01 X68.8201 Y28.7620
G01 X68.7519 Y28.7211
G01 X68.6863 Y28.6725
G01 X68.6265 Y28.6182
G01 X68.5732 Y28.5593
G01 X68.5258 Y28.4956
G01 X68.4840 Y28.4259
G01 X68.4497 Y28.3533
G01 X68.4224 Y28.2768
G01 X68.4031 Y28.1997
G01 X68.3914 Y28.1212
G01 X68.3874 Y28.0400
G01 X68.3914 Y27.9592
G01 X58.8310 Y18.3989
G01 X57.1391 Y18.3989
G01 X57.0847 Y18.4589
G01 X57.0252 Y18.5128
G01 X56.9607 Y18.5607
G01 X56.8910 Y18.6024
G01 X56.8192 Y18.6363
G01 X56.7444 Y18.6631
G01 X56.6665 Y18.6827
G01 X56.5862 Y18.6947
G01 X56.5059 Y18.6986
G01 X56.4257 Y18.6947
G01 X56.3453 Y18.6827
G01 X56.2674 Y18.6631
G01 X56.1927 Y18.6363
G01 X56.1209 Y18.6024
G01 X56.0512 Y18.5607
G01 X55.9867 Y18.5128
G01 X55.9271 Y18.4589
G01 X55.8728 Y18.3989
G01 X16.0808 Y18.3989
G01 X8.7647 Y25.7149
G01 X8.7647 Y35.4452
G01 X11.0008 Y37.6812
G01 X13.0278 Y37.6812
G01 X13.0821 Y37.6212
G01 X13.1417 Y37.5673
G01 X13.2062 Y37.5194
G01 X13.2751 Y37.4781
G01 X13.3477 Y37.4438
G01 X13.4234 Y37.4167
G01 X13.5013 Y37.3972
G01 X13.5816 Y37.3854
G01 X13.6609 Y37.3815
G01 X13.7412 Y37.3854
G01 X13.8206 Y37.3972
G01 X13.8977 Y37.4165
G01 X13.9742 Y37.4438
G01 X14.0460 Y37.4777
G01 X14.1164 Y37.5200
G01 X14.1802 Y37.5673
G01 X14.2391 Y37.6206
G01 X14.2942 Y37.6815
G01 X14.3415 Y37.7453
G01 X14.3828 Y37.8142
G01 X14.4172 Y37.8868
G01 X14.4439 Y37.9616
G01 X14.4639 Y38.0413
G01 X14.4755 Y38.1198
G01 X14.4795 Y38.2000
G01 X14.4754 Y38.2812
G01 X14.4638 Y38.3597
G01 X14.4442 Y38.4376
G01 X14.4172 Y38.5133
G01 X14.3832 Y38.5851
G01 X14.3410 Y38.6556
G01 X14.2937 Y38.7193
G01 X14.2397 Y38.7789
G01 X14.1802 Y38.8328
G01 X14.1164 Y38.8801
G01 X14.0460 Y38.9224
G01 X13.9742 Y38.9563
G01 X13.8985 Y38.9834
G01 X13.8206 Y39.0029
G01 X13.7421 Y39.0145
G01 X13.6600 Y39.0186
G01 X13.5807 Y39.0147
G01 X13.5021 Y39.0030
G01 X13.4242 Y38.9836
G01 X13.3477 Y38.9563
G01 X13.2759 Y38.9224
G01 X13.2062 Y38.8807
G01 X13.1417 Y38.8328
G01 X13.0821 Y38.7789
G01 X13.0278 Y38.7189
G01 X10.7855 Y38.7188
G01 X10.7342 Y38.7162
G01 X10.6847 Y38.7089
G01 X10.6362 Y38.6968
G01 X10.5874 Y38.6794
G01 X10.5414 Y38.6576
G01 X10.4970 Y38.6309
G01 X10.4568 Y38.6011
G01 X10.4191 Y38.5669
G01 X7.8791 Y36.0269
G01 X7.8449 Y35.9891
G01 X7.8145 Y35.9483
G01 X7.7884 Y35.9046
G01 X7.7668 Y35.8590
G01 X7.7494 Y35.8106
G01 X7.7371 Y35.7612
G01 X7.7296 Y35.7109
G01 X7.7271 Y35.6600
G01 X7.7271 Y25.4991
G00 Z2.0000
G00 X10.2671 Y28.0391
G01 F60.00
G01 Z-0.1049
G01 F120.00
G01 X10.2696 Y27.9892
G01 X10.2771 Y27.9389
G01 X10.2894 Y27.8895
G01 X10.3066 Y27.8415
G01 X10.3284 Y27.7955
G01 X10.3545 Y27.7518
G01 X10.3849 Y27.7110
G01 X10.4191 Y27.6732
G01 X15.4994 Y22.5929
G01 X15.5368 Y22.5590
G01 X15.5770 Y22.5292
G01 X15.6222 Y22.5021
G01 X15.6674 Y22.4807
G01 X15.7154 Y22.4636
G01 X15.7647 Y22.4512
G01 X15.8146 Y22.4438
G01 X15.8659 Y22.4412
G01 X23.4859 Y22.4412
G01 X23.5368 Y22.4438
G01 X23.5871 Y22.4512
G01 X23.6365 Y22.4636
G01 X23.6840 Y22.4806
G01 X23.7305 Y22.5025
G01 X23.7741 Y22.5287
G01 X23.8150 Y22.5590
G01 X23.8528 Y22.5932
G01 X28.7163 Y27.4567
G01 X28.7708 Y27.4073
G01 X28.8353 Y27.3594
G01 X28.9042 Y27.3181
G01 X28.9768 Y27.2838
G01 X29.0525 Y27.2567
G01 X29.1304 Y27.2372
G01 X29.2098 Y27.2254
G01 X29.2900 Y27.2215
G01 X29.3703 Y27.2254
G01 X29.4497 Y27.2372
G01 X29.5276 Y27.2567
G01 X29.6033 Y27.2838
G01 X29.6759 Y27.3181
G01 X29.7448 Y27.3594
G01 X29.8093 Y27.4073
G01 X29.8682 Y27.4606
G01 X29.8738 Y27.4667
G01 X31.7596 Y25.5809
G01 X31.7556 Y25.4991
G01 X31.7596 Y25.4198
G01 X31.7713 Y25.3404
G01 X31.7909 Y25.2625
G01 X31.8176 Y25.1877
G01 X31.8527 Y25.1134
G01 X31.8936 Y25.0453
G01 X31.9414 Y24.9808
G01 X31.9954 Y24.9212
G01 X32.0542 Y24.8679
G01 X32.1202 Y24.8190
G01 X32.1883 Y24.7781
G01 X32.2605 Y24.7440
G01 X32.3366 Y24.7167
G01 X32.4154 Y24.6971
G01 X32.4939 Y24.6854
G01 X32.5733 Y24.6815
G01 X32.6535 Y24.6854
G01 X32.7338 Y24.6972
G01 X32.8117 Y24.7167
G01 X32.8874 Y24.7438
G01 X32.9608 Y24.7786
G01 X33.0289 Y24.8194
G01 X33.0927 Y24.8667
G01 X33.1523 Y24.9206
G01 X33.2069 Y24.9808
G01 X33.2548 Y25.0453
G01 X33.2961 Y25.1142
G01 X33.3307 Y25.1877
G01 X33.3575 Y25.2625
G01 X33.3768 Y25.3395
G01 X33.3887 Y25.4194
G01 X33.3927 Y25.5000
G01 X33.3888 Y25.5803
G01 X33.3770 Y25.6597
G01 X33.3572 Y25.7385
G01 X33.3304 Y25.8133
G01 X33.2965 Y25.8851
G01 X33.2553 Y25.9540
G01 X33.2069 Y26.0193
G01 X33.1530 Y26.0789
G01 X33.0934 Y26.1328
G01 X33.0282 Y26.1811
G01 X32.9592 Y26.2224
G01 X32.8874 Y26.2563
G01 X32.8127 Y26.2831
G01 X32.7338 Y26.3029
G01 X32.6544 Y26.3147
G01 X32.5742 Y26.3186
G01 X32.4933 Y26.3146
G01 X30.4010 Y28.4069
G01 X30.3633 Y28.4411
G01 X30.3224 Y28.4714
G01 X30.2787 Y28.4976
G01 X30.2327 Y28.5194
G01 X30.1843 Y28.5366
G01 X30.1354 Y28.5489
G01 X30.0846 Y28.5564
G01 X30.0346 Y28.5588
G01 X29.9232 Y28.5589
G01 X29.8682 Y28.6195
G01 X29.8093 Y28.6728
G01 X29.7456 Y28.7201
G01 X29.6759 Y28.7620
G01 X29.6024 Y28.7966
G01 X29.5268 Y28.8236
G01 X29.4497 Y28.8429
G01 X29.3712 Y28.8545
G01 X29.2900 Y28.8586
G01 X29.2094 Y28.8546
G01 X29.1304 Y28.8429
G01 X29.0525 Y28.8234
G01 X28.9768 Y28.7963
G01 X28.9042 Y28.7620
G01 X28.8353 Y28.7207
G01 X28.7708 Y28.6728
G01 X28.7112 Y28.6189
G01 X28.6569 Y28.5589
G01 X28.5655 Y28.5588
G01 X28.5150 Y28.5563
G01 X28.4647 Y28.5489
G01 X28.4158 Y28.5366
G01 X28.3674 Y28.5194
G01 X28.3214 Y28.4976
G01 X28.2777 Y28.4714
G01 X28.2361 Y28.4405
G01 X28.1991 Y28.4069
G01 X23.2710 Y23.4789
G01 X16.0808 Y23.4789
G01 X11.3047 Y28.2549
G01 X11.3047 Y32.9052
G01 X13.3176 Y34.9180
G01 X13.3481 Y34.9036
G01 X13.4238 Y34.8766
G01 X13.5013 Y34.8572
G01 X13.5811 Y34.8454
G01 X13.6609 Y34.8415
G01 X13.7412 Y34.8454
G01 X13.8206 Y34.8572
G01 X13.8981 Y34.8766
G01 X13.9742 Y34.9038
G01 X14.0460 Y34.9377
G01 X14.1164 Y34.9800
G01 X14.1802 Y35.0273
G01 X14.2397 Y35.0812
G01 X14.2937 Y35.1408
G01 X14.3415 Y35.2053
G01 X14.3828 Y35.2742
G01 X14.4175 Y35.3477
G01 X14.4442 Y35.4225
G01 X14.4635 Y35.4995
G01 X14.4755 Y35.5798
G01 X14.4795 Y35.6610
G01 X14.4755 Y35.7403
G01 X14.4639 Y35.8188
G01 X14.4442 Y35.8976
G01 X14.4168 Y35.9741
G01 X14.3828 Y36.0459
G01 X14.3420 Y36.1140
G01 X14.2937 Y36.1793
G01 X14.2391 Y36.2395
G01 X14.1802 Y36.2928
G01 X14.1164 Y36.3401
G01 X14.0468 Y36.3820
G01 X13.9733 Y36.4166
G01 X13.8985 Y36.4434
G01 X13.8215 Y36.4627
G01 X13.7416 Y36.4746
G01 X13.6609 Y36.4786
G01 X13.5807 Y36.4747
G01 X13.5013 Y36.4629
G01 X13.4224 Y36.4431
G01 X13.3477 Y36.4163
G01 X13.2743 Y36.3815
G01 X13.2062 Y36.3407
G01 X13.1424 Y36.2934
G01 X13.0828 Y36.2395
G01 X13.0282 Y36.1793
G01 X12.9803 Y36.1148
G01 X12.9390 Y36.0459
G01 X12.9042 Y35.9720
G01 X10.4191 Y33.4869
G01 X10.3849 Y33.4491
G01 X10.3545 Y33.4083
G01 X10.3284 Y33.3646
G01 X10.3066 Y33.3186
G01 X10.2894 Y33.2706
G01 X10.2771 Y33.2212
G01 X10.2696 Y33.1709
G01 X10.2671 Y33.1200
G01 X10.2671 Y28.0391
G00 Z2.0000
G00 X16.0712 Y28.6732
G01 F60.00
G01 Z-0.1049
G01 F120.00
G01 X16.0112 Y28.6189
G01 X15.9573 Y28.5593
G01 X15.9094 Y28.4948
G01 X15.8681 Y28.4259
G01 X15.8338 Y28.3533
G01 X15.8067 Y28.2776
G01 X15.7872 Y28.1997
G01 X15.7756 Y28.1212
G01 X15.7715 Y28.0400
G01 X15.7754 Y27.9598
G01 X15.7872 Y27.8804
G01 X15.8065 Y27.8033
G01 X15.8338 Y27.7268
G01 X15.8677 Y27.6550
G01 X15.9100 Y27.5845
G01 X15.9573 Y27.5208
G01 X16.0112 Y27.4612
G01 X16.0708 Y27.4073
G01 X16.1353 Y27.3594
G01 X16.2042 Y27.3181
G01 X16.2768 Y27.2838
G01 X16.3525 Y27.2567
G01 X16.4304 Y27.2372
G01 X16.5098 Y27.2254
G01 X16.5900 Y27.2215
G01 X16.6703 Y27.2254
G01 X16.7497 Y27.2372
G01 X16.8276 Y27.2567
G01 X16.9033 Y27.2838
G01 X16.9759 Y27.3181
G01 X17.0440 Y27.3590
G01 X17.1093 Y27.4073
G01 X17.1689 Y27.4612
G01 X17.2228 Y27.5208
G01 X17.2711 Y27.5861
G01 X17.3124 Y27.6550
G01 X17.3463 Y27.7268
G01 X17.3731 Y27.8016
G01 X17.3929 Y27.8804
G01 X17.4047 Y27.9598
G01 X17.4086 Y28.0400
G01 X17.4047 Y28.1203
G01 X17.3929 Y28.1997
G01 X17.3731 Y28.2785
G01 X17.3463 Y28.3533
G01 X17.3115 Y28.4267
G01 X17.2701 Y28.4956
G01 X17.2228 Y28.5593
G01 X17.1734 Y28.6138
G01 X18.7731 Y30.2135
G01 X18.8070 Y30.2510
G01 X18.8373 Y30.2918
G01 X18.8635 Y30.3355
G01 X18.8850 Y30.3811
G01 X18.9024 Y30.4295
G01 X18.9148 Y30.4789
G01 X18.9222 Y30.5292
G01 X18.9247 Y30.5800
G01 X18.9247 Y35.1412
G01 X20.6478 Y35.1412
G01 X20.7021 Y35.0812
G01 X20.7624 Y35.0267
G01 X20.8262 Y34.9794
G01 X20.8943 Y34.9386
G01 X20.9677 Y34.9038
G01 X21.0442 Y34.8765
G01 X21.1213 Y34.8572
G01 X21.1998 Y34.8456
G01 X21.2809 Y34.8415
G01 X21.3621 Y34.8456
G01 X21.4406 Y34.8572
G01 X21.5185 Y34.8767
G01 X21.5942 Y34.9038
G01 X21.6660 Y34.9377
G01 X21.7364 Y34.9800
G01 X21.8002 Y35.0273
G01 X21.8597 Y35.0812
G01 X21.9137 Y35.1408
G01 X21.9610 Y35.2045
G01 X22.0032 Y35.2750
G01 X22.0372 Y35.3468
G01 X22.0642 Y35.4225
G01 X22.0838 Y35.5004
G01 X22.0955 Y35.5794
G01 X22.0995 Y35.6600
G01 X22.0955 Y35.7403
G01 X22.0838 Y35.8197
G01 X22.0645 Y35.8968
G01 X22.0372 Y35.9733
G01 X22.0032 Y36.0451
G01 X21.9610 Y36.1156
G01 X21.9137 Y36.1793
G01 X21.8597 Y36.2389
G01 X21.8002 Y36.2928
G01 X21.7357 Y36.3407
G01 X21.6668 Y36.3820
G01 X21.5942 Y36.4163
G01 X21.5185 Y36.4434
G01 X21.4406 Y36.4629
G01 X21.3612 Y36.4747
G01 X21.2818 Y36.4786
G01 X21.2007 Y36.4747
G01 X21.1203 Y36.4627
G01 X21.0434 Y36.4434
G01 X20.9685 Y36.4166
G01 X20.8951 Y36.3820
G01 X20.8254 Y36.3401
G01 X20.7617 Y36.2928
G01 X20.7028 Y36.2395
G01 X20.6478 Y36.1789
G01 X18.9247 Y36.1789
G01 X18.9247 Y45.1247
G01 X18.9572 Y45.1489
G01 X19.0198 Y45.2056
G01 X19.0771 Y45.2687
G01 X19.1281 Y45.3375
G01 X19.1721 Y45.4111
G01 X19.2087 Y45.4885
G01 X19.2371 Y45.5680
G01 X19.2576 Y45.6497
G01 X19.2703 Y45.7349
G01 X19.2745 Y45.8210
G01 X19.2703 Y45.9052
G01 X19.2578 Y45.9895
G01 X19.2371 Y46.0721
G01 X19.2084 Y46.1524
G01 X19.1719 Y46.2295
G01 X19.1281 Y46.3026
G01 X19.0773 Y46.3710
G01 X19.0207 Y46.4335
G01 X18.9569 Y46.4915
G01 X18.8892 Y46.5417
G01 X18.8145 Y46.5865
G01 X18.7383 Y46.6225
G01 X18.6580 Y46.6512
G01 X18.5753 Y46.6719
G01 X18.4915 Y46.6844
G01 X18.4059 Y46.6886
G01 X18.3208 Y46.6844
G01 X18.2365 Y46.6719
G01 X18.1539 Y46.6512
G01 X18.0735 Y46.6225
G01 X17.9965 Y46.5861
G01 X17.9234 Y46.5422
G01 X17.8542 Y46.4909
G01 X17.7918 Y46.4342
G01 X17.7345 Y46.3710
G01 X17.6837 Y46.3026
G01 X17.6395 Y46.2287
G01 X17.6035 Y46.1524
G01 X17.5745 Y46.0713
G01 X17.5541 Y45.9895
G01 X17.5417 Y45.9061
G01 X17.5374 Y45.8210
G01 X17.5416 Y45.7349
G01 X17.5543 Y45.6497
G01 X17.5748 Y45.5680
G01 X17.6032 Y45.4885
G01 X17.6397 Y45.4111
G01 X17.6837 Y45.3375
G01 X17.7348 Y45.2687
G01 X17.7921 Y45.2056
G01 X17.8546 Y45.1489
G01 X17.8871 Y45.1247
G01 X17.8871 Y30.7949
G01 X16.2232 Y29.1310
G01 X16.1893 Y29.0936
G01 X16.1587 Y29.0524
G01 X16.1325 Y29.0087
G01 X16.1107 Y28.9627
G01 X16.0935 Y28.9143
G01 X16.0812 Y28.8654
G01 X16.0738 Y28.8151
G01 X16.0713 Y28.7646
G01 X16.0712 Y28.6732
G00 Z2.0000
G00 X12.8424 Y33.9200
G01 F60.00
G01 Z-0.1049
G01 F120.00
G01 X12.8424 Y32.3200
G01 X12.8427 Y32.3164
G01 X12.8438 Y32.3129
G01 X12.8455 Y32.3097
G01 X12.8478 Y32.3069
G01 X12.8506 Y32.3046
G01 X12.8538 Y32.3029
G01 X12.8573 Y32.3019
G01 X12.8609 Y32.3015
G01 X14.4609 Y32.3015
G01 X14.4646 Y32.3019
G01 X14.4680 Y32.3029
G01 X14.4712 Y32.3046
G01 X14.4740 Y32.3069
G01 X14.4763 Y32.3097
G01 X14.4781 Y32.3129
G01 X14.4791 Y32.3164
G01 X14.4795 Y32.3200
G01 X14.4795 Y33.9200
G01 X14.4791 Y33.9237
G01 X14.4781 Y33.9272
G01 X14.4763 Y33.9304
G01 X14.4740 Y33.9332
G01 X14.4712 Y33.9355
G01 X14.4680 Y33.9372
G01 X14.4646 Y33.9382
G01 X14.4609 Y33.9386
G01 X12.8609 Y33.9386
G01 X12.8573 Y33.9382
G01 X12.8538 Y33.9372
G01 X12.8506 Y33.9355
G01 X12.8478 Y33.9332
G01 X12.8455 Y33.9304
G01 X12.8438 Y33.9272
G01 X12.8427 Y33.9237
G01 X12.8424 Y33.9200
G00 Z2.0000
G00 X9.2279 Y35.1943
G01 F60.00
G01 Z-0.1049
G01 F120.00
G01 X9.2279 Y25.9658
G01 X9.2309 Y25.9371
G01 X9.2323 Y25.9319
G01 X9.2665 Y25.8693
G01 X9.2696 Y25.8650
G01 X16.2309 Y18.9038
G01 X16.2535 Y18.8854
G01 X16.2575 Y18.8831
G01 X16.3265 Y18.8628
G01 X16.3299 Y18.8621
G01 X18.2466 Y18.8620
G01 X18.2734 Y18.8646
G01 X18.2789 Y18.8662
G01 X18.3415 Y18.8991
G01 X18.3460 Y18.9024
G01 X18.3490 Y18.9063
G01 X18.3835 Y18.9671
G01 X18.3854 Y18.9722
G01 X18.3858 Y18.9773
G01 X18.3820 Y19.0471
G01 X18.3809 Y19.0523
G01 X18.3785 Y19.0569
G01 X18.3375 Y19.1135
G01 X18.3342 Y19.1170
G01 X18.3292 Y19.1199
G01 X18.2619 Y19.1461
G01 X18.1825 Y19.1532
G01 X17.9660 Y19.2113
G01 X17.7627 Y19.3060
G01 X17.7092 Y19.3435
G01 X18.0497 Y19.6841
G01 X18.0931 Y19.6636
G01 X18.1679 Y19.6369
G01 X18.2458 Y19.6173
G01 X18.3257 Y19.6054
G01 X18.4059 Y19.6015
G01 X18.4862 Y19.6054
G01 X18.5660 Y19.6173
G01 X18.6439 Y19.6369
G01 X18.7188 Y19.6636
G01 X18.7621 Y19.6841
G01 X19.1026 Y19.3435
G01 X19.0491 Y19.3060
G01 X18.8459 Y19.2113
G01 X18.6293 Y19.1532
G01 X18.5523 Y19.1465
G01 X18.5250 Y19.1413
G01 X18.5203 Y19.1391
G01 X18.4591 Y19.0995
G01 X18.4566 Y19.0967
G01 X18.4547 Y19.0935
G01 X18.4256 Y19.0299
G01 X18.4242 Y19.0250
G01 X18.4242 Y19.0196
G01 X18.4341 Y18.9504
G01 X18.4355 Y18.9455
G01 X18.4384 Y18.9409
G01 X18.4842 Y18.8881
G01 X18.4883 Y18.8846
G01 X18.4930 Y18.8824
G01 X18.5600 Y18.8628
G01 X18.5648 Y18.8620
G01 X55.6283 Y18.8620
G01 X55.6351 Y18.8622
G01 X55.6387 Y18.8629
G01 X55.7081 Y18.8866
G01 X55.8625 Y18.9945
G01 X56.0658 Y19.0893
G01 X56.2825 Y19.1473
G01 X56.5059 Y19.1669
G01 X56.7294 Y19.1473
G01 X56.9461 Y19.0893
G01 X57.1493 Y18.9945
G01 X57.3079 Y18.8838
G01 X57.3112 Y18.8824
G01 X57.3808 Y18.8622
G01 X58.5801 Y18.8620
G01 X58.6102 Y18.8652
G01 X58.6154 Y18.8671
G01 X58.6767 Y18.9006
G01 X58.6809 Y18.9038
G01 X67.8924 Y28.1153
G01 X67.9037 Y28.1280
G01 X67.9062 Y28.1319
G01 X67.9328 Y28.2000
G01 X67.9334 Y28.2033
G01 X67.9386 Y28.2635
G01 X67.9967 Y28.4802
G01 X68.0915 Y28.6835
G01 X68.2201 Y28.8672
G01 X68.3788 Y29.0258
G01 X68.5625 Y29.1545
G01 X68.7658 Y29.2493
G01 X68.9825 Y29.3073
G01 X69.0538 Y29.3136
G01 X69.0798 Y29.3185
G01 X69.0841 Y29.3200
G01 X69.1446 Y29.3587
G01 X69.1486 Y29.3623
G01 X69.1514 Y29.3666
G01 X69.1805 Y29.4302
G01 X69.1820 Y29.4360
G01 X69.1820 Y29.4405
G01 X69.1720 Y29.5097
G01 X69.1706 Y29.5146
G01 X69.1677 Y29.5192
G01 X69.1219 Y29.5720
G01 X69.1182 Y29.5753
G01 X69.1138 Y29.5775
G01 X69.0461 Y29.5973
G01 X69.0413 Y29.5981
G01 X64.5917 Y29.5981
G01 X64.5629 Y29.5951
G01 X64.5586 Y29.5940
G01 X64.4947 Y29.5592
G01 X64.4909 Y29.5563
G01 X64.4378 Y29.5032
G01 X64.4100 Y29.4623
G01 X64.4076 Y29.4568
G01 X64.3989 Y29.3851
G01 X64.3990 Y29.3797
G01 X64.4006 Y29.3748
G01 X64.4312 Y29.3119
G01 X64.4329 Y29.3090
G01 X64.4354 Y29.3063
G01 X64.4380 Y29.3043
G01 X64.4999 Y29.2667
G01 X64.5659 Y29.2488
G01 X64.7691 Y29.1541
G01 X64.8226 Y29.1166
G01 X64.4821 Y28.7760
G01 X64.4388 Y28.7965
G01 X64.3631 Y28.8235
G01 X64.2856 Y28.8429
G01 X64.2066 Y28.8546
G01 X64.1250 Y28.8586
G01 X64.0457 Y28.8547
G01 X63.9667 Y28.8430
G01 X63.8874 Y28.8231
G01 X63.8127 Y28.7963
G01 X63.7401 Y28.7620
G01 X63.6704 Y28.7201
G01 X63.6067 Y28.6728
G01 X63.5471 Y28.6189
G01 X63.4932 Y28.5593
G01 X63.4458 Y28.4956
G01 X63.4040 Y28.4259
G01 X63.3697 Y28.3533
G01 X63.3429 Y28.2785
G01 X63.3230 Y28.1993
G01 X63.3113 Y28.1203
G01 X63.3074 Y28.0410
G01 X63.3114 Y27.9594
G01 X63.3231 Y27.8804
G01 X63.3425 Y27.8029
G01 X63.3695 Y27.7272
G01 X63.3900 Y27.6839
G01 X63.0494 Y27.3433
G01 X63.0119 Y27.3969
G01 X62.9172 Y27.6001
G01 X62.8998 Y27.6648
G01 X62.8783 Y27.7092
G01 X62.8749 Y27.7138
G01 X62.8170 Y27.7574
G01 X62.8125 Y27.7599
G01 X62.8072 Y27.7611
G01 X62.7375 Y27.7660
G01 X62.7325 Y27.7657
G01 X62.7277 Y27.7641
G01 X62.6660 Y27.7303
G01 X62.6628 Y27.7281
G01 X57.2479 Y22.3133
G01 X57.2414 Y22.3060
G01 X57.2213 Y22.2800
G01 X57.1722 Y22.2377
G01 X57.1297 Y22.1951
G01 X57.1026 Y22.1772
G01 X57.0953 Y22.1718
G01 X57.0698 Y22.1499
G01 X57.0132 Y22.1183
G01 X56.9629 Y22.0852
G01 X56.9328 Y22.0732
G01 X56.9246 Y22.0693
G01 X56.8952 Y22.0530
G01 X56.8333 Y22.0334
G01 X56.7774 Y22.0111
G01 X56.7451 Y22.0053
G01 X56.7367 Y22.0033
G01 X56.7046 Y21.9932
G01 X56.6401 Y21.9865
G01 X56.5809 Y21.9759
G01 X56.4932 Y21.9781
G01 X51.4933 Y21.9781
G01 X51.4834 Y21.9775
G01 X51.4509 Y21.9734
G01 X51.3909 Y21.9779
G01 X51.3261 Y21.9781
G01 X51.2939 Y21.9847
G01 X51.2853 Y21.9859
G01 X51.2518 Y21.9885
G01 X51.1939 Y22.0051
G01 X51.1304 Y22.0183
G01 X51.1002 Y22.0313
G01 X51.0921 Y22.0342
G01 X51.0598 Y22.0435
G01 X51.0064 Y22.0713
G01 X50.9469 Y22.0971
G01 X50.9193 Y22.1162
G01 X50.9117 Y22.1208
G01 X50.8828 Y22.1359
G01 X50.8361 Y22.1739
G01 X50.7830 Y22.2111
G01 X50.7226 Y22.2747
G01 X50.2599 Y22.7374
G01 X50.2573 Y22.7396
G01 X50.2198 Y22.7654
G01 X50.2146 Y22.7677
G01 X50.1429 Y22.7776
G01 X50.1373 Y22.7775
G01 X50.1325 Y22.7760
G01 X50.0688 Y22.7463
G01 X50.0654 Y22.7440
G01 X50.0627 Y22.7414
G01 X50.0230 Y22.6785
G01 X49.9923 Y22.5714
G01 X49.8947 Y22.3754
G01 X49.8928 Y22.3729
G01 X49.5469 Y22.7189
G01 X49.5501 Y22.7259
G01 X49.5736 Y22.7915
G01 X49.5908 Y22.8608
G01 X49.6010 Y22.9296
G01 X49.6045 Y22.9991
G01 X49.6009 Y23.0714
G01 X49.5907 Y23.1402
G01 X49.5738 Y23.2078
G01 X49.5498 Y23.2750
G01 X49.5192 Y23.3396
G01 X49.4834 Y23.3992
G01 X49.4417 Y23.4555
G01 X49.3940 Y23.5081
G01 X49.3425 Y23.5549
G01 X49.2844 Y23.5980
G01 X49.2246 Y23.6338
G01 X49.1609 Y23.6639
G01 X49.0945 Y23.6877
G01 X49.0270 Y23.7046
G01 X48.9554 Y23.7152
G01 X48.8859 Y23.7186
G01 X48.8155 Y23.7151
G01 X48.7458 Y23.7048
G01 X48.6782 Y23.6879
G01 X48.6118 Y23.6642
G01 X48.6048 Y23.6610
G01 X48.2623 Y24.0035
G01 X48.3571 Y24.0622
G01 X48.4982 Y24.1169
G01 X48.5140 Y24.1241
G01 X48.5177 Y24.1269
G01 X48.5683 Y24.1763
G01 X48.5711 Y24.1801
G01 X48.5727 Y24.1842
G01 X48.5886 Y24.2530
G01 X48.5890 Y24.2576
G01 X48.5881 Y24.2629
G01 X48.5640 Y24.3300
G01 X48.5618 Y24.3339
G01 X48.5586 Y24.3372
G01 X48.5006 Y24.3816
G01 X48.3568 Y24.4375
G01 X48.2611 Y24.4967
G01 X48.2572 Y24.4986
G01 X48.1911 Y24.5174
G01 X48.1865 Y24.5181
G01 X47.0458 Y24.5181
G01 X47.0407 Y24.5174
G01 X46.9737 Y24.4982
G01 X46.9707 Y24.4967
G01 X46.8750 Y24.4375
G01 X46.7336 Y24.3827
G01 X46.7179 Y24.3755
G01 X46.7141 Y24.3726
G01 X46.6641 Y24.3239
G01 X46.6617 Y24.3210
G01 X46.6600 Y24.3179
G01 X46.6590 Y24.3147
G01 X46.6432 Y24.2465
G01 X46.6428 Y24.2411
G01 X46.6439 Y24.2362
G01 X46.6676 Y24.1700
G01 X46.6695 Y24.1664
G01 X46.6719 Y24.1636
G01 X46.7290 Y24.1194
G01 X46.7316 Y24.1178
G01 X46.8748 Y24.0622
G01 X46.9696 Y24.0035
G01 X46.6271 Y23.6610
G01 X46.6201 Y23.6642
G01 X46.5545 Y23.6877
G01 X46.4861 Y23.7048
G01 X46.4164 Y23.7151
G01 X46.3459 Y23.7186
G01 X46.2755 Y23.7151
G01 X46.2058 Y23.7048
G01 X46.1374 Y23.6877
G01 X46.0718 Y23.6642
G01 X46.0648 Y23.6610
G01 X45.7223 Y24.0035
G01 X45.8171 Y24.0622
G01 X45.9582 Y24.1169
G01 X45.9740 Y24.1241
G01 X45.9777 Y24.1269
G01 X46.0283 Y24.1763
G01 X46.0311 Y24.1801
G01 X46.0327 Y24.1842
G01 X46.0486 Y24.2530
G01 X46.0490 Y24.2576
G01 X46.0480 Y24.2633
G01 X46.0233 Y24.3316
G01 X46.0212 Y24.3346
G01 X46.0186 Y24.3372
G01 X45.9606 Y24.3816
G01 X45.8168 Y24.4375
G01 X45.6306 Y24.5528
G01 X45.4687 Y24.7004
G01 X45.3367 Y24.8752
G01 X45.2391 Y25.0713
G01 X45.1791 Y25.2819
G01 X45.1589 Y25.5001
G01 X45.1791 Y25.7182
G01 X45.2391 Y25.9289
G01 X45.3367 Y26.1249
G01 X45.4687 Y26.2997
G01 X45.6306 Y26.4473
G01 X45.8168 Y26.5626
G01 X46.0211 Y26.6417
G01 X46.2364 Y26.6820
G01 X46.4554 Y26.6820
G01 X46.6708 Y26.6417
G01 X46.8750 Y26.5626
G01 X46.9733 Y26.5020
G01 X47.0407 Y26.4827
G01 X47.0440 Y26.4821
G01 X47.7627 Y26.4820
G01 X47.8169 Y26.4936
G01 X47.8216 Y26.4953
G01 X47.8251 Y26.4977
G01 X47.8782 Y26.5438
G01 X47.8814 Y26.5476
G01 X47.8833 Y26.5516
G01 X47.9032 Y26.6193
G01 X47.9039 Y26.6227
G01 X47.9040 Y26.7134
G01 X47.9034 Y26.7226
G01 X47.8992 Y26.7550
G01 X47.9038 Y26.8150
G01 X47.9040 Y26.8799
G01 X47.9107 Y26.9129
G01 X47.9119 Y26.9214
G01 X47.9144 Y26.9542
G01 X47.9309 Y27.0120
G01 X47.9442 Y27.0755
G01 X47.9574 Y27.1065
G01 X47.9603 Y27.1146
G01 X47.9693 Y27.1462
G01 X47.9992 Y27.2038
G01 X48.0229 Y27.2590
G01 X48.0417 Y27.2860
G01 X48.0462 Y27.2934
G01 X48.0618 Y27.3232
G01 X48.1026 Y27.3736
G01 X48.1370 Y27.4230
G01 X48.2006 Y27.4834
G01 X48.8322 Y28.1150
G01 X48.8446 Y28.1291
G01 X48.8467 Y28.1331
G01 X48.8729 Y28.2005
G01 X48.8786 Y28.2635
G01 X48.9367 Y28.4802
G01 X49.0315 Y28.6835
G01 X49.1601 Y28.8672
G01 X49.3188 Y29.0258
G01 X49.5025 Y29.1545
G01 X49.5617 Y29.1824
G01 X49.6147 Y29.2282
G01 X49.6185 Y29.2326
G01 X49.6203 Y29.2368
G01 X49.6405 Y29.3037
G01 X49.6413 Y29.3090
G01 X49.6406 Y29.3142
G01 X49.6215 Y29.3813
G01 X49.6200 Y29.3850
G01 X49.6180 Y29.3880
G01 X49.5618 Y29.4377
G01 X49.5590 Y29.4392
G01 X49.5025 Y29.4656
G01 X49.3188 Y29.5943
G01 X49.1601 Y29.7529
G01 X49.0315 Y29.9366
G01 X48.9367 Y30.1399
G01 X48.8786 Y30.3566
G01 X48.8591 Y30.5801
G01 X48.8786 Y30.8035
G01 X48.9367 Y31.0202
G01 X49.0315 Y31.2235
G01 X49.1601 Y31.4072
G01 X49.3188 Y31.5658
G01 X49.5025 Y31.6945
G01 X49.5617 Y31.7224
G01 X49.6151 Y31.7685
G01 X49.6182 Y31.7722
G01 X49.6202 Y31.7764
G01 X49.6407 Y31.8441
G01 X49.6413 Y31.8490
G01 X49.6408 Y31.8536
G01 X49.6215 Y31.9213
G01 X49.6195 Y31.9258
G01 X49.6162 Y31.9299
G01 X49.5618 Y31.9777
G01 X49.5590 Y31.9792
G01 X49.5025 Y32.0056
G01 X49.3440 Y32.1163
G01 X49.3406 Y32.1177
G01 X49.2736 Y32.1373
G01 X49.2683 Y32.1381
G01 X43.3982 Y32.1380
G01 X43.3927 Y32.1370
G01 X43.3265 Y32.1147
G01 X43.3233 Y32.1133
G01 X43.1693 Y32.0056
G01 X43.1128 Y31.9792
G01 X43.1095 Y31.9773
G01 X43.0571 Y31.9319
G01 X43.0536 Y31.9279
G01 X43.0515 Y31.9233
G01 X43.0312 Y31.8560
G01 X43.0305 Y31.8511
G01 X43.0311 Y31.8465
G01 X43.0504 Y31.7788
G01 X43.0516 Y31.7755
G01 X43.0533 Y31.7728
G01 X43.0557 Y31.7702
G01 X43.1101 Y31.7224
G01 X43.1128 Y31.7209
G01 X43.1693 Y31.6945
G01 X43.3531 Y31.5658
G01 X43.5117 Y31.4072
G01 X43.6404 Y31.2235
G01 X43.7352 Y31.0202
G01 X43.7932 Y30.8035
G01 X43.8128 Y30.5800
G01 X43.7932 Y30.3566
G01 X43.7352 Y30.1399
G01 X43.6404 Y29.9366
G01 X43.5117 Y29.7529
G01 X43.3531 Y29.5943
G01 X43.1693 Y29.4656
G01 X43.1102 Y29.4377
G01 X43.0558 Y29.3907
G01 X43.0532 Y29.3871
G01 X43.0515 Y29.3833
G01 X43.0312 Y29.3160
G01 X43.0305 Y29.3120
G01 X43.0308 Y29.3079
G01 X43.0505 Y29.2384
G01 X43.0523 Y29.2343
G01 X43.0551 Y29.2307
G01 X43.1101 Y29.1824
G01 X43.1128 Y29.1809
G01 X43.1693 Y29.1545
G01 X43.3531 Y29.0258
G01 X43.5117 Y28.8672
G01 X43.6404 Y28.6835
G01 X43.7352 Y28.4802
G01 X43.7932 Y28.2635
G01 X43.8128 Y28.0400
G01 X43.7932 Y27.8166
G01 X43.7352 Y27.5999
G01 X43.6404 Y27.3966
G01 X43.5117 Y27.2129
G01 X43.3531 Y27.0543
G01 X43.1693 Y26.9256
G01 X42.9661 Y26.8308
G01 X42.7494 Y26.7728
G01 X42.5259 Y26.7532
G01 X42.3025 Y26.7728
G01 X42.0858 Y26.8308
G01 X41.8825 Y26.9256
G01 X41.6988 Y27.0543
G01 X41.5401 Y27.2129
G01 X41.4115 Y27.3966
G01 X41.3167 Y27.5999
G01 X41.2586 Y27.8166
G01 X41.2391 Y28.0401
G01 X41.2586 Y28.2635
G01 X41.3167 Y28.4802
G01 X41.4115 Y28.6835
G01 X41.5401 Y28.8672
G01 X41.6988 Y29.0258
G01 X41.8825 Y29.1545
G01 X41.9417 Y29.1824
G01 X41.9951 Y29.2285
G01 X41.9982 Y29.2322
G01 X42.0002 Y29.2364
G01 X42.0208 Y29.3046
G01 X42.0213 Y29.3090
G01 X42.0208 Y29.3136
G01 X42.0015 Y29.3813
G01 X41.9995 Y29.3858
G01 X41.9962 Y29.3899
G01 X41.9418 Y29.4377
G01 X41.9390 Y29.4392
G01 X41.8825 Y29.4656
G01 X41.7301 Y29.5723
G01 X41.7244 Y29.5761
G01 X41.7206 Y29.5777
G01 X41.6536 Y29.5973
G01 X41.6483 Y29.5981
G01 X39.4904 Y29.5981
G01 X39.4858 Y29.5975
G01 X39.4200 Y29.5788
G01 X39.4170 Y29.5777
G01 X39.2550 Y29.4775
G01 X39.1136 Y29.4227
G01 X39.0982 Y29.4157
G01 X39.0941 Y29.4126
G01 X39.0441 Y29.3639
G01 X39.0408 Y29.3595
G01 X39.0390 Y29.3549
G01 X39.0233 Y29.2867
G01 X39.0228 Y29.2811
G01 X39.0239 Y29.2762
G01 X39.0475 Y29.2105
G01 X39.0493 Y29.2068
G01 X39.0515 Y29.2039
G01 X39.1090 Y29.1594
G01 X39.1116 Y29.1578
G01 X39.2548 Y29.1022
G01 X39.3496 Y29.0435
G01 X39.0071 Y28.7010
G01 X39.0001 Y28.7042
G01 X38.9345 Y28.7277
G01 X38.8661 Y28.7448
G01 X38.7964 Y28.7551
G01 X38.7259 Y28.7586
G01 X38.6555 Y28.7551
G01 X38.5858 Y28.7448
G01 X38.5174 Y28.7277
G01 X38.4518 Y28.7042
G01 X38.4448 Y28.7010
G01 X38.1023 Y29.0435
G01 X38.1971 Y29.1022
G01 X38.3382 Y29.1569
G01 X38.3540 Y29.1641
G01 X38.3577 Y29.1669
G01 X38.4077 Y29.2157
G01 X38.4104 Y29.2190
G01 X38.4119 Y29.2217
G01 X38.4128 Y29.2247
G01 X38.4286 Y29.2930
G01 X38.4290 Y29.2980
G01 X38.4281 Y29.3029
G01 X38.4044 Y29.3691
G01 X38.4018 Y29.3739
G01 X38.3982 Y29.3775
G01 X38.3410 Y29.4214
G01 X38.3382 Y29.4227
G01 X38.1968 Y29.4775
G01 X38.0344 Y29.5779
G01 X37.9637 Y29.5980
G01 X36.9477 Y29.5979
G01 X36.8775 Y29.5779
G01 X36.7150 Y29.4775
G01 X36.5736 Y29.4227
G01 X36.5582 Y29.4157
G01 X36.5541 Y29.4126
G01 X36.5041 Y29.3639
G01 X36.5008 Y29.3595
G01 X36.4990 Y29.3549
G01 X36.4833 Y29.2867
G01 X36.4828 Y29.2811
G01 X36.4839 Y29.2762
G01 X36.5075 Y29.2105
G01 X36.5093 Y29.2068
G01 X36.5115 Y29.2039
G01 X36.5690 Y29.1594
G01 X36.5716 Y29.1578
G01 X36.7148 Y29.1022
G01 X36.8096 Y29.0435
G01 X36.4671 Y28.7010
G01 X36.4601 Y28.7042
G01 X36.3945 Y28.7277
G01 X36.3261 Y28.7448
G01 X36.2564 Y28.7551
G01 X36.1859 Y28.7586
G01 X36.1155 Y28.7551
G01 X36.0458 Y28.7448
G01 X35.9774 Y28.7277
G01 X35.9118 Y28.7042
G01 X35.9048 Y28.7010
G01 X35.5623 Y29.0435
G01 X35.6571 Y29.1022
G01 X35.7982 Y29.1569
G01 X35.8140 Y29.1641
G01 X35.8177 Y29.1669
G01 X35.8686 Y29.2166
G01 X35.8713 Y29.2205
G01 X35.8728 Y29.2247
G01 X35.8886 Y29.2930
G01 X35.8890 Y29.2976
G01 X35.8880 Y29.3033
G01 X35.8644 Y29.3691
G01 X35.8630 Y29.3720
G01 X35.8609 Y29.3750
G01 X35.8586 Y29.3772
G01 X35.8006 Y29.4216
G01 X35.6568 Y29.4775
G01 X35.4706 Y29.5928
G01 X35.3087 Y29.7404
G01 X35.1767 Y29.9152
G01 X35.0791 Y30.1113
G01 X35.0304 Y30.2823
G01 X35.0289 Y30.2854
G01 X34.9973 Y30.3391
G01 X34.9951 Y30.3421
G01 X28.2121 Y37.1251
G01 X28.1919 Y37.1419
G01 X28.1885 Y37.1441
G01 X28.1190 Y37.1660
G01 X28.1139 Y37.1669
G01 X28.1085 Y37.1662
G01 X28.0402 Y37.1474
G01 X28.0367 Y37.1458
G01 X28.0233 Y37.1375
G01 X27.8819 Y37.0827
G01 X27.8665 Y37.0757
G01 X27.8624 Y37.0726
G01 X27.8124 Y37.0239
G01 X27.8088 Y37.0191
G01 X27.8073 Y37.0149
G01 X27.7915 Y36.9467
G01 X27.7911 Y36.9411
G01 X27.7921 Y36.9362
G01 X27.8157 Y36.8705
G01 X27.8175 Y36.8668
G01 X27.8198 Y36.8639
G01 X27.8773 Y36.8194
G01 X27.8799 Y36.8178
G01 X28.0230 Y36.7622
G01 X28.1178 Y36.7035
G01 X27.7753 Y36.3610
G01 X27.7683 Y36.3642
G01 X27.7027 Y36.3877
G01 X27.6343 Y36.4048
G01 X27.5646 Y36.4151
G01 X27.4942 Y36.4186
G01 X27.4237 Y36.4151
G01 X27.3540 Y36.4048
G01 X27.2856 Y36.3877
G01 X27.2200 Y36.3642
G01 X27.2130 Y36.3610
G01 X26.8705 Y36.7035
G01 X26.9653 Y36.7622
G01 X27.1065 Y36.8169
G01 X27.1222 Y36.8241
G01 X27.1260 Y36.8269
G01 X27.1766 Y36.8763
G01 X27.1793 Y36.8801
G01 X27.1810 Y36.8842
G01 X27.1969 Y36.9530
G01 X27.1973 Y36.9576
G01 X27.1964 Y36.9629
G01 X27.1723 Y37.0300
G01 X27.1700 Y37.0339
G01 X27.1669 Y37.0372
G01 X27.1089 Y37.0816
G01 X26.9651 Y37.1375
G01 X26.8694 Y37.1967
G01 X26.8664 Y37.1982
G01 X26.7994 Y37.2174
G01 X26.7948 Y37.2181
G01 X25.6540 Y37.2181
G01 X25.6490 Y37.2174
G01 X25.5815 Y37.1981
G01 X25.4833 Y37.1375
G01 X25.3419 Y37.0827
G01 X25.3269 Y37.0759
G01 X25.3224 Y37.0726
G01 X25.2724 Y37.0239
G01 X25.2702 Y37.0213
G01 X25.2686 Y37.0187
G01 X25.2673 Y37.0149
G01 X25.2515 Y36.9465
G01 X25.2511 Y36.9411
G01 X25.2521 Y36.9362
G01 X25.2757 Y36.8705
G01 X25.2775 Y36.8668
G01 X25.2798 Y36.8639
G01 X25.3373 Y36.8194
G01 X25.3399 Y36.8178
G01 X25.4830 Y36.7622
G01 X25.5778 Y36.7035
G01 X25.2353 Y36.3610
G01 X25.2283 Y36.3642
G01 X25.1627 Y36.3877
G01 X25.0943 Y36.4048
G01 X25.0246 Y36.4151
G01 X24.9542 Y36.4186
G01 X24.8837 Y36.4151
G01 X24.8140 Y36.4048
G01 X24.7456 Y36.3877
G01 X24.6800 Y36.3642
G01 X24.6730 Y36.3610
G01 X24.3305 Y36.7035
G01 X24.4253 Y36.7622
G01 X24.5665 Y36.8169
G01 X24.5822 Y36.8241
G01 X24.5860 Y36.8269
G01 X24.6366 Y36.8763
G01 X24.6393 Y36.8801
G01 X24.6410 Y36.8842
G01 X24.6569 Y36.9530
G01 X24.6573 Y36.9576
G01 X24.6564 Y36.9629
G01 X24.6323 Y37.0300
G01 X24.6300 Y37.0339
G01 X24.6269 Y37.0372
G01 X24.5689 Y37.0816
G01 X24.4251 Y37.1375
G01 X24.3294 Y37.1967
G01 X24.3255 Y37.1986
G01 X24.2594 Y37.2174
G01 X24.2543 Y37.2181
G01 X23.5716 Y37.2181
G01 X23.5510 Y37.2166
G01 X23.5359 Y37.2143
G01 X23.4590 Y37.2181
G01 X22.1527 Y37.2180
G01 X22.1477 Y37.2170
G01 X22.0815 Y37.1947
G01 X22.0783 Y37.1933
G01 X21.9243 Y37.0856
G01 X21.8678 Y37.0592
G01 X21.8642 Y37.0570
G01 X21.8121 Y37.0119
G01 X21.8084 Y37.0075
G01 X21.8065 Y37.0033
G01 X21.7862 Y36.9360
G01 X21.7855 Y36.9315
G01 X21.7859 Y36.9270
G01 X21.8056 Y36.8580
G01 X21.8075 Y36.8539
G01 X21.8107 Y36.8502
G01 X21.8651 Y36.8024
G01 X21.8678 Y36.8009
G01 X21.9243 Y36.7745
G01 X22.1081 Y36.6458
G01 X22.2667 Y36.4872
G01 X22.3954 Y36.3035
G01 X22.4902 Y36.1002
G01 X22.5482 Y35.8835
G01 X22.5678 Y35.6600
G01 X22.5482 Y35.4366
G01 X22.4902 Y35.2199
G01 X22.3954 Y35.0166
G01 X22.2667 Y34.8329
G01 X22.1081 Y34.6743
G01 X21.9243 Y34.5456
G01 X21.8652 Y34.5177
G01 X21.8118 Y34.4716
G01 X21.8086 Y34.4679
G01 X21.8067 Y34.4637
G01 X21.7862 Y34.3960
G01 X21.7855 Y34.3902
G01 X21.7862 Y34.3859
G01 X21.8055 Y34.3184
G01 X21.8075 Y34.3139
G01 X21.8107 Y34.3102
G01 X21.8651 Y34.2624
G01 X21.8678 Y34.2609
G01 X21.9243 Y34.2345
G01 X22.1081 Y34.1058
G01 X22.2667 Y33.9472
G01 X22.3954 Y33.7635
G01 X22.4902 Y33.5602
G01 X22.5482 Y33.3435
G01 X22.5678 Y33.1200
G01 X22.5482 Y32.8966
G01 X22.4902 Y32.6799
G01 X22.3954 Y32.4766
G01 X22.2667 Y32.2929
G01 X22.1081 Y32.1343
G01 X21.9243 Y32.0056
G01 X21.7211 Y31.9108
G01 X21.5044 Y31.8528
G01 X21.2809 Y31.8332
G01 X21.0575 Y31.8528
G01 X20.8408 Y31.9108
G01 X20.6375 Y32.0056
G01 X20.4538 Y32.1343
G01 X20.2951 Y32.2929
G01 X20.1665 Y32.4766
G01 X20.0717 Y32.6799
G01 X20.0136 Y32.8966
G01 X19.9941 Y33.1201
G01 X20.0136 Y33.3435
G01 X20.0717 Y33.5602
G01 X20.1665 Y33.7635
G01 X20.2951 Y33.9472
G01 X20.4538 Y34.1058
G01 X20.6375 Y34.2345
G01 X20.6966 Y34.2623
G01 X20.7517 Y34.3101
G01 X20.7539 Y34.3134
G01 X20.7553 Y34.3168
G01 X20.7755 Y34.3837
G01 X20.7763 Y34.3886
G01 X20.7756 Y34.3942
G01 X20.7558 Y34.4634
G01 X20.7538 Y34.4669
G01 X20.7512 Y34.4699
G01 X20.6968 Y34.5177
G01 X20.6940 Y34.5192
G01 X20.6375 Y34.5456
G01 X20.4803 Y34.6556
G01 X20.4756 Y34.6577
G01 X20.4056 Y34.6780
G01 X19.5292 Y34.6781
G01 X19.4750 Y34.6665
G01 X19.4703 Y34.6648
G01 X19.4668 Y34.6624
G01 X19.4136 Y34.6163
G01 X19.4105 Y34.6125
G01 X19.4085 Y34.6085
G01 X19.3886 Y34.5408
G01 X19.3879 Y34.5355
G01 X19.3879 Y30.6474
G01 X19.3885 Y30.6375
G01 X19.3926 Y30.6051
G01 X19.3881 Y30.5451
G01 X19.3879 Y30.4802
G01 X19.3813 Y30.4481
G01 X19.3801 Y30.4395
G01 X19.3775 Y30.4059
G01 X19.3598 Y30.3435
G01 X19.3477 Y30.2846
G01 X19.3347 Y30.2543
G01 X19.3318 Y30.2463
G01 X19.3225 Y30.2139
G01 X19.2947 Y30.1606
G01 X19.2689 Y30.1010
G01 X19.2502 Y30.0741
G01 X19.2457 Y30.0667
G01 X19.2301 Y30.0369
G01 X19.1892 Y29.9865
G01 X19.1548 Y29.9371
G01 X19.0913 Y29.8767
G01 X17.8354 Y28.6208
G01 X17.8327 Y28.6174
G01 X17.8020 Y28.5671
G01 X17.8003 Y28.5631
G01 X17.7995 Y28.5586
G01 X17.7979 Y28.4884
G01 X17.7981 Y28.4852
G01 X17.8573 Y28.2635
G01 X17.8769 Y28.0400
G01 X17.8573 Y27.8166
G01 X17.7993 Y27.5999
G01 X17.7045 Y27.3966
G01 X17.5758 Y27.2129
G01 X17.4172 Y27.0543
G01 X17.2335 Y26.9256
G01 X17.0302 Y26.8308
G01 X16.8135 Y26.7728
G01 X16.5900 Y26.7532
G01 X16.3666 Y26.7728
G01 X16.1499 Y26.8308
G01 X15.9466 Y26.9256
G01 X15.7629 Y27.0543
G01 X15.6043 Y27.2129
G01 X15.4756 Y27.3966
G01 X15.3808 Y27.5999
G01 X15.3228 Y27.8166
G01 X15.3032 Y28.0401
G01 X15.3228 Y28.2635
G01 X15.3808 Y28.4802
G01 X15.4756 Y28.6835
G01 X15.5918 Y28.8494
G01 X15.5934 Y28.8522
G01 X15.6166 Y28.9172
G01 X15.6185 Y28.9383
G01 X15.6351 Y28.9962
G01 X15.6483 Y29.0597
G01 X15.6615 Y29.0906
G01 X15.6644 Y29.0987
G01 X15.6735 Y29.1303
G01 X15.7033 Y29.1879
G01 X15.7271 Y29.2432
G01 X15.7458 Y29.2701
G01 X15.7503 Y29.2775
G01 X15.7659 Y29.3073
G01 X15.8068 Y29.3577
G01 X15.8411 Y29.4071
G01 X15.9047 Y29.4675
G01 X17.3825 Y30.9453
G01 X17.4006 Y30.9677
G01 X17.4029 Y30.9716
G01 X17.4232 Y31.0406
G01 X17.4240 Y31.0449
G01 X17.4240 Y35.5744
G01 X17.4225 Y35.5950
G01 X17.4202 Y35.6101
G01 X17.4240 Y35.6870
G01 X17.4240 Y44.8597
G01 X17.4210 Y44.8881
G01 X17.4199 Y44.8924
G01 X17.3887 Y44.9499
G01 X17.3868 Y44.9541
G01 X17.3817 Y44.9606
G01 X17.2527 Y45.1448
G01 X17.2339 Y45.1667
G01 X17.2291 Y45.1701
G01 X17.1668 Y45.2016
G01 X17.1620 Y45.2032
G01 X17.1565 Y45.2035
G01 X17.0861 Y45.1962
G01 X17.0817 Y45.1949
G01 X17.0777 Y45.1926
G01 X17.0207 Y45.1468
G01 X16.8902 Y44.9606
G01 X16.7254 Y44.7958
G01 X16.5344 Y44.6621
G01 X16.3232 Y44.5636
G01 X16.0981 Y44.5033
G01 X15.9742 Y44.4925
G01 X15.9558 Y44.4896
G01 X15.9514 Y44.4879
G01 X15.8901 Y44.4544
G01 X15.8872 Y44.4525
G01 X14.6843 Y43.2498
G01 X14.6663 Y43.2274
G01 X14.6640 Y43.2235
G01 X14.6431 Y43.1524
G01 X14.6429 Y43.1493
G01 X14.6431 Y41.6109
G01 X14.6439 Y41.6068
G01 X14.6675 Y41.5378
G01 X14.7754 Y41.3835
G01 X14.8702 Y41.1802
G01 X14.9282 Y40.9635
G01 X14.9478 Y40.7400
G01 X14.9282 Y40.5166
G01 X14.8702 Y40.2999
G01 X14.7754 Y40.0966
G01 X14.6467 Y39.9129
G01 X14.4881 Y39.7543
G01 X14.3043 Y39.6256
G01 X14.2452 Y39.5977
G01 X14.1918 Y39.5516
G01 X14.1886 Y39.5479
G01 X14.1867 Y39.5437
G01 X14.1662 Y39.4760
G01 X14.1656 Y39.4729
G01 X14.1656 Y39.4697
G01 X14.1662 Y39.4659
G01 X14.1855 Y39.3984
G01 X14.1873 Y39.3943
G01 X14.1898 Y39.3910
G01 X14.2451 Y39.3424
G01 X14.2478 Y39.3409
G01 X14.3043 Y39.3145
G01 X14.4881 Y39.1858
G01 X14.6467 Y39.0272
G01 X14.7754 Y38.8435
G01 X14.8702 Y38.6402
G01 X14.9282 Y38.4235
G01 X14.9478 Y38.2000
G01 X14.9282 Y37.9766
G01 X14.8702 Y37.7599
G01 X14.7754 Y37.5566
G01 X14.6467 Y37.3729
G01 X14.4881 Y37.2143
G01 X14.3043 Y37.0856
G01 X14.2452 Y37.0577
G01 X14.1908 Y37.0107
G01 X14.1884 Y37.0075
G01 X14.1867 Y37.0037
G01 X14.1663 Y36.9364
G01 X14.1655 Y36.9306
G01 X14.1662 Y36.9259
G01 X14.1855 Y36.8584
G01 X14.1875 Y36.8539
G01 X14.1907 Y36.8502
G01 X14.2451 Y36.8024
G01 X14.2478 Y36.8009
G01 X14.3043 Y36.7745
G01 X14.4881 Y36.6458
G01 X14.6467 Y36.4872
G01 X14.7754 Y36.3035
G01 X14.8619 Y36.1180
G01 X14.8702 Y36.1002
G01 X14.9282 Y35.8835
G01 X14.9478 Y35.6600
G01 X14.9282 Y35.4366
G01 X14.8702 Y35.2199
G01 X14.7754 Y35.0166
G01 X14.6467 Y34.8329
G01 X14.4881 Y34.6743
G01 X14.4645 Y34.6577
G01 X14.4484 Y34.6445
G01 X14.4461 Y34.6414
G01 X14.4103 Y34.5809
G01 X14.4084 Y34.5764
G01 X14.4079 Y34.5719
G01 X14.4104 Y34.5014
G01 X14.4115 Y34.4958
G01 X14.4137 Y34.4915
G01 X14.4535 Y34.4341
G01 X14.4575 Y34.4300
G01 X14.4617 Y34.4275
G01 X14.5271 Y34.4005
G01 X14.5309 Y34.3995
G01 X14.5641 Y34.3959
G01 X14.6943 Y34.3474
G01 X14.8052 Y34.2643
G01 X14.8883 Y34.1534
G01 X14.9368 Y34.0232
G01 X14.9429 Y33.9669
G01 X14.9429 Y32.2732
G01 X14.9368 Y32.2169
G01 X14.8883 Y32.0867
G01 X14.8052 Y31.9758
G01 X14.6943 Y31.8927
G01 X14.5641 Y31.8442
G01 X14.5078 Y31.8381
G01 X12.8140 Y31.8381
G01 X12.7577 Y31.8442
G01 X12.6276 Y31.8927
G01 X12.5166 Y31.9758
G01 X12.4336 Y32.0867
G01 X12.3850 Y32.2169
G01 X12.3790 Y32.2732
G01 X12.3790 Y32.9803
G01 X12.3786 Y32.9898
G01 X12.3776 Y32.9952
G01 X12.3531 Y33.0611
G01 X12.3512 Y33.0648
G01 X12.3485 Y33.0680
G01 X12.2905 Y33.1116
G01 X12.2860 Y33.1139
G01 X12.2811 Y33.1150
G01 X12.2114 Y33.1199
G01 X12.2060 Y33.1195
G01 X12.2012 Y33.1177
G01 X12.1394 Y33.0840
G01 X12.1356 Y33.0811
G01 X11.8083 Y32.7536
G01 X11.7913 Y32.7324
G01 X11.7890 Y32.7285
G01 X11.7686 Y32.6595
G01 X11.7679 Y32.6543
G01 X11.7679 Y28.5058
G01 X11.7709 Y28.4771
G01 X11.7721 Y28.4724
G01 X11.8065 Y28.4093
G01 X11.8087 Y28.4061
G01 X16.2309 Y23.9838
G01 X16.2535 Y23.9654
G01 X16.2575 Y23.9631
G01 X16.3295 Y23.9421
G01 X23.0201 Y23.9420
G01 X23.0489 Y23.9450
G01 X23.0536 Y23.9463
G01 X23.1167 Y23.9806
G01 X23.1209 Y23.9838
G01 X27.8239 Y28.6867
G01 X27.8305 Y28.6942
G01 X27.8505 Y28.7201
G01 X27.8962 Y28.7593
G01 X27.9422 Y28.8050
G01 X27.9703 Y28.8235
G01 X27.9774 Y28.8290
G01 X28.0021 Y28.8502
G01 X28.0547 Y28.8794
G01 X28.1089 Y28.9149
G01 X28.1402 Y28.9274
G01 X28.1480 Y28.9311
G01 X28.1767 Y28.9471
G01 X28.2385 Y28.9667
G01 X28.2944 Y28.9890
G01 X28.3267 Y28.9948
G01 X28.3351 Y28.9968
G01 X28.3672 Y29.0069
G01 X28.4131 Y29.0117
G01 X28.4755 Y29.0349
G01 X28.6466 Y29.1545
G01 X28.8499 Y29.2493
G01 X29.0666 Y29.3073
G01 X29.2901 Y29.3269
G01 X29.5135 Y29.3073
G01 X29.7302 Y29.2493
G01 X29.9335 Y29.1545
G01 X30.0938 Y29.0422
G01 X30.0971 Y29.0404
G01 X30.1461 Y29.0195
G01 X30.1662 Y29.0154
G01 X30.1751 Y29.0141
G01 X30.2083 Y29.0116
G01 X30.2707 Y28.9939
G01 X30.3296 Y28.9818
G01 X30.3606 Y28.9686
G01 X30.3687 Y28.9657
G01 X30.4003 Y28.9566
G01 X30.4536 Y28.9288
G01 X30.5132 Y28.9030
G01 X30.5408 Y28.8838
G01 X30.5484 Y28.8793
G01 X30.5773 Y28.8642
G01 X30.6277 Y28.8233
G01 X30.6771 Y28.7890
G01 X30.7375 Y28.7254
G01 X32.6491 Y26.8138
G01 X32.6621 Y26.8023
G01 X32.6673 Y26.7993
G01 X32.7341 Y26.7732
G01 X32.7375 Y26.7726
G01 X32.7976 Y26.7673
G01 X33.0143 Y26.7093
G01 X33.2176 Y26.6145
G01 X33.4013 Y26.4858
G01 X33.5600 Y26.3272
G01 X33.6886 Y26.1435
G01 X33.7834 Y25.9402
G01 X33.8415 Y25.7235
G01 X33.8610 Y25.5000
G01 X33.8415 Y25.2766
G01 X33.7834 Y25.0599
G01 X33.6886 Y24.8566
G01 X33.5600 Y24.6729
G01 X33.4013 Y24.5143
G01 X33.2176 Y24.3856
G01 X33.0143 Y24.2908
G01 X32.7976 Y24.2328
G01 X32.5742 Y24.2132
G01 X32.3507 Y24.2328
G01 X32.1340 Y24.2908
G01 X31.9308 Y24.3856
G01 X31.7470 Y24.5143
G01 X31.5884 Y24.6729
G01 X31.4597 Y24.8566
G01 X31.3649 Y25.0599
G01 X31.3069 Y25.2766
G01 X31.3016 Y25.3372
G01 X31.2987 Y25.3556
G01 X31.2971 Y25.3596
G01 X31.2619 Y25.4235
G01 X29.8857 Y26.7998
G01 X29.8764 Y26.8083
G01 X29.8729 Y26.8104
G01 X29.8087 Y26.8390
G01 X29.8043 Y26.8403
G01 X29.7999 Y26.8404
G01 X29.7481 Y26.8325
G01 X29.7430 Y26.8337
G01 X29.7375 Y26.8333
G01 X29.7309 Y26.8310
G01 X29.5135 Y26.7728
G01 X29.2900 Y26.7532
G01 X29.0666 Y26.7728
G01 X28.8461 Y26.8318
G01 X28.8426 Y26.8322
G01 X28.7841 Y26.8336
G01 X28.7789 Y26.8330
G01 X28.7748 Y26.8314
G01 X28.7135 Y26.7979
G01 X28.7093 Y26.7947
G01 X24.2279 Y22.3133
G01 X24.2214 Y22.3059
G01 X24.2013 Y22.2800
G01 X24.1522 Y22.2376
G01 X24.1097 Y22.1951
G01 X24.0826 Y22.1772
G01 X24.0753 Y22.1718
G01 X24.0498 Y22.1499
G01 X23.9932 Y22.1183
G01 X23.9429 Y22.0852
G01 X23.9128 Y22.0732
G01 X23.9046 Y22.0693
G01 X23.8752 Y22.0530
G01 X23.8133 Y22.0334
G01 X23.7573 Y22.0111
G01 X23.7251 Y22.0053
G01 X23.7167 Y22.0033
G01 X23.6846 Y21.9932
G01 X23.6201 Y21.9865
G01 X23.5609 Y21.9759
G01 X23.4732 Y21.9781
G01 X18.5653 Y21.9781
G01 X18.5380 Y21.9755
G01 X18.5349 Y21.9747
G01 X18.5322 Y21.9735
G01 X18.4703 Y21.9410
G01 X18.4662 Y21.9381
G01 X18.4628 Y21.9338
G01 X18.4284 Y21.8730
G01 X18.4265 Y21.8683
G01 X18.4260 Y21.8628
G01 X18.4299 Y21.7930
G01 X18.4309 Y21.7878
G01 X18.4334 Y21.7832
G01 X18.4744 Y21.7266
G01 X18.4773 Y21.7234
G01 X18.4822 Y21.7204
G01 X18.5500 Y21.6940
G01 X18.6293 Y21.6869
G01 X18.8459 Y21.6288
G01 X19.0491 Y21.5341
G01 X19.1026 Y21.4966
G01 X18.7621 Y21.1560
G01 X18.7188 Y21.1765
G01 X18.6439 Y21.2032
G01 X18.5660 Y21.2228
G01 X18.4862 Y21.2347
G01 X18.4059 Y21.2386
G01 X18.3257 Y21.2347
G01 X18.2458 Y21.2228
G01 X18.1679 Y21.2032
G01 X18.0931 Y21.1765
G01 X18.0497 Y21.1560
G01 X17.7092 Y21.4966
G01 X17.7627 Y21.5341
G01 X17.9660 Y21.6288
G01 X18.1826 Y21.6869
G01 X18.2595 Y21.6936
G01 X18.2869 Y21.6988
G01 X18.2914 Y21.7008
G01 X18.3514 Y21.7395
G01 X18.3547 Y21.7426
G01 X18.3570 Y21.7462
G01 X18.3862 Y21.8102
G01 X18.3876 Y21.8147
G01 X18.3877 Y21.8205
G01 X18.3777 Y21.8897
G01 X18.3763 Y21.8946
G01 X18.3734 Y21.8992
G01 X18.3274 Y21.9523
G01 X18.3240 Y21.9553
G01 X18.3199 Y21.9573
G01 X18.2518 Y21.9773
G01 X18.2466 Y21.9781
G01 X15.9333 Y21.9781
G01 X15.9234 Y21.9775
G01 X15.8909 Y21.9734
G01 X15.8309 Y21.9779
G01 X15.7661 Y21.9781
G01 X15.7339 Y21.9847
G01 X15.7253 Y21.9859
G01 X15.6918 Y21.9885
G01 X15.6339 Y22.0051
G01 X15.5704 Y22.0183
G01 X15.5395 Y22.0315
G01 X15.5314 Y22.0344
G01 X15.4998 Y22.0435
G01 X15.4422 Y22.0733
G01 X15.3869 Y22.0971
G01 X15.3600 Y22.1158
G01 X15.3526 Y22.1203
G01 X15.3228 Y22.1359
G01 X15.2761 Y22.1739
G01 X15.2230 Y22.2111
G01 X15.1626 Y22.2747
G01 X10.1392 Y27.2981
G01 X10.1318 Y27.3046
G01 X10.1059 Y27.3247
G01 X10.0635 Y27.3738
G01 X10.0210 Y27.4163
G01 X10.0029 Y27.4437
G01 X9.9977 Y27.4506
G01 X9.9758 Y27.4762
G01 X9.9442 Y27.5328
G01 X9.9111 Y27.5831
G01 X9.8986 Y27.6143
G01 X9.8948 Y27.6221
G01 X9.8789 Y27.6508
G01 X9.8593 Y27.7127
G01 X9.8370 Y27.7685
G01 X9.8312 Y27.8009
G01 X9.8291 Y27.8093
G01 X9.8191 Y27.8414
G01 X9.8124 Y27.9059
G01 X9.8018 Y27.9651
G01 X9.8040 Y28.0528
G01 X9.8040 Y33.0527
G01 X9.8034 Y33.0626
G01 X9.7992 Y33.0951
G01 X9.8038 Y33.1550
G01 X9.8040 Y33.2199
G01 X9.8107 Y33.2529
G01 X9.8119 Y33.2614
G01 X9.8144 Y33.2942
G01 X9.8309 Y33.3520
G01 X9.8442 Y33.4155
G01 X9.8574 Y33.4465
G01 X9.8603 Y33.4546
G01 X9.8693 Y33.4862
G01 X9.8992 Y33.5438
G01 X9.9229 Y33.5990
G01 X9.9417 Y33.6260
G01 X9.9462 Y33.6334
G01 X9.9618 Y33.6632
G01 X10.0026 Y33.7136
G01 X10.0370 Y33.7630
G01 X10.1006 Y33.8234
G01 X12.4992 Y36.2220
G01 X12.5264 Y36.2606
G01 X12.5465 Y36.3035
G01 X12.6751 Y36.4872
G01 X12.8338 Y36.6458
G01 X13.0175 Y36.7745
G01 X13.0766 Y36.8023
G01 X13.1310 Y36.8494
G01 X13.1335 Y36.8526
G01 X13.1352 Y36.8564
G01 X13.1555 Y36.9237
G01 X13.1563 Y36.9286
G01 X13.1556 Y36.9342
G01 X13.1365 Y37.0013
G01 X13.1343 Y37.0062
G01 X13.1309 Y37.0102
G01 X13.0768 Y37.0577
G01 X13.0740 Y37.0592
G01 X13.0175 Y37.0856
G01 X12.8598 Y37.1958
G01 X12.8556 Y37.1977
G01 X12.7886 Y37.2173
G01 X12.7851 Y37.2180
G01 X11.2517 Y37.2181
G01 X11.2229 Y37.2151
G01 X11.2174 Y37.2135
G01 X11.1551 Y37.1795
G01 X11.1509 Y37.1763
G01 X9.2696 Y35.2951
G01 X9.2513 Y35.2724
G01 X9.2490 Y35.2685
G01 X9.2286 Y35.1995
G01 X9.2279 Y35.1943
G00 Z2.0000
G00 X7.5850 Y42.9589
G01 F60.00
G01 Z-0.1049
G01 F120.00
G01 X7.5817 Y42.9659
G01 X7.5583 Y43.0315
G01 X7.5412 Y43.0999
G01 X7.5308 Y43.1696
G01 X7.5274 Y43.2400
G01 X7.5308 Y43.3105
G01 X7.5412 Y43.3802
G01 X7.5583 Y43.4486
G01 X7.5817 Y43.5142
G01 X7.5850 Y43.5212
G01 X7.2390 Y43.8672
G01 X7.2371 Y43.8647
G01 X7.1395 Y43.6687
G01 X7.0796 Y43.4581
G01 X7.0594 Y43.2401
G01 X7.0796 Y43.0220
G01 X7.1395 Y42.8114
G01 X7.2371 Y42.6154
G01 X7.2390 Y42.6129
G01 X7.5850 Y42.9589
G00 Z2.0000
G00 X7.7171 Y44.3022
G01 F60.00
G01 Z-0.1049
G01 F120.00
G01 X7.6223 Y44.2435
G01 X7.9648 Y43.9010
G01 X7.9718 Y43.9042
G01 X8.0374 Y43.9277
G01 X8.1058 Y43.9448
G01 X8.1755 Y43.9551
G01 X8.2459 Y43.9586
G01 X8.3164 Y43.9551
G01 X8.3861 Y43.9448
G01 X8.4545 Y43.9277
G01 X8.5201 Y43.9042
G01 X8.5271 Y43.9010
G01 X8.8696 Y44.2435
G01 X8.7748 Y44.3022
G01 X8.5706 Y44.3813
G01 X8.3554 Y44.4215
G01 X8.1365 Y44.4215
G01 X7.9212 Y44.3813
G01 X7.7171 Y44.3022
G00 Z2.0000
G00 X8.9069 Y43.5212
G01 F60.00
G01 Z-0.1049
G01 F120.00
G01 X8.9101 Y43.5142
G01 X8.9336 Y43.4486
G01 X8.9507 Y43.3802
G01 X8.9610 Y43.3105
G01 X8.9645 Y43.2400
G01 X8.9610 Y43.1696
G01 X8.9507 Y43.0999
G01 X8.9336 Y43.0315
G01 X8.9101 Y42.9659
G01 X8.9069 Y42.9589
G01 X9.2528 Y42.6129
G01 X9.2547 Y42.6154
G01 X9.3523 Y42.8114
G01 X9.3788 Y42.9046
G01 X9.3807 Y42.9090
G01 X9.4182 Y42.9685
G01 X9.4219 Y42.9727
G01 X9.4261 Y42.9754
G01 X9.4906 Y43.0055
G01 X9.4949 Y43.0065
G01 X9.4993 Y43.0066
G01 X9.5690 Y42.9972
G01 X9.5735 Y42.9959
G01 X9.5785 Y42.9929
G01 X9.6317 Y42.9476
G01 X9.6346 Y42.9445
G01 X9.6365 Y42.9412
G01 X9.6528 Y42.9055
G01 X9.6795 Y42.8114
G01 X9.7771 Y42.6154
G01 X9.7790 Y42.6129
G01 X10.1250 Y42.9589
G01 X10.1217 Y42.9659
G01 X10.0983 Y43.0315
G01 X10.0812 Y43.0999
G01 X10.0708 Y43.1696
G01 X10.0674 Y43.2400
G01 X10.0708 Y43.3105
G01 X10.0812 Y43.3802
G01 X10.0983 Y43.4486
G01 X10.1217 Y43.5142
G01 X10.1250 Y43.5212
G01 X9.7790 Y43.8672
G01 X9.7771 Y43.8647
G01 X9.6795 Y43.6687
G01 X9.6530 Y43.5755
G01 X9.6511 Y43.5711
G01 X9.6136 Y43.5116
G01 X9.6100 Y43.5074
G01 X9.6058 Y43.5047
G01 X9.5416 Y43.4748
G01 X9.5372 Y43.4736
G01 X9.5326 Y43.4735
G01 X9.4629 Y43.4829
G01 X9.4583 Y43.4842
G01 X9.4533 Y43.4872
G01 X9.4001 Y43.5325
G01 X9.3973 Y43.5356
G01 X9.3953 Y43.5389
G01 X9.3791 Y43.5746
G01 X9.3523 Y43.6687
G01 X9.2547 Y43.8647
G01 X9.2528 Y43.8672
G01 X8.9069 Y43.5212
G00 Z2.0000
G00 X10.2571 Y44.3022
G01 F60.00
G01 Z-0.1049
G01 F120.00
G01 X10.1623 Y44.2435
G01 X10.5048 Y43.9010
G01 X10.5118 Y43.9042
G01 X10.5774 Y43.9277
G01 X10.6458 Y43.9448
G01 X10.7155 Y43.9551
G01 X10.7859 Y43.9586
G01 X10.8564 Y43.9551
G01 X10.9261 Y43.9448
G01 X10.9945 Y43.9277
G01 X11.0601 Y43.9042
G01 X11.0671 Y43.9010
G01 X11.4096 Y44.2435
G01 X11.3148 Y44.3022
G01 X11.1106 Y44.3813
G01 X10.8954 Y44.4215
G01 X10.6765 Y44.4215
G01 X10.4612 Y44.3813
G01 X10.2571 Y44.3022
G00 Z2.0000
G00 X11.4469 Y43.5212
G01 F60.00
G01 Z-0.1049
G01 F120.00
G01 X11.4501 Y43.5142
G01 X11.4736 Y43.4486
G01 X11.4907 Y43.3802
G01 X11.5010 Y43.3105
G01 X11.5045 Y43.2400
G01 X11.5010 Y43.1696
G01 X11.4907 Y43.0999
G01 X11.4736 Y43.0315
G01 X11.4501 Y42.9659
G01 X11.4469 Y42.9589
G01 X11.7928 Y42.6129
G01 X11.7947 Y42.6154
G01 X11.8923 Y42.8114
G01 X11.9522 Y43.0220
G01 X11.9724 Y43.2400
G01 X11.9522 Y43.4581
G01 X11.8923 Y43.6687
G01 X11.7947 Y43.8647
G01 X11.7928 Y43.8672
G01 X11.4469 Y43.5212
G00 Z2.0000
G00 X21.2818 Y39.9215
G01 F60.00
G01 Z-0.1049
G01 F120.00
G01 X21.3612 Y39.9254
G01 X21.4406 Y39.9372
G01 X21.5185 Y39.9567
G01 X21.5942 Y39.9838
G01 X21.6668 Y40.0181
G01 X21.7357 Y40.0594
G01 X21.8002 Y40.1073
G01 X21.8597 Y40.1612
G01 X21.9137 Y40.2208
G01 X21.9615 Y40.2853
G01 X22.0028 Y40.3542
G01 X22.0372 Y40.4268
G01 X22.0642 Y40.5025
G01 X22.0838 Y40.5804
G01 X22.0955 Y40.6598
G01 X22.0995 Y40.7400
G01 X22.0955 Y40.8203
G01 X22.0838 Y40.8997
G01 X22.0642 Y40.9776
G01 X22.0372 Y41.0533
G01 X22.0028 Y41.1259
G01 X21.9615 Y41.1948
G01 X21.9137 Y41.2593
G01 X21.8597 Y41.3189
G01 X21.8002 Y41.3728
G01 X21.7357 Y41.4207
G01 X21.6668 Y41.4620
G01 X21.5942 Y41.4963
G01 X21.5185 Y41.5234
G01 X21.4406 Y41.5429
G01 X21.3612 Y41.5547
G01 X21.2809 Y41.5586
G01 X21.2007 Y41.5547
G01 X21.1213 Y41.5429
G01 X21.0434 Y41.5234
G01 X20.9677 Y41.4963
G01 X20.8951 Y41.4620
G01 X20.8262 Y41.4207
G01 X20.7617 Y41.3728
G01 X20.7021 Y41.3189
G01 X20.6482 Y41.2593
G01 X20.6003 Y41.1948
G01 X20.5590 Y41.1259
G01 X20.5247 Y41.0533
G01 X20.4976 Y40.9776
G01 X20.4781 Y40.8997
G01 X20.4663 Y40.8203
G01 X20.4624 Y40.7400
G01 X20.4663 Y40.6598
G01 X20.4781 Y40.5804
G01 X20.4976 Y40.5025
G01 X20.5247 Y40.4268
G01 X20.5590 Y40.3542
G01 X20.6003 Y40.2853
G01 X20.6482 Y40.2208
G01 X20.7021 Y40.1612
G01 X20.7617 Y40.1073
G01 X20.8262 Y40.0594
G01 X20.8951 Y40.0181
G01 X20.9677 Y39.9838
G01 X21.0434 Y39.9567
G01 X21.1213 Y39.9372
G01 X21.2007 Y39.9254
G01 X21.2818 Y39.9215
G00 Z2.0000
G00 X21.2818 Y37.3815
G01 F60.00
G01 Z-0.1049
G01 F120.00
G01 X21.3612 Y37.3854
G01 X21.4397 Y37.3971
G01 X21.5177 Y37.4165
G01 X21.5942 Y37.4438
G01 X21.6660 Y37.4777
G01 X21.7357 Y37.5194
G01 X21.8002 Y37.5673
G01 X21.8597 Y37.6212
G01 X21.9141 Y37.6812
G01 X24.4579 Y37.6812
G01 X24.4984 Y37.6446
G01 X24.5550 Y37.6026
G01 X24.6155 Y37.5663
G01 X24.6792 Y37.5362
G01 X24.7456 Y37.5124
G01 X24.8140 Y37.4953
G01 X24.8837 Y37.4850
G01 X24.9542 Y37.4815
G01 X25.0246 Y37.4850
G01 X25.0943 Y37.4953
G01 X25.1627 Y37.5124
G01 X25.2292 Y37.5362
G01 X25.2929 Y37.5663
G01 X25.3534 Y37.6026
G01 X25.4100 Y37.6446
G01 X25.4505 Y37.6812
G01 X26.9979 Y37.6812
G01 X27.0384 Y37.6446
G01 X27.0950 Y37.6026
G01 X27.1555 Y37.5663
G01 X27.2192 Y37.5362
G01 X27.2856 Y37.5124
G01 X27.3540 Y37.4953
G01 X27.4237 Y37.4850
G01 X27.4942 Y37.4815
G01 X27.5646 Y37.4850
G01 X27.6343 Y37.4953
G01 X27.7027 Y37.5124
G01 X27.7692 Y37.5362
G01 X27.8329 Y37.5663
G01 X27.8934 Y37.6026
G01 X27.9500 Y37.6446
G01 X27.9905 Y37.6812
G01 X28.3110 Y37.6812
G01 X35.4681 Y30.5241
G01 X35.4708 Y30.4696
G01 X35.4810 Y30.4008
G01 X35.4983 Y30.3315
G01 X35.5224 Y30.2642
G01 X35.5522 Y30.2014
G01 X35.5880 Y30.1416
G01 X35.6305 Y30.0842
G01 X35.6785 Y30.0313
G01 X35.7301 Y29.9846
G01 X35.7860 Y29.9431
G01 X35.8468 Y29.9066
G01 X35.9118 Y29.8759
G01 X35.9774 Y29.8524
G01 X36.0458 Y29.8353
G01 X36.1164 Y29.8249
G01 X36.1859 Y29.8215
G01 X36.2559 Y29.8249
G01 X36.3261 Y29.8353
G01 X36.3945 Y29.8524
G01 X36.4609 Y29.8762
G01 X36.5242 Y29.9061
G01 X36.5851 Y29.9426
G01 X36.6414 Y29.9843
G01 X36.6937 Y30.0316
G01 X36.7206 Y30.0612
G01 X38.1913 Y30.0612
G01 X38.2182 Y30.0316
G01 X38.2698 Y29.9849
G01 X38.3264 Y29.9428
G01 X38.3872 Y29.9063
G01 X38.4505 Y29.8764
G01 X38.5174 Y29.8524
G01 X38.5858 Y29.8353
G01 X38.6555 Y29.8250
G01 X38.7264 Y29.8215
G01 X38.7964 Y29.8250
G01 X38.8661 Y29.8353
G01 X38.9345 Y29.8524
G01 X39.0013 Y29.8764
G01 X39.0646 Y29.9063
G01 X39.1255 Y29.9428
G01 X39.1821 Y29.9849
G01 X39.2337 Y30.0316
G01 X39.2606 Y30.0612
G01 X41.8928 Y30.0612
G01 X41.9471 Y30.0012
G01 X42.0074 Y29.9467
G01 X42.0712 Y29.8994
G01 X42.1393 Y29.8586
G01 X42.2127 Y29.8238
G01 X42.2892 Y29.7965
G01 X42.3663 Y29.7772
G01 X42.4448 Y29.7656
G01 X42.5259 Y29.7615
G01 X42.6066 Y29.7655
G01 X42.6856 Y29.7772
G01 X42.7635 Y29.7967
G01 X42.8392 Y29.8238
G01 X42.9110 Y29.8577
G01 X42.9807 Y29.8994
G01 X43.0445 Y29.9467
G01 X43.1054 Y30.0019
G01 X43.1587 Y30.0608
G01 X43.2065 Y30.1253
G01 X43.2478 Y30.1942
G01 X43.2822 Y30.2668
G01 X43.3092 Y30.3425
G01 X43.3288 Y30.4204
G01 X43.3405 Y30.4998
G01 X43.3445 Y30.5791
G01 X43.3405 Y30.6603
G01 X43.3289 Y30.7388
G01 X43.3089 Y30.8185
G01 X43.2822 Y30.8933
G01 X43.2478 Y30.9659
G01 X43.2065 Y31.0348
G01 X43.1587 Y31.0993
G01 X43.1047 Y31.1589
G01 X43.0459 Y31.2122
G01 X42.9799 Y31.2611
G01 X42.9118 Y31.3020
G01 X42.8392 Y31.3363
G01 X42.7635 Y31.3634
G01 X42.6860 Y31.3828
G01 X42.6052 Y31.3947
G01 X42.5259 Y31.3986
G01 X42.4457 Y31.3947
G01 X42.3653 Y31.3827
G01 X42.2884 Y31.3634
G01 X42.2135 Y31.3366
G01 X42.1401 Y31.3020
G01 X42.0704 Y31.2601
G01 X42.0067 Y31.2128
G01 X41.9478 Y31.1595
G01 X41.8928 Y31.0989
G01 X39.1773 Y31.0989
G01 X39.1251 Y31.1375
G01 X39.0646 Y31.1738
G01 X39.0009 Y31.2039
G01 X38.9354 Y31.2274
G01 X38.8652 Y31.2449
G01 X38.7964 Y31.2551
G01 X38.7259 Y31.2586
G01 X38.6555 Y31.2551
G01 X38.5866 Y31.2449
G01 X38.5165 Y31.2274
G01 X38.4509 Y31.2039
G01 X38.3872 Y31.1738
G01 X38.3267 Y31.1375
G01 X38.2746 Y31.0989
G01 X36.6373 Y31.0989
G01 X36.5851 Y31.1375
G01 X36.5254 Y31.1733
G01 X36.4601 Y31.2042
G01 X36.3945 Y31.2277
G01 X36.3261 Y31.2448
G01 X36.2564 Y31.2551
G01 X36.2018 Y31.2578
G01 X28.8928 Y38.5669
G01 X28.8550 Y38.6011
G01 X28.8138 Y38.6317
G01 X28.7700 Y38.6578
G01 X28.7249 Y38.6792
G01 X28.7117 Y38.6839
G01 X30.2491 Y40.2212
G01 X46.3459 Y40.2212
G01 X46.3977 Y40.2239
G01 X46.4471 Y40.2312
G01 X46.4961 Y40.2435
G01 X46.5445 Y40.2607
G01 X46.5913 Y40.2830
G01 X46.6341 Y40.3087
G01 X46.6743 Y40.3385
G01 X46.7128 Y40.3732
G01 X51.6408 Y45.3012
G01 X59.0459 Y45.3012
G01 X59.0968 Y45.3038
G01 X59.1480 Y45.3114
G01 X59.1965 Y45.3236
G01 X59.2436 Y45.3404
G01 X59.2905 Y45.3625
G01 X59.3349 Y45.3892
G01 X59.3750 Y45.4190
G01 X59.4124 Y45.4529
G01 X61.8008 Y47.8412
G01 X77.6081 Y47.8412
G01 X80.8412 Y44.6081
G01 X80.8412 Y39.1291
G01 X79.4468 Y37.7346
G01 X79.3659 Y37.7386
G01 X79.2857 Y37.7347
G01 X79.2063 Y37.7229
G01 X79.1274 Y37.7031
G01 X79.0527 Y37.6763
G01 X78.9809 Y37.6424
G01 X78.9119 Y37.6011
G01 X78.8467 Y37.5528
G01 X78.7871 Y37.4989
G01 X78.7332 Y37.4393
G01 X78.6848 Y37.3740
G01 X78.6436 Y37.3051
G01 X78.6097 Y37.2333
G01 X78.5829 Y37.1585
G01 X78.5631 Y37.0797
G01 X78.5513 Y37.0003
G01 X78.5474 Y36.9200
G01 X78.5514 Y36.8392
G01 X77.8510 Y36.1389
G01 X77.3222 Y36.1389
G01 X77.2817 Y36.1755
G01 X77.2251 Y36.2175
G01 X77.1646 Y36.2538
G01 X77.1009 Y36.2839
G01 X77.0345 Y36.3077
G01 X76.9661 Y36.3248
G01 X76.8964 Y36.3351
G01 X76.8259 Y36.3386
G01 X76.7555 Y36.3351
G01 X76.6858 Y36.3248
G01 X76.6174 Y36.3077
G01 X76.5509 Y36.2839
G01 X76.4872 Y36.2538
G01 X76.4267 Y36.2175
G01 X76.3701 Y36.1755
G01 X76.3296 Y36.1389
G01 X74.7822 Y36.1389
G01 X74.7417 Y36.1755
G01 X74.6851 Y36.2175
G01 X74.6246 Y36.2538
G01 X74.5613 Y36.2837
G01 X74.4945 Y36.3077
G01 X74.4265 Y36.3247
G01 X74.3568 Y36.3351
G01 X74.3229 Y36.3368
G01 X70.0179 Y40.6418
G01 X70.0206 Y40.6603
G01 X70.0245 Y40.7396
G01 X70.0205 Y40.8207
G01 X70.0088 Y40.8997
G01 X69.9895 Y40.9768
G01 X69.9622 Y41.0533
G01 X69.9274 Y41.1267
G01 X69.8865 Y41.1948
G01 X69.8392 Y41.2586
G01 X69.7847 Y41.3189
G01 X69.7245 Y41.3734
G01 X69.6607 Y41.4207
G01 X69.5926 Y41.4615
G01 X69.5192 Y41.4963
G01 X69.4427 Y41.5236
G01 X69.3656 Y41.5429
G01 X69.2871 Y41.5545
G01 X69.2059 Y41.5586
G01 X69.1248 Y41.5545
G01 X69.0463 Y41.5429
G01 X68.9692 Y41.5236
G01 X68.8927 Y41.4963
G01 X68.8193 Y41.4615
G01 X68.7512 Y41.4207
G01 X68.6867 Y41.3728
G01 X68.6265 Y41.3182
G01 X68.5732 Y41.2593
G01 X68.5258 Y41.1956
G01 X68.4836 Y41.1251
G01 X68.4497 Y41.0533
G01 X68.4229 Y40.9785
G01 X68.4031 Y40.8997
G01 X68.3912 Y40.8194
G01 X68.3874 Y40.7391
G01 X68.3913 Y40.6598
G01 X68.4029 Y40.5813
G01 X68.4226 Y40.5025
G01 X68.4494 Y40.4277
G01 X68.4840 Y40.3542
G01 X68.5253 Y40.2853
G01 X68.5732 Y40.2208
G01 X68.6268 Y40.1616
G01 X68.6867 Y40.1073
G01 X68.7512 Y40.0594
G01 X68.8201 Y40.0181
G01 X68.8935 Y39.9835
G01 X68.9684 Y39.9567
G01 X69.0471 Y39.9371
G01 X69.1266 Y39.9254
G01 X69.2059 Y39.9215
G01 X69.2678 Y39.9245
G01 X73.5676 Y35.6247
G01 X73.5674 Y35.6191
G01 X73.5708 Y35.5496
G01 X73.5814 Y35.4790
G01 X73.5983 Y35.4115
G01 X73.6217 Y35.3459
G01 X73.6522 Y35.2814
G01 X73.6885 Y35.2209
G01 X73.7311 Y35.1635
G01 X73.7778 Y35.1120
G01 X73.8294 Y35.0652
G01 X73.8864 Y35.0228
G01 X73.9480 Y34.9859
G01 X74.0109 Y34.9562
G01 X74.0774 Y34.9324
G01 X74.1458 Y34.9153
G01 X74.2146 Y34.9051
G01 X74.2864 Y34.9015
G01 X74.3564 Y34.9050
G01 X74.4261 Y34.9153
G01 X74.4945 Y34.9324
G01 X74.5609 Y34.9562
G01 X74.6246 Y34.9863
G01 X74.6851 Y35.0226
G01 X74.7417 Y35.0646
G01 X74.7822 Y35.1012
G01 X76.3296 Y35.1012
G01 X76.3701 Y35.0646
G01 X76.4260 Y35.0231
G01 X76.4864 Y34.9868
G01 X76.5509 Y34.9562
G01 X76.6165 Y34.9327
G01 X76.6858 Y34.9153
G01 X76.7555 Y34.9050
G01 X76.8259 Y34.9015
G01 X76.8968 Y34.9050
G01 X76.9661 Y34.9153
G01 X77.0336 Y34.9322
G01 X77.1017 Y34.9566
G01 X77.1646 Y34.9863
G01 X77.2251 Y35.0226
G01 X77.2817 Y35.0646
G01 X77.3222 Y35.1012
G01 X78.0668 Y35.1013
G01 X78.1168 Y35.1038
G01 X78.1671 Y35.1112
G01 X78.2165 Y35.1236
G01 X78.2653 Y35.1411
G01 X78.3105 Y35.1625
G01 X78.3541 Y35.1887
G01 X78.3950 Y35.2190
G01 X78.4324 Y35.2529
G01 X79.2851 Y36.1055
G01 X79.3659 Y36.1015
G01 X79.4462 Y36.1054
G01 X79.5256 Y36.1172
G01 X79.6035 Y36.1367
G01 X79.6792 Y36.1638
G01 X79.7518 Y36.1981
G01 X79.8207 Y36.2394
G01 X79.8848 Y36.2870
G01 X79.9447 Y36.3412
G01 X79.9992 Y36.4015
G01 X80.0465 Y36.4653
G01 X80.0874 Y36.5334
G01 X80.1222 Y36.6068
G01 X80.1495 Y36.6833
G01 X80.1688 Y36.7604
G01 X80.1804 Y36.8389
G01 X80.1845 Y36.9200
G01 X80.1805 Y37.0009
G01 X81.7269 Y38.5473
G01 X81.7611 Y38.5851
G01 X81.7909 Y38.6252
G01 X81.8178 Y38.6701
G01 X81.8397 Y38.7165
G01 X81.8565 Y38.7636
G01 X81.8687 Y38.8121
G01 X81.8763 Y38.8633
G01 X81.8789 Y38.9142
G01 X81.8789 Y44.8230
G01 X81.8763 Y44.8743
G01 X81.8689 Y44.9242
G01 X81.8565 Y44.9735
G01 X81.8394 Y45.0215
G01 X81.8180 Y45.0667
G01 X81.7909 Y45.1120
G01 X81.7611 Y45.1521
G01 X81.7269 Y45.1898
G01 X78.1895 Y48.7272
G01 X78.1521 Y48.7611
G01 X78.1120 Y48.7909
G01 X78.0675 Y48.8176
G01 X78.0215 Y48.8394
G01 X77.9745 Y48.8562
G01 X77.9242 Y48.8689
G01 X77.8739 Y48.8763
G01 X77.8230 Y48.8789
G01 X61.5859 Y48.8789
G01 X61.5350 Y48.8763
G01 X61.4847 Y48.8689
G01 X61.4362 Y48.8568
G01 X61.3866 Y48.8390
G01 X61.3414 Y48.8176
G01 X61.2977 Y48.7914
G01 X61.2568 Y48.7611
G01 X61.2194 Y48.7272
G01 X58.8310 Y46.3389
G01 X51.4259 Y46.3389
G01 X51.3750 Y46.3363
G01 X51.3238 Y46.3287
G01 X51.2754 Y46.3165
G01 X51.2282 Y46.2997
G01 X51.1818 Y46.2778
G01 X51.1370 Y46.2509
G01 X51.0968 Y46.2211
G01 X51.0591 Y46.1869
G01 X46.1310 Y41.2589
G01 X30.0342 Y41.2589
G01 X29.9829 Y41.2563
G01 X29.9330 Y41.2489
G01 X29.8836 Y41.2365
G01 X29.8356 Y41.2194
G01 X29.7904 Y41.1980
G01 X29.7452 Y41.1709
G01 X29.7051 Y41.1411
G01 X29.6677 Y41.1072
G01 X27.4783 Y38.9178
G01 X27.4237 Y38.9151
G01 X27.3540 Y38.9048
G01 X27.2856 Y38.8877
G01 X27.2192 Y38.8639
G01 X27.1555 Y38.8338
G01 X27.0950 Y38.7975
G01 X27.0384 Y38.7555
G01 X26.9979 Y38.7189
G01 X25.4505 Y38.7189
G01 X25.4100 Y38.7555
G01 X25.3534 Y38.7975
G01 X25.2929 Y38.8338
G01 X25.2292 Y38.8639
G01 X25.1627 Y38.8877
G01 X25.0943 Y38.9048
G01 X25.0246 Y38.9151
G01 X24.9542 Y38.9186
G01 X24.8837 Y38.9151
G01 X24.8140 Y38.9048
G01 X24.7456 Y38.8877
G01 X24.6792 Y38.8639
G01 X24.6155 Y38.8338
G01 X24.5550 Y38.7975
G01 X24.4984 Y38.7555
G01 X24.4579 Y38.7189
G01 X24.0047 Y38.7189
G01 X24.0047 Y45.1247
G01 X24.0372 Y45.1489
G01 X24.0998 Y45.2056
G01 X24.1576 Y45.2694
G01 X24.2081 Y45.3375
G01 X24.2515 Y45.4098
G01 X24.2882 Y45.4872
G01 X24.3171 Y45.5680
G01 X24.3379 Y45.6515
G01 X24.3503 Y45.7349
G01 X24.3545 Y45.8191
G01 X24.3503 Y45.9047
G01 X24.3378 Y45.9895
G01 X24.3171 Y46.0721
G01 X24.2884 Y46.1524
G01 X24.2519 Y46.2295
G01 X24.2081 Y46.3026
G01 X24.1573 Y46.3710
G01 X24.1001 Y46.4342
G01 X24.0369 Y46.4915
G01 X23.9684 Y46.5422
G01 X23.8953 Y46.5861
G01 X23.8183 Y46.6225
G01 X23.7380 Y46.6512
G01 X23.6553 Y46.6719
G01 X23.5711 Y46.6844
G01 X23.4859 Y46.6886
G01 X23.4003 Y46.6844
G01 X23.3165 Y46.6719
G01 X23.2339 Y46.6512
G01 X23.1535 Y46.6225
G01 X23.0773 Y46.5865
G01 X23.0026 Y46.5417
G01 X22.9350 Y46.4915
G01 X22.8718 Y46.4342
G01 X22.8145 Y46.3710
G01 X22.7637 Y46.3026
G01 X22.7199 Y46.2295
G01 X22.6839 Y46.1533
G01 X22.6545 Y46.0713
G01 X22.6341 Y45.9895
G01 X22.6215 Y45.9043
G01 X22.6174 Y45.8200
G01 X22.6215 Y45.7358
G01 X22.6339 Y45.6515
G01 X22.6548 Y45.5680
G01 X22.6837 Y45.4872
G01 X22.7204 Y45.4098
G01 X22.7637 Y45.3375
G01 X22.8142 Y45.2694
G01 X22.8721 Y45.2056
G01 X22.9346 Y45.1489
G01 X22.9671 Y45.1247
G01 X22.9671 Y38.7189
G01 X21.9141 Y38.7189
G01 X21.8597 Y38.7789
G01 X21.8002 Y38.8328
G01 X21.7357 Y38.8807
G01 X21.6668 Y38.9220
G01 X21.5942 Y38.9563
G01 X21.5185 Y38.9834
G01 X21.4406 Y39.0029
G01 X21.3602 Y39.0147
