(G-CODE GENERATED BY FLATCAM v8.994 - www.flatcam.org - Version Date: 2020/11/7)

(Name: Filter DualOp-F_Cu.gbr_iso_combined_cnc)
(Type: G-code from Geometry)
(Units: MM)

(Created on Thursday, 07 December 2023 at 20:08)

(This preprocessor is the default preprocessor used by FlatCAM.)
(It is made to work with MACH3 compatible motion controllers.)

(TOOL DIAMETER: 0.0354 mm)
(Feedrate_XY: 120.0 mm/min)
(Feedrate_Z: 60.0 mm/min)
(Feedrate rapids 1500.0 mm/min)

(Z_Cut: -0.1001 mm)
(Z_Move: 2.0 mm)
(Z Start: None mm)
(Z End: 15.0 mm)
(X,Y End: None mm)
(Steps per circle: 64)
(Preprocessor Geometry: default)

(X range:   -0.0177 ...   29.8365  mm)
(Y range:   -0.0177 ...   26.0470  mm)

(Spindle Speed: 0.0 RPM)
G21
G90
G94

G01 F120.00

M5
G00 Z15.0000
G00 X0.0000 Y0.0000
T1
M6    
(MSG, Change to Tool Dia = 0.0354)
M0
G00 Z15.0000

M03
G01 F120.00
G00 X-0.0177 Y9.2683
G01 F60.00
G01 Z-0.1001
G01 F120.00
G01 X-0.0164 Y9.2429
G01 X-0.0126 Y9.2169
G01 X-0.0062 Y9.1914
G01 X0.0027 Y9.1667
G01 X0.0139 Y9.1429
G01 X0.0274 Y9.1204
G01 X0.0431 Y9.0993
G01 X0.0607 Y9.0798
G01 X5.7204 Y3.4201
G01 X4.5454 Y2.2451
G01 X4.5017 Y2.2657
G01 X4.4261 Y2.2927
G01 X4.3487 Y2.3121
G01 X4.2697 Y2.3238
G01 X4.1883 Y2.3278
G01 X4.1090 Y2.3239
G01 X4.0292 Y2.3120
G01 X3.9518 Y2.2926
G01 X3.8762 Y2.2656
G01 X3.8037 Y2.2313
G01 X3.7356 Y2.1905
G01 X3.6698 Y2.1416
G01 X3.6110 Y2.0883
G01 X3.5571 Y2.0289
G01 X3.5093 Y1.9644
G01 X3.4680 Y1.8956
G01 X3.4337 Y1.8230
G01 X3.4067 Y1.7475
G01 X3.3872 Y1.6697
G01 X3.3754 Y1.5903
G01 X3.3715 Y1.5101
G01 X3.3754 Y1.4300
G01 X3.3872 Y1.3506
G01 X3.4067 Y1.2728
G01 X3.4337 Y1.1972
G01 X3.4680 Y1.1247
G01 X3.5093 Y1.0558
G01 X3.5571 Y0.9914
G01 X3.6110 Y0.9319
G01 X3.6701 Y0.8783
G01 X3.7349 Y0.8302
G01 X3.8029 Y0.7894
G01 X3.8771 Y0.7544
G01 X3.9518 Y0.7276
G01 X4.0296 Y0.7081
G01 X4.1090 Y0.6964
G01 X4.1892 Y0.6924
G01 X4.2693 Y0.6964
G01 X4.3487 Y0.7081
G01 X4.4265 Y0.7276
G01 X4.5013 Y0.7544
G01 X4.5746 Y0.7890
G01 X4.6427 Y0.8298
G01 X4.7086 Y0.8786
G01 X4.7674 Y0.9319
G01 X4.8213 Y0.9914
G01 X4.8691 Y1.0558
G01 X4.9099 Y1.1239
G01 X4.9449 Y1.1980
G01 X4.9717 Y1.2728
G01 X4.9911 Y1.3502
G01 X5.0029 Y1.4300
G01 X5.0068 Y1.5093
G01 X5.0029 Y1.5907
G01 X4.9912 Y1.6697
G01 X4.9718 Y1.7471
G01 X4.9448 Y1.8226
G01 X4.9242 Y1.8664
G01 X6.0992 Y3.0414
G01 X7.8198 Y1.3207
G01 X7.8399 Y1.3026
G01 X7.8604 Y1.2874
G01 X7.8825 Y1.2741
G01 X7.9067 Y1.2627
G01 X7.9314 Y1.2538
G01 X7.9569 Y1.2474
G01 X7.9838 Y1.2435
G01 X8.0092 Y1.2423
G01 X8.5076 Y1.2423
G01 X8.5239 Y1.1968
G01 X8.5578 Y1.1250
G01 X8.5995 Y1.0555
G01 X8.6471 Y0.9914
G01 X8.7004 Y0.9326
G01 X8.7601 Y0.8783
G01 X8.8256 Y0.8298
G01 X8.8937 Y0.7890
G01 X8.9655 Y0.7550
G01 X9.0418 Y0.7276
G01 X9.1201 Y0.7081
G01 X9.1999 Y0.6963
G01 X9.2792 Y0.6924
G01 X9.3584 Y0.6963
G01 X9.4387 Y0.7081
G01 X9.5165 Y0.7276
G01 X9.5921 Y0.7547
G01 X9.6654 Y0.7894
G01 X9.7335 Y0.8302
G01 X9.7972 Y0.8775
G01 X9.8571 Y0.9316
G01 X9.9113 Y0.9914
G01 X9.9591 Y1.0558
G01 X10.0003 Y1.1247
G01 X10.0346 Y1.1972
G01 X10.0617 Y1.2728
G01 X10.0812 Y1.3506
G01 X10.0929 Y1.4300
G01 X10.0968 Y1.5110
G01 X10.0929 Y1.5903
G01 X10.0812 Y1.6697
G01 X10.0617 Y1.7475
G01 X10.0343 Y1.8238
G01 X10.0003 Y1.8956
G01 X9.9595 Y1.9637
G01 X9.9118 Y2.0282
G01 X9.8574 Y2.0883
G01 X9.7986 Y2.1416
G01 X9.7335 Y2.1900
G01 X9.6646 Y2.2313
G01 X9.5921 Y2.2656
G01 X9.5157 Y2.2928
G01 X9.4387 Y2.3121
G01 X9.3602 Y2.3238
G01 X9.2800 Y2.3278
G01 X9.1990 Y2.3239
G01 X9.1192 Y2.3120
G01 X9.0410 Y2.2923
G01 X8.9662 Y2.2656
G01 X8.8945 Y2.2317
G01 X8.8249 Y2.1900
G01 X8.7601 Y2.1419
G01 X8.7010 Y2.0883
G01 X8.6476 Y2.0295
G01 X8.5995 Y1.9648
G01 X8.5578 Y1.8952
G01 X8.5239 Y1.8234
G01 X8.5076 Y1.7779
G01 X8.1201 Y1.7779
G01 X0.5179 Y9.3801
G01 X0.5179 Y20.2858
G01 X5.7435 Y25.5113
G01 X11.5692 Y25.5113
G01 X13.6042 Y23.4764
G01 X13.5835 Y23.4326
G01 X13.5568 Y23.3579
G01 X13.5373 Y23.2801
G01 X13.5254 Y23.2003
G01 X13.5215 Y23.1197
G01 X13.5255 Y23.0391
G01 X13.5372 Y22.9606
G01 X13.5564 Y22.8836
G01 X13.5837 Y22.8072
G01 X13.6178 Y22.7350
G01 X13.6593 Y22.6658
G01 X13.7071 Y22.6014
G01 X13.7610 Y22.5419
G01 X13.8211 Y22.4875
G01 X13.8856 Y22.4398
G01 X13.9537 Y22.3990
G01 X14.0255 Y22.3650
G01 X14.1018 Y22.3376
G01 X14.1796 Y22.3181
G01 X14.2590 Y22.3064
G01 X14.3383 Y22.3024
G01 X14.4193 Y22.3064
G01 X14.4987 Y22.3181
G01 X14.5757 Y22.3374
G01 X14.6529 Y22.3650
G01 X14.7246 Y22.3990
G01 X14.7935 Y22.4402
G01 X14.8579 Y22.4880
G01 X14.9167 Y22.5413
G01 X14.9718 Y22.6021
G01 X15.0191 Y22.6658
G01 X15.0603 Y22.7347
G01 X15.0946 Y22.8072
G01 X15.1214 Y22.8819
G01 X15.1412 Y22.9606
G01 X15.1529 Y23.0400
G01 X15.1568 Y23.1193
G01 X15.1528 Y23.2011
G01 X15.1412 Y23.2797
G01 X15.1217 Y23.3575
G01 X15.0946 Y23.4330
G01 X15.0607 Y23.5048
G01 X15.0186 Y23.5751
G01 X14.9713 Y23.6389
G01 X14.9177 Y23.6980
G01 X14.8572 Y23.7528
G01 X14.7935 Y23.8000
G01 X14.7246 Y23.8413
G01 X14.6521 Y23.8756
G01 X14.5774 Y23.9023
G01 X14.4983 Y23.9222
G01 X14.4193 Y23.9339
G01 X14.3400 Y23.9378
G01 X14.2586 Y23.9338
G01 X14.1796 Y23.9221
G01 X14.1022 Y23.9027
G01 X14.0266 Y23.8757
G01 X13.9829 Y23.8551
G01 X11.8692 Y25.9689
G01 X11.8500 Y25.9862
G01 X11.8296 Y26.0014
G01 X11.8063 Y26.0154
G01 X11.7818 Y26.0269
G01 X11.7579 Y26.0354
G01 X11.7332 Y26.0417
G01 X11.7064 Y26.0457
G01 X11.6801 Y26.0470
G01 X5.6326 Y26.0470
G01 X5.6064 Y26.0457
G01 X5.5804 Y26.0419
G01 X5.5548 Y26.0354
G01 X5.5302 Y26.0266
G01 X5.5062 Y26.0153
G01 X5.4838 Y26.0019
G01 X5.4626 Y25.9862
G01 X5.4435 Y25.9688
G01 X0.0607 Y20.5861
G01 X0.0431 Y20.5666
G01 X0.0270 Y20.5448
G01 X0.0139 Y20.5230
G01 X0.0030 Y20.5000
G01 X-0.0060 Y20.4749
G01 X-0.0127 Y20.4481
G01 X-0.0164 Y20.4230
G01 X-0.0177 Y20.3967
G01 X-0.0177 Y9.2683
G00 Z2.0000
G00 X0.6818 Y9.5580
G01 F60.00
G01 Z-0.1001
G01 F120.00
G01 X0.6831 Y9.5327
G01 X0.6870 Y9.5067
G01 X0.6934 Y9.4812
G01 X0.7022 Y9.4564
G01 X0.7134 Y9.4327
G01 X0.7270 Y9.4101
G01 X0.7426 Y9.3890
G01 X0.7600 Y9.3698
G01 X3.7191 Y6.4107
G01 X3.7385 Y6.3931
G01 X3.7604 Y6.3770
G01 X3.7822 Y6.3639
G01 X3.8059 Y6.3527
G01 X3.8307 Y6.3438
G01 X3.8553 Y6.3376
G01 X3.8826 Y6.3336
G01 X3.9084 Y6.3323
G01 X4.6876 Y6.3323
G01 X4.7039 Y6.2868
G01 X4.7378 Y6.2150
G01 X4.7790 Y6.1462
G01 X4.8271 Y6.0814
G01 X4.8813 Y6.0216
G01 X4.9404 Y5.9680
G01 X5.0056 Y5.9198
G01 X5.0737 Y5.8790
G01 X5.1455 Y5.8450
G01 X5.2214 Y5.8178
G01 X5.2996 Y5.7981
G01 X5.3790 Y5.7864
G01 X5.4592 Y5.7824
G01 X5.5393 Y5.7864
G01 X5.6187 Y5.7981
G01 X5.6965 Y5.8176
G01 X5.7721 Y5.8447
G01 X5.8442 Y5.8788
G01 X5.9135 Y5.9202
G01 X5.9779 Y5.9680
G01 X6.0374 Y6.0219
G01 X6.0910 Y6.0810
G01 X6.1391 Y6.1458
G01 X6.1801 Y6.2143
G01 X6.2145 Y6.2868
G01 X6.2308 Y6.3323
G01 X8.5040 Y6.3323
G01 X8.5237 Y6.2772
G01 X8.5580 Y6.2047
G01 X8.5993 Y6.1358
G01 X8.6465 Y6.0721
G01 X8.7016 Y6.0113
G01 X8.7604 Y5.9580
G01 X8.8252 Y5.9100
G01 X8.8937 Y5.8690
G01 X8.9662 Y5.8347
G01 X9.0418 Y5.8076
G01 X9.1188 Y5.7883
G01 X9.1999 Y5.7763
G01 X9.2792 Y5.7724
G01 X9.3593 Y5.7764
G01 X9.4387 Y5.7881
G01 X9.5157 Y5.8074
G01 X9.5921 Y5.8347
G01 X9.6646 Y5.8690
G01 X9.7327 Y5.9098
G01 X9.7979 Y5.9580
G01 X9.8574 Y6.0119
G01 X9.9107 Y6.0707
G01 X9.9591 Y6.1358
G01 X10.0007 Y6.2054
G01 X10.0346 Y6.2772
G01 X10.0614 Y6.3519
G01 X10.0812 Y6.4306
G01 X10.0929 Y6.5100
G01 X10.0969 Y6.5901
G01 X10.0928 Y6.6711
G01 X10.0812 Y6.7497
G01 X10.0619 Y6.8267
G01 X10.0349 Y6.9022
G01 X10.0003 Y6.9756
G01 X9.9591 Y7.0444
G01 X9.9113 Y7.1089
G01 X9.8567 Y7.1689
G01 X9.7979 Y7.2222
G01 X9.7342 Y7.2695
G01 X9.6654 Y7.3108
G01 X9.5921 Y7.3456
G01 X9.5165 Y7.3726
G01 X9.4387 Y7.3921
G01 X9.3589 Y7.4039
G01 X9.2792 Y7.4078
G01 X9.1999 Y7.4040
G01 X9.1188 Y7.3919
G01 X9.0418 Y7.3726
G01 X8.9662 Y7.3456
G01 X8.8937 Y7.3113
G01 X8.8252 Y7.2703
G01 X8.7604 Y7.2222
G01 X8.7016 Y7.1689
G01 X8.6468 Y7.1085
G01 X8.5993 Y7.0444
G01 X8.5582 Y6.9760
G01 X8.5239 Y6.9034
G01 X8.5111 Y6.8679
G01 X6.2308 Y6.8679
G01 X6.2145 Y6.9134
G01 X6.1801 Y6.9860
G01 X6.1391 Y7.0544
G01 X6.0915 Y7.1185
G01 X6.0367 Y7.1789
G01 X5.9779 Y7.2322
G01 X5.9138 Y7.2798
G01 X5.8439 Y7.3217
G01 X5.7721 Y7.3556
G01 X5.6965 Y7.3826
G01 X5.6187 Y7.4021
G01 X5.5402 Y7.4138
G01 X5.4592 Y7.4178
G01 X5.3790 Y7.4139
G01 X5.3005 Y7.4023
G01 X5.2218 Y7.3826
G01 X5.1462 Y7.3556
G01 X5.0745 Y7.3217
G01 X5.0045 Y7.2798
G01 X4.9404 Y7.2322
G01 X4.8816 Y7.1789
G01 X4.8268 Y7.1185
G01 X4.7793 Y7.0544
G01 X4.7382 Y6.9860
G01 X4.7039 Y6.9134
G01 X4.6876 Y6.8679
G01 X4.0194 Y6.8679
G01 X1.2175 Y9.6699
G01 X1.2175 Y19.9960
G01 X6.0333 Y24.8118
G01 X9.7287 Y24.8118
G01 X12.8593 Y21.6812
G01 X12.8788 Y21.6636
G01 X12.8999 Y21.6479
G01 X12.9224 Y21.6344
G01 X12.9458 Y21.6233
G01 X12.9709 Y21.6143
G01 X12.9964 Y21.6079
G01 X13.0224 Y21.6041
G01 X13.0487 Y21.6028
G01 X16.7477 Y21.6028
G01 X19.9642 Y18.3864
G01 X19.9435 Y18.3426
G01 X19.9166 Y18.2671
G01 X19.8972 Y18.1897
G01 X19.8854 Y18.1098
G01 X19.8815 Y18.0301
G01 X19.8854 Y17.9500
G01 X19.8972 Y17.8706
G01 X19.9168 Y17.7923
G01 X19.9437 Y17.7172
G01 X19.9780 Y17.6447
G01 X20.0193 Y17.5758
G01 X20.0671 Y17.5114
G01 X20.1210 Y17.4519
G01 X20.1804 Y17.3980
G01 X20.2449 Y17.3502
G01 X20.3133 Y17.3092
G01 X20.3871 Y17.2744
G01 X20.4618 Y17.2476
G01 X20.5396 Y17.2281
G01 X20.6190 Y17.2164
G01 X20.6983 Y17.2124
G01 X20.7793 Y17.2164
G01 X20.8587 Y17.2281
G01 X20.9357 Y17.2474
G01 X21.0121 Y17.2747
G01 X21.0846 Y17.3090
G01 X21.1527 Y17.3498
G01 X21.2186 Y17.3986
G01 X21.2774 Y17.4519
G01 X21.3307 Y17.5107
G01 X21.3795 Y17.5766
G01 X21.4203 Y17.6447
G01 X21.4546 Y17.7172
G01 X21.4817 Y17.7928
G01 X21.5010 Y17.8698
G01 X21.5130 Y17.9508
G01 X21.5169 Y18.0301
G01 X21.5129 Y18.1103
G01 X21.5012 Y18.1897
G01 X21.4819 Y18.2667
G01 X21.4546 Y18.3430
G01 X21.4203 Y18.4156
G01 X21.3791 Y18.4844
G01 X21.3313 Y18.5489
G01 X21.2774 Y18.6083
G01 X21.2179 Y18.6622
G01 X21.1535 Y18.7100
G01 X21.0846 Y18.7513
G01 X21.0117 Y18.7857
G01 X20.9365 Y18.8126
G01 X20.8587 Y18.8321
G01 X20.7793 Y18.8439
G01 X20.6987 Y18.8478
G01 X20.6190 Y18.8439
G01 X20.5392 Y18.8320
G01 X20.4614 Y18.8125
G01 X20.3866 Y18.7857
G01 X20.3429 Y18.7651
G01 X17.0481 Y22.0600
G01 X17.0286 Y22.0776
G01 X17.0075 Y22.0933
G01 X16.9849 Y22.1068
G01 X16.9616 Y22.1179
G01 X16.9364 Y22.1269
G01 X16.9109 Y22.1333
G01 X16.8849 Y22.1371
G01 X16.8587 Y22.1384
G01 X13.1596 Y22.1384
G01 X10.0290 Y25.2690
G01 X10.0096 Y25.2867
G01 X9.9884 Y25.3023
G01 X9.9659 Y25.3158
G01 X9.9425 Y25.3269
G01 X9.9174 Y25.3359
G01 X9.8919 Y25.3423
G01 X9.8659 Y25.3462
G01 X9.8396 Y25.3475
G01 X5.9223 Y25.3475
G01 X5.8961 Y25.3462
G01 X5.8701 Y25.3423
G01 X5.8446 Y25.3359
G01 X5.8198 Y25.3271
G01 X5.7961 Y25.3158
G01 X5.7735 Y25.3023
G01 X5.7524 Y25.2867
G01 X5.7330 Y25.2690
G01 X0.7603 Y20.2963
G01 X0.7426 Y20.2769
G01 X0.7265 Y20.2550
G01 X0.7134 Y20.2332
G01 X0.7026 Y20.2102
G01 X0.6935 Y20.1851
G01 X0.6868 Y20.1583
G01 X0.6831 Y20.1332
G01 X0.6818 Y20.1070
G01 X0.6818 Y9.5580
G00 Z2.0000
G00 X1.3814 Y9.8478
G01 F60.00
G01 Z-0.1001
G01 F120.00
G01 X1.3826 Y9.8224
G01 X1.3865 Y9.7964
G01 X1.3929 Y9.7709
G01 X1.4017 Y9.7462
G01 X1.4130 Y9.7224
G01 X1.4265 Y9.6999
G01 X1.4421 Y9.6788
G01 X1.4595 Y9.6596
G01 X3.4278 Y7.6912
G01 X3.4470 Y7.6739
G01 X3.4692 Y7.6575
G01 X3.4910 Y7.6444
G01 X3.5147 Y7.6332
G01 X3.5403 Y7.6241
G01 X3.5650 Y7.6179
G01 X3.5905 Y7.6141
G01 X3.6172 Y7.6128
G01 X3.9434 Y7.6128
G01 X4.1742 Y7.3821
G01 X4.1959 Y7.3646
G01 X4.1997 Y7.3624
G01 X4.2702 Y7.3415
G01 X4.2748 Y7.3409
G01 X4.3290 Y7.3410
G01 X4.3789 Y7.3507
G01 X4.3821 Y7.3518
G01 X4.3851 Y7.3534
G01 X4.4428 Y7.3996
G01 X4.4450 Y7.4022
G01 X4.4666 Y7.4330
G01 X4.6263 Y7.5927
G01 X4.6550 Y7.6128
G01 X10.0861 Y7.6128
G01 X10.0977 Y7.5984
G01 X10.0995 Y7.5941
G01 X10.1021 Y7.5906
G01 X10.1079 Y7.5857
G01 X10.1120 Y7.5827
G01 X10.2718 Y7.4230
G01 X10.4013 Y7.2380
G01 X10.4968 Y7.0333
G01 X10.5552 Y6.8151
G01 X10.5749 Y6.5901
G01 X10.5552 Y6.3651
G01 X10.4968 Y6.1470
G01 X10.4013 Y5.9423
G01 X10.2718 Y5.7572
G01 X10.1120 Y5.5975
G01 X9.9270 Y5.4680
G01 X9.8892 Y5.4504
G01 X9.8865 Y5.4488
G01 X9.8329 Y5.4025
G01 X9.8308 Y5.4003
G01 X9.8289 Y5.3974
G01 X9.8276 Y5.3942
G01 X9.8070 Y5.3262
G01 X9.8063 Y5.3215
G01 X9.8069 Y5.3163
G01 X9.8264 Y5.2480
G01 X9.8275 Y5.2451
G01 X9.8291 Y5.2425
G01 X9.8314 Y5.2399
G01 X9.8863 Y5.1916
G01 X9.8892 Y5.1899
G01 X9.9270 Y5.1723
G01 X10.1120 Y5.0427
G01 X10.2718 Y4.8830
G01 X10.4013 Y4.6980
G01 X10.4968 Y4.4933
G01 X10.5552 Y4.2751
G01 X10.5749 Y4.0501
G01 X10.5607 Y3.8883
G01 X10.5632 Y3.8479
G01 X10.5638 Y3.8445
G01 X10.5651 Y3.8413
G01 X10.5993 Y3.7787
G01 X10.6012 Y3.7759
G01 X13.3439 Y1.0330
G01 X13.3666 Y1.0146
G01 X13.3692 Y1.0129
G01 X13.3720 Y1.0118
G01 X13.4405 Y0.9916
G01 X13.4455 Y0.9909
G01 X16.2675 Y0.9909
G01 X16.3210 Y0.9319
G01 X16.3811 Y0.8775
G01 X16.4456 Y0.8298
G01 X16.5137 Y0.7890
G01 X16.5855 Y0.7550
G01 X16.6618 Y0.7276
G01 X16.7396 Y0.7081
G01 X16.8190 Y0.6964
G01 X16.8992 Y0.6924
G01 X16.9793 Y0.6964
G01 X17.0587 Y0.7081
G01 X17.1365 Y0.7276
G01 X17.2129 Y0.7550
G01 X17.2846 Y0.7890
G01 X17.3527 Y0.8298
G01 X17.4172 Y0.8775
G01 X17.4774 Y0.9319
G01 X17.5309 Y0.9909
G01 X26.6837 Y0.9910
G01 X26.7119 Y0.9940
G01 X26.7165 Y0.9952
G01 X26.7804 Y1.0300
G01 X26.7841 Y1.0327
G01 X27.4763 Y1.7250
G01 X27.4830 Y1.7322
G01 X27.4852 Y1.7355
G01 X27.5159 Y1.8029
G01 X27.5166 Y1.8063
G01 X27.5166 Y1.8103
G01 X27.5064 Y1.8810
G01 X27.5051 Y1.8856
G01 X27.5026 Y1.8897
G01 X27.4558 Y1.9437
G01 X27.4518 Y1.9471
G01 X27.4474 Y1.9491
G01 X27.3793 Y1.9691
G01 X27.3760 Y1.9697
G01 X25.8316 Y1.9698
G01 X25.7524 Y1.9677
G01 X25.7456 Y1.9691
G01 X25.7270 Y1.9704
G01 X25.6530 Y1.9884
G01 X25.5833 Y2.0029
G01 X25.5770 Y2.0058
G01 X25.5650 Y2.0100
G01 X25.5587 Y2.0115
G01 X25.4952 Y2.0440
G01 X25.4268 Y2.0760
G01 X25.4216 Y2.0800
G01 X25.4110 Y2.0869
G01 X25.4048 Y2.0901
G01 X25.3506 Y2.1362
G01 X25.3254 Y2.1562
G01 X25.3122 Y2.1688
G01 X25.2732 Y2.2019
G01 X25.2610 Y2.2185
G01 X25.2474 Y2.2342
G01 X24.8324 Y2.6491
G01 X24.7957 Y2.6751
G01 X24.7915 Y2.6772
G01 X24.7160 Y2.6893
G01 X24.5325 Y2.6660
G01 X24.3039 Y2.6744
G01 X24.2332 Y2.6885
G01 X24.1800 Y2.6882
G01 X24.1765 Y2.6877
G01 X24.1728 Y2.6864
G01 X24.1097 Y2.6520
G01 X24.1060 Y2.6493
G01 X23.6526 Y2.1959
G01 X23.5981 Y2.1384
G01 X23.5923 Y2.1346
G01 X23.5782 Y2.1223
G01 X23.5169 Y2.0851
G01 X23.4536 Y2.0437
G01 X23.4471 Y2.0413
G01 X23.4357 Y2.0358
G01 X23.4301 Y2.0325
G01 X23.3582 Y2.0091
G01 X23.2912 Y1.9848
G01 X23.2848 Y1.9840
G01 X23.2724 Y1.9813
G01 X23.2658 Y1.9792
G01 X23.1948 Y1.9734
G01 X23.1629 Y1.9698
G01 X23.1446 Y1.9694
G01 X23.0936 Y1.9652
G01 X23.0733 Y1.9683
G01 X23.0526 Y1.9698
G01 X19.3830 Y1.9698
G01 X19.3038 Y1.9677
G01 X19.2970 Y1.9690
G01 X19.2783 Y1.9704
G01 X19.2044 Y1.9884
G01 X19.1346 Y2.0029
G01 X19.1284 Y2.0057
G01 X19.1164 Y2.0100
G01 X19.1101 Y2.0115
G01 X19.0466 Y2.0440
G01 X18.9781 Y2.0760
G01 X18.9727 Y2.0803
G01 X18.9620 Y2.0871
G01 X18.9562 Y2.0901
G01 X18.9019 Y2.1362
G01 X18.8768 Y2.1562
G01 X18.8636 Y2.1688
G01 X18.8246 Y2.2019
G01 X18.8124 Y2.2185
G01 X18.7988 Y2.2342
G01 X17.9554 Y3.0776
G01 X17.9524 Y3.0800
G01 X17.9074 Y3.1090
G01 X17.9034 Y3.1109
G01 X17.8991 Y3.1117
G01 X17.8278 Y3.1168
G01 X17.8234 Y3.1165
G01 X17.8193 Y3.1151
G01 X17.7547 Y3.0798
G01 X17.7521 Y3.0776
G01 X17.7320 Y3.0575
G01 X17.5470 Y2.9280
G01 X17.3423 Y2.8325
G01 X17.1242 Y2.7741
G01 X16.8992 Y2.7544
G01 X16.6742 Y2.7741
G01 X16.4560 Y2.8325
G01 X16.2513 Y2.9280
G01 X16.0663 Y3.0575
G01 X15.9066 Y3.2172
G01 X15.7770 Y3.4023
G01 X15.6816 Y3.6070
G01 X15.6231 Y3.8251
G01 X15.6034 Y4.0501
G01 X15.6231 Y4.2751
G01 X15.6529 Y4.3864
G01 X15.6552 Y4.4452
G01 X15.6549 Y4.4495
G01 X15.6535 Y4.4536
G01 X15.6209 Y4.5171
G01 X15.6187 Y4.5204
G01 X15.6165 Y4.5226
G01 X15.6140 Y4.5243
G01 X15.5503 Y4.5611
G01 X15.4882 Y4.5764
G01 X15.4142 Y4.5919
G01 X15.4083 Y4.5946
G01 X15.3964 Y4.5989
G01 X15.3897 Y4.6006
G01 X15.3223 Y4.6349
G01 X15.2577 Y4.6651
G01 X15.2523 Y4.6693
G01 X15.2416 Y4.6761
G01 X15.2358 Y4.6791
G01 X15.1815 Y4.7253
G01 X15.1564 Y4.7452
G01 X15.1432 Y4.7579
G01 X15.1042 Y4.7910
G01 X15.0920 Y4.8075
G01 X15.0784 Y4.8232
G01 X11.5544 Y8.3472
G01 X11.5317 Y8.3657
G01 X11.5279 Y8.3679
G01 X11.4578 Y8.3886
G01 X11.4532 Y8.3893
G01 X10.7105 Y8.3893
G01 X10.6671 Y8.3825
G01 X10.6642 Y8.3816
G01 X10.6611 Y8.3800
G01 X10.6024 Y8.3393
G01 X10.5994 Y8.3367
G01 X10.5971 Y8.3336
G01 X10.5684 Y8.2648
G01 X10.5676 Y8.2611
G01 X10.5636 Y8.2239
G01 X10.5351 Y8.1481
G01 X10.5287 Y8.1484
G01 X4.6254 Y8.1485
G01 X4.4666 Y8.3072
G01 X4.3370 Y8.4923
G01 X4.3353 Y8.4959
G01 X4.2416 Y8.6970
G01 X4.1831 Y8.9151
G01 X4.1634 Y9.1401
G01 X4.1831 Y9.3651
G01 X4.2416 Y9.5833
G01 X4.3370 Y9.7880
G01 X4.4666 Y9.9730
G01 X4.6263 Y10.1327
G01 X4.8113 Y10.2623
G01 X5.0160 Y10.3577
G01 X5.2342 Y10.4162
G01 X5.4592 Y10.4359
G01 X5.6842 Y10.4162
G01 X5.9023 Y10.3577
G01 X6.1070 Y10.2623
G01 X6.2920 Y10.1327
G01 X6.4518 Y9.9730
G01 X6.4747 Y9.9405
G01 X6.5119 Y9.9047
G01 X6.5144 Y9.9031
G01 X6.5175 Y9.9018
G01 X6.5881 Y9.8812
G01 X7.8490 Y9.8809
G01 X7.8914 Y9.8876
G01 X7.8964 Y9.8891
G01 X7.9571 Y9.9309
G01 X7.9594 Y9.9329
G01 X7.9614 Y9.9352
G01 X7.9633 Y9.9387
G01 X7.9909 Y10.0050
G01 X7.9918 Y10.0087
G01 X7.9948 Y10.0363
G01 X8.0442 Y10.1682
G01 X8.1285 Y10.2807
G01 X8.2410 Y10.3651
G01 X8.3730 Y10.4145
G01 X8.4320 Y10.4209
G01 X10.1263 Y10.4209
G01 X10.1854 Y10.4145
G01 X10.3173 Y10.3651
G01 X10.4298 Y10.2807
G01 X10.5141 Y10.1682
G01 X10.5636 Y10.0363
G01 X10.5678 Y9.9975
G01 X10.5797 Y9.9551
G01 X10.5825 Y9.9507
G01 X10.6293 Y9.8967
G01 X10.6330 Y9.8936
G01 X10.6369 Y9.8918
G01 X10.7055 Y9.8716
G01 X10.7100 Y9.8709
G01 X11.8062 Y9.8709
G01 X11.8855 Y9.8730
G01 X11.8922 Y9.8717
G01 X11.9109 Y9.8704
G01 X11.9848 Y9.8523
G01 X12.0546 Y9.8378
G01 X12.0609 Y9.8350
G01 X12.0729 Y9.8308
G01 X12.0791 Y9.8292
G01 X12.1426 Y9.7968
G01 X12.2111 Y9.7647
G01 X12.2165 Y9.7605
G01 X12.2272 Y9.7536
G01 X12.2330 Y9.7506
G01 X12.2873 Y9.7045
G01 X12.3124 Y9.6845
G01 X12.3257 Y9.6719
G01 X12.3646 Y9.6388
G01 X12.3768 Y9.6223
G01 X12.3904 Y9.6065
G01 X15.3704 Y6.6266
G01 X15.3736 Y6.6243
G01 X15.4340 Y6.5907
G01 X15.4388 Y6.5889
G01 X15.4436 Y6.5885
G01 X15.5145 Y6.5924
G01 X15.5192 Y6.5933
G01 X15.5239 Y6.5958
G01 X15.5814 Y6.6374
G01 X15.5848 Y6.6407
G01 X15.5875 Y6.6453
G01 X15.6137 Y6.7126
G01 X15.6145 Y6.7163
G01 X15.6176 Y6.7528
G01 X15.6147 Y6.7949
G01 X15.6131 Y6.7993
G01 X15.5790 Y6.8616
G01 X15.5760 Y6.8656
G01 X9.0044 Y13.4372
G01 X8.9799 Y13.4569
G01 X8.9759 Y13.4586
G01 X8.9078 Y13.4786
G01 X8.9028 Y13.4793
G01 X4.8118 Y13.4793
G01 X4.7674 Y13.5283
G01 X4.7086 Y13.5816
G01 X4.6442 Y13.6295
G01 X4.5746 Y13.6713
G01 X4.5029 Y13.7052
G01 X4.4265 Y13.7326
G01 X4.3487 Y13.7521
G01 X4.2693 Y13.7639
G01 X4.1892 Y13.7678
G01 X4.1090 Y13.7639
G01 X4.0296 Y13.7521
G01 X3.9518 Y13.7326
G01 X3.8758 Y13.7054
G01 X3.8037 Y13.6713
G01 X3.7342 Y13.6295
G01 X3.6698 Y13.5816
G01 X3.6110 Y13.5283
G01 X3.5731 Y13.4866
G01 X3.5264 Y13.4979
G01 X3.4567 Y13.5124
G01 X3.4504 Y13.5153
G01 X3.4384 Y13.5195
G01 X3.4321 Y13.5211
G01 X3.3648 Y13.5554
G01 X3.3002 Y13.5856
G01 X3.2947 Y13.5898
G01 X3.2840 Y13.5966
G01 X3.2783 Y13.5996
G01 X3.2240 Y13.6457
G01 X3.1989 Y13.6657
G01 X3.1856 Y13.6783
G01 X3.1466 Y13.7115
G01 X3.1344 Y13.7280
G01 X3.1208 Y13.7437
G01 X2.4045 Y14.4601
G01 X2.3470 Y14.5146
G01 X2.3431 Y14.5204
G01 X2.3309 Y14.5345
G01 X2.2937 Y14.5958
G01 X2.2523 Y14.6591
G01 X2.2498 Y14.6655
G01 X2.2443 Y14.6770
G01 X2.2410 Y14.6826
G01 X2.2176 Y14.7545
G01 X2.1933 Y14.8215
G01 X2.1925 Y14.8279
G01 X2.1898 Y14.8403
G01 X2.1878 Y14.8469
G01 X2.1820 Y14.9179
G01 X2.1784 Y14.9498
G01 X2.1779 Y14.9681
G01 X2.1738 Y15.0191
G01 X2.1768 Y15.0394
G01 X2.1784 Y15.0601
G01 X2.1784 Y19.3072
G01 X2.1763 Y19.3864
G01 X2.1776 Y19.3932
G01 X2.1789 Y19.4118
G01 X2.1969 Y19.4858
G01 X2.2115 Y19.5555
G01 X2.2143 Y19.5618
G01 X2.2185 Y19.5738
G01 X2.2201 Y19.5801
G01 X2.2525 Y19.6436
G01 X2.2846 Y19.7120
G01 X2.2888 Y19.7175
G01 X2.2957 Y19.7282
G01 X2.2987 Y19.7340
G01 X2.3448 Y19.7882
G01 X2.3647 Y19.8134
G01 X2.3774 Y19.8266
G01 X2.4105 Y19.8656
G01 X2.4270 Y19.8778
G01 X2.4428 Y19.8914
G01 X5.3966 Y22.8453
G01 X5.4204 Y22.8775
G01 X5.4226 Y22.8816
G01 X5.4376 Y22.9558
G01 X5.4234 Y23.1201
G01 X5.4287 Y23.1808
G01 X5.4287 Y23.2029
G01 X5.4280 Y23.2063
G01 X5.4250 Y23.2143
G01 X6.3230 Y24.1123
G01 X7.5602 Y24.1123
G01 X7.5684 Y24.0972
G01 X7.5709 Y24.0938
G01 X7.7118 Y23.9530
G01 X7.8413 Y23.7680
G01 X7.9368 Y23.5633
G01 X7.9952 Y23.3451
G01 X8.0149 Y23.1201
G01 X8.0007 Y22.9583
G01 X8.0033 Y22.9170
G01 X8.0039 Y22.9141
G01 X8.0053 Y22.9110
G01 X8.0393 Y22.8487
G01 X8.0412 Y22.8459
G01 X10.8144 Y20.0725
G01 X10.8371 Y20.0541
G01 X10.8421 Y20.0514
G01 X10.9110 Y20.0312
G01 X10.9160 Y20.0304
G01 X13.7351 Y20.0304
G01 X13.7613 Y20.0016
G01 X13.8201 Y19.9483
G01 X13.8845 Y19.9005
G01 X13.9537 Y19.8590
G01 X14.0258 Y19.8248
G01 X14.1018 Y19.7976
G01 X14.1796 Y19.7781
G01 X14.2590 Y19.7664
G01 X14.3392 Y19.7624
G01 X14.4193 Y19.7664
G01 X14.4987 Y19.7781
G01 X14.5765 Y19.7976
G01 X14.6525 Y19.8248
G01 X14.7246 Y19.8590
G01 X14.7938 Y19.9005
G01 X14.8582 Y19.9483
G01 X14.9171 Y20.0016
G01 X14.9432 Y20.0304
G01 X17.3043 Y20.0304
G01 X17.3139 Y20.0308
G01 X17.3195 Y20.0319
G01 X17.3860 Y20.0567
G01 X17.3902 Y20.0590
G01 X17.3940 Y20.0627
G01 X17.4377 Y20.1213
G01 X17.4393 Y20.1250
G01 X17.4400 Y20.1284
G01 X17.4451 Y20.1997
G01 X17.4447 Y20.2045
G01 X17.4429 Y20.2094
G01 X17.4089 Y20.2717
G01 X17.4062 Y20.2754
G01 X16.5936 Y21.0881
G01 X16.5712 Y21.1062
G01 X16.5675 Y21.1084
G01 X16.4961 Y21.1294
G01 X16.4923 Y21.1298
G01 X14.9432 Y21.1298
G01 X14.9171 Y21.1586
G01 X14.8582 Y21.2119
G01 X14.7938 Y21.2598
G01 X14.7246 Y21.3013
G01 X14.6525 Y21.3354
G01 X14.5765 Y21.3626
G01 X14.4987 Y21.3821
G01 X14.4193 Y21.3939
G01 X14.3392 Y21.3978
G01 X14.2590 Y21.3939
G01 X14.1796 Y21.3821
G01 X14.1018 Y21.3626
G01 X14.0258 Y21.3354
G01 X13.9537 Y21.3013
G01 X13.8845 Y21.2598
G01 X13.8201 Y21.2119
G01 X13.7613 Y21.1586
G01 X13.7351 Y21.1298
G01 X13.0616 Y21.1298
G01 X12.9824 Y21.1277
G01 X12.9756 Y21.1291
G01 X12.9570 Y21.1304
G01 X12.8788 Y21.1493
G01 X9.4585 Y24.5695
G01 X9.4391 Y24.5872
G01 X9.4172 Y24.6033
G01 X9.3954 Y24.6163
G01 X9.3725 Y24.6272
G01 X9.3469 Y24.6364
G01 X9.3206 Y24.6430
G01 X9.2954 Y24.6467
G01 X9.2692 Y24.6479
G01 X6.2121 Y24.6479
G01 X6.1850 Y24.6466
G01 X6.1598 Y24.6428
G01 X6.1352 Y24.6366
G01 X6.1096 Y24.6276
G01 X6.0851 Y24.6159
G01 X6.0633 Y24.6028
G01 X6.0429 Y24.5877
G01 X6.0227 Y24.5695
G01 X1.4598 Y20.0066
G01 X1.4416 Y19.9864
G01 X1.4265 Y19.9660
G01 X1.4130 Y19.9435
G01 X1.4014 Y19.9189
G01 X1.3929 Y19.8949
G01 X1.3867 Y19.8703
G01 X1.3826 Y19.8435
G01 X1.3813 Y19.8172
G01 X1.3814 Y9.8478
G00 Z2.0000
G00 X4.6455 Y9.0591
G01 F60.00
G01 Z-0.1001
G01 F120.00
G01 X4.6572 Y8.9806
G01 X4.6767 Y8.9028
G01 X4.7037 Y8.8272
G01 X4.7380 Y8.7547
G01 X4.7793 Y8.6858
G01 X4.8271 Y8.6214
G01 X4.8810 Y8.5619
G01 X4.9398 Y8.5086
G01 X5.0056 Y8.4598
G01 X5.0737 Y8.4190
G01 X5.1471 Y8.3844
G01 X5.2218 Y8.3576
G01 X5.2996 Y8.3381
G01 X5.3790 Y8.3264
G01 X5.4587 Y8.3224
G01 X5.5402 Y8.3265
G01 X5.6187 Y8.3381
G01 X5.6965 Y8.3576
G01 X5.7721 Y8.3847
G01 X5.8439 Y8.4186
G01 X5.9138 Y8.4605
G01 X5.9779 Y8.5080
G01 X6.0367 Y8.5613
G01 X6.0915 Y8.6217
G01 X6.1391 Y8.6858
G01 X6.1801 Y8.7543
G01 X6.2145 Y8.8268
G01 X6.2308 Y8.8723
G01 X8.4615 Y8.8723
G01 X8.4615 Y8.3297
G01 X8.4619 Y8.3262
G01 X8.4630 Y8.3230
G01 X8.4644 Y8.3203
G01 X8.4666 Y8.3176
G01 X8.4693 Y8.3154
G01 X8.4724 Y8.3138
G01 X8.4757 Y8.3128
G01 X8.4792 Y8.3124
G01 X10.0792 Y8.3124
G01 X10.0847 Y8.3133
G01 X10.0897 Y8.3159
G01 X10.0934 Y8.3196
G01 X10.0960 Y8.3246
G01 X10.0969 Y8.3297
G01 X10.0969 Y8.8623
G01 X11.7082 Y8.8623
G01 X15.4603 Y5.1103
G01 X15.4797 Y5.0926
G01 X15.5001 Y5.0774
G01 X15.5242 Y5.0630
G01 X15.5480 Y5.0519
G01 X15.5719 Y5.0433
G01 X15.5966 Y5.0371
G01 X15.6234 Y5.0331
G01 X15.6497 Y5.0318
G01 X20.6187 Y5.0318
G01 X21.0590 Y4.5916
G01 X21.0537 Y4.5560
G01 X21.0515 Y4.5101
G01 X21.0515 Y3.6101
G01 X21.0538 Y3.5634
G01 X21.0605 Y3.5189
G01 X21.0714 Y3.4752
G01 X21.0868 Y3.4320
G01 X21.1067 Y3.3897
G01 X21.1298 Y3.3510
G01 X21.1576 Y3.3134
G01 X21.1885 Y3.2794
G01 X21.2225 Y3.2486
G01 X21.2590 Y3.2215
G01 X21.2995 Y3.1973
G01 X21.3402 Y3.1780
G01 X21.3826 Y3.1628
G01 X21.4279 Y3.1514
G01 X21.4742 Y3.1446
G01 X21.5192 Y3.1424
G01 X22.4192 Y3.1424
G01 X22.4650 Y3.1447
G01 X22.5096 Y3.1513
G01 X22.5549 Y3.1626
G01 X22.5989 Y3.1784
G01 X22.6396 Y3.1977
G01 X22.6783 Y3.2208
G01 X22.7165 Y3.2492
G01 X22.7499 Y3.2794
G01 X22.7801 Y3.3128
G01 X22.8080 Y3.3503
G01 X22.8316 Y3.3897
G01 X22.8509 Y3.4303
G01 X22.8667 Y3.4744
G01 X22.8780 Y3.5197
G01 X22.8846 Y3.5643
G01 X22.8869 Y3.6097
G01 X22.8869 Y4.5101
G01 X22.8847 Y4.5555
G01 X22.8779 Y4.6014
G01 X22.8670 Y4.6451
G01 X22.8509 Y4.6899
G01 X22.8316 Y4.7306
G01 X22.8080 Y4.7700
G01 X22.7807 Y4.8068
G01 X22.7499 Y4.8408
G01 X22.7159 Y4.8717
G01 X22.6790 Y4.8990
G01 X22.6396 Y4.9226
G01 X22.5989 Y4.9419
G01 X22.5541 Y4.9579
G01 X22.5104 Y4.9688
G01 X22.4650 Y4.9756
G01 X22.4192 Y4.9778
G01 X21.5192 Y4.9778
G01 X21.4733 Y4.9756
G01 X21.4377 Y4.9703
G01 X20.9187 Y5.4893
G01 X20.8989 Y5.5072
G01 X20.8784 Y5.5223
G01 X20.8567 Y5.5354
G01 X20.8321 Y5.5471
G01 X20.8074 Y5.5559
G01 X20.7810 Y5.5625
G01 X20.7559 Y5.5662
G01 X20.7297 Y5.5675
G01 X15.7606 Y5.5675
G01 X12.0085 Y9.3195
G01 X11.9887 Y9.3374
G01 X11.9680 Y9.3528
G01 X11.9462 Y9.3659
G01 X11.9208 Y9.3779
G01 X11.8969 Y9.3864
G01 X11.8714 Y9.3928
G01 X11.8454 Y9.3967
G01 X11.8196 Y9.3979
G01 X10.0969 Y9.3980
G01 X10.0969 Y9.9306
G01 X10.0958 Y9.9361
G01 X10.0931 Y9.9410
G01 X10.0890 Y9.9448
G01 X10.0843 Y9.9471
G01 X10.0792 Y9.9478
G01 X8.4792 Y9.9478
G01 X8.4736 Y9.9469
G01 X8.4690 Y9.9446
G01 X8.4649 Y9.9407
G01 X8.4625 Y9.9361
G01 X8.4615 Y9.9306
G01 X8.4615 Y9.4079
G01 X6.2308 Y9.4079
G01 X6.2145 Y9.4534
G01 X6.1801 Y9.5260
G01 X6.1391 Y9.5944
G01 X6.0910 Y9.6592
G01 X6.0374 Y9.7183
G01 X5.9779 Y9.7722
G01 X5.9135 Y9.8200
G01 X5.8450 Y9.8611
G01 X5.7721 Y9.8956
G01 X5.6974 Y9.9223
G01 X5.6178 Y9.9423
G01 X5.5393 Y9.9539
G01 X5.4592 Y9.9578
G01 X5.3790 Y9.9539
G01 X5.3001 Y9.9422
G01 X5.2218 Y9.9226
G01 X5.1462 Y9.8956
G01 X5.0737 Y9.8613
G01 X5.0049 Y9.8200
G01 X4.9404 Y9.7722
G01 X4.8810 Y9.7183
G01 X4.8271 Y9.6589
G01 X4.7798 Y9.5951
G01 X4.7380 Y9.5256
G01 X4.7041 Y9.4538
G01 X4.6764 Y9.3767
G01 X4.6572 Y9.2997
G01 X4.6454 Y9.2203
G01 X4.6415 Y9.1401
G01 X4.6455 Y9.0591
G00 Z2.0000
G00 X2.6514 Y14.9922
G01 F60.00
G01 Z-0.1001
G01 F120.00
G01 X2.6526 Y14.9668
G01 X2.6565 Y14.9408
G01 X2.6629 Y14.9153
G01 X2.6717 Y14.8906
G01 X2.6830 Y14.8668
G01 X2.6965 Y14.8443
G01 X2.7121 Y14.8231
G01 X2.7295 Y14.8040
G01 X3.5030 Y14.0304
G01 X3.5222 Y14.0131
G01 X3.5426 Y13.9979
G01 X3.5658 Y13.9839
G01 X3.5896 Y13.9727
G01 X3.6135 Y13.9641
G01 X3.6407 Y13.9573
G01 X3.6658 Y13.9536
G01 X3.6921 Y13.9523
G01 X9.1582 Y13.9523
G01 X16.1642 Y6.9464
G01 X16.1435 Y6.9026
G01 X16.1168 Y6.8279
G01 X16.0973 Y6.7501
G01 X16.0854 Y6.6703
G01 X16.0815 Y6.5897
G01 X16.0855 Y6.5091
G01 X16.0972 Y6.4306
G01 X16.1164 Y6.3536
G01 X16.1437 Y6.2772
G01 X16.1782 Y6.2043
G01 X16.2198 Y6.1351
G01 X16.2671 Y6.0714
G01 X16.3204 Y6.0126
G01 X16.3804 Y5.9580
G01 X16.4449 Y5.9102
G01 X16.5145 Y5.8686
G01 X16.5862 Y5.8347
G01 X16.6610 Y5.8079
G01 X16.7396 Y5.7881
G01 X16.8194 Y5.7763
G01 X16.8992 Y5.7724
G01 X16.9784 Y5.7763
G01 X17.0587 Y5.7881
G01 X17.1365 Y5.8076
G01 X17.2113 Y5.8344
G01 X17.2846 Y5.8690
G01 X17.3535 Y5.9102
G01 X17.4172 Y5.9575
G01 X17.4774 Y6.0119
G01 X17.5318 Y6.0721
G01 X17.5791 Y6.1358
G01 X17.6203 Y6.2047
G01 X17.6546 Y6.2772
G01 X17.6814 Y6.3519
G01 X17.7012 Y6.4306
G01 X17.7129 Y6.5100
G01 X17.7168 Y6.5893
G01 X17.7129 Y6.6703
G01 X17.7012 Y6.7497
G01 X17.6819 Y6.8267
G01 X17.6546 Y6.9030
G01 X17.6203 Y6.9756
G01 X17.5795 Y7.0437
G01 X17.5310 Y7.1092
G01 X17.4774 Y7.1683
G01 X17.4186 Y7.2216
G01 X17.3527 Y7.2705
G01 X17.2846 Y7.3113
G01 X17.2121 Y7.3456
G01 X17.1365 Y7.3726
G01 X17.0591 Y7.3920
G01 X16.9793 Y7.4039
G01 X16.9000 Y7.4078
G01 X16.8186 Y7.4038
G01 X16.7396 Y7.3921
G01 X16.6622 Y7.3727
G01 X16.5866 Y7.3457
G01 X16.5429 Y7.3251
G01 X9.4585 Y14.4095
G01 X9.4391 Y14.4272
G01 X9.4180 Y14.4428
G01 X9.3954 Y14.4563
G01 X9.3725 Y14.4672
G01 X9.3469 Y14.4764
G01 X9.3206 Y14.4830
G01 X9.2954 Y14.4867
G01 X9.2692 Y14.4879
G01 X3.8030 Y14.4879
G01 X3.1870 Y15.1040
G01 X3.1870 Y19.2092
G01 X6.3629 Y22.3851
G01 X6.4066 Y22.3645
G01 X6.4814 Y22.3378
G01 X6.5592 Y22.3182
G01 X6.6390 Y22.3064
G01 X6.7192 Y22.3024
G01 X6.7993 Y22.3064
G01 X6.8791 Y22.3182
G01 X6.9569 Y22.3378
G01 X7.0317 Y22.3645
G01 X7.0754 Y22.3851
G01 X10.3603 Y19.1003
G01 X10.3797 Y19.0826
G01 X10.4009 Y19.0669
G01 X10.4234 Y19.0534
G01 X10.4472 Y19.0422
G01 X10.4719 Y19.0333
G01 X10.4974 Y19.0270
G01 X10.5234 Y19.0231
G01 X10.5497 Y19.0218
G01 X17.5507 Y19.0218
G01 X20.0223 Y16.5503
G01 X20.0417 Y16.5326
G01 X20.0625 Y16.5172
G01 X20.0862 Y16.5030
G01 X20.1092 Y16.4922
G01 X20.1339 Y16.4833
G01 X20.1603 Y16.4768
G01 X20.1854 Y16.4731
G01 X20.2108 Y16.4718
G01 X21.1058 Y16.4718
G01 X23.9933 Y13.5843
G01 X23.9898 Y13.5816
G01 X23.9310 Y13.5283
G01 X23.8771 Y13.4689
G01 X23.8293 Y13.4044
G01 X23.7876 Y13.3348
G01 X23.7537 Y13.2630
G01 X23.7269 Y13.1883
G01 X23.7074 Y13.1105
G01 X23.6954 Y13.0303
G01 X23.6915 Y12.9493
G01 X23.6954 Y12.8700
G01 X23.7070 Y12.7915
G01 X23.7267 Y12.7128
G01 X23.7537 Y12.6372
G01 X23.7876 Y12.5654
G01 X23.8295 Y12.4955
G01 X23.8771 Y12.4314
G01 X23.9304 Y12.3726
G01 X23.9908 Y12.3178
G01 X24.0549 Y12.2702
G01 X24.1233 Y12.2292
G01 X24.1958 Y12.1948
G01 X24.2413 Y12.1785
G01 X24.2413 Y7.4480
G01 X24.2024 Y7.4382
G01 X24.1176 Y7.4078
G01 X24.0366 Y7.3695
G01 X23.9597 Y7.3234
G01 X23.8863 Y7.2689
G01 X23.8203 Y7.2090
G01 X23.7595 Y7.1420
G01 X23.7061 Y7.0700
G01 X23.6598 Y6.9927
G01 X23.6213 Y6.9113
G01 X23.5913 Y6.8273
G01 X23.5689 Y6.7383
G01 X23.5559 Y6.6501
G01 X23.5515 Y6.5597
G01 X23.5559 Y6.4702
G01 X23.5689 Y6.3819
G01 X23.5910 Y6.2937
G01 X23.6217 Y6.2081
G01 X23.6598 Y6.1275
G01 X23.7061 Y6.0503
G01 X23.7603 Y5.9773
G01 X23.8203 Y5.9112
G01 X23.8870 Y5.8507
G01 X23.9601 Y5.7966
G01 X24.0366 Y5.7508
G01 X24.1180 Y5.7123
G01 X24.2028 Y5.6819
G01 X24.2910 Y5.6599
G01 X24.3801 Y5.6468
G01 X24.4692 Y5.6424
G01 X24.5582 Y5.6468
G01 X24.6482 Y5.6601
G01 X24.7356 Y5.6819
G01 X24.8204 Y5.7123
G01 X24.9025 Y5.7512
G01 X24.9790 Y5.7971
G01 X25.0507 Y5.8502
G01 X25.1174 Y5.9106
G01 X25.1786 Y5.9779
G01 X25.2322 Y6.0503
G01 X25.2789 Y6.1283
G01 X25.3170 Y6.2089
G01 X25.3471 Y6.2929
G01 X25.3692 Y6.3811
G01 X25.3824 Y6.4702
G01 X25.3869 Y6.5601
G01 X25.3825 Y6.6492
G01 X25.3690 Y6.7400
G01 X25.3473 Y6.8265
G01 X25.3170 Y6.9113
G01 X25.2785 Y6.9927
G01 X25.2324 Y7.0696
G01 X25.1780 Y7.1430
G01 X25.1181 Y7.2090
G01 X25.0510 Y7.2698
G01 X24.9790 Y7.3232
G01 X24.9021 Y7.3693
G01 X24.8208 Y7.4078
G01 X24.7770 Y7.4235
G01 X24.7770 Y12.1785
G01 X24.8225 Y12.1948
G01 X24.8942 Y12.2288
G01 X24.9631 Y12.2700
G01 X25.0279 Y12.3180
G01 X25.0874 Y12.3719
G01 X25.1413 Y12.4314
G01 X25.1893 Y12.4962
G01 X25.2305 Y12.5650
G01 X25.2645 Y12.6368
G01 X25.2808 Y12.6823
G01 X27.5476 Y12.6823
G01 X27.5639 Y12.6368
G01 X27.5982 Y12.5643
G01 X27.6393 Y12.4958
G01 X27.6874 Y12.4310
G01 X27.7410 Y12.3719
G01 X27.8004 Y12.3180
G01 X27.8649 Y12.2702
G01 X27.9333 Y12.2292
G01 X28.0062 Y12.1947
G01 X28.0810 Y12.1679
G01 X28.1605 Y12.1480
G01 X28.2390 Y12.1364
G01 X28.3192 Y12.1324
G01 X28.3993 Y12.1364
G01 X28.4778 Y12.1480
G01 X28.5574 Y12.1679
G01 X28.6321 Y12.1947
G01 X28.7046 Y12.2290
G01 X28.7735 Y12.2702
G01 X28.8372 Y12.3175
G01 X28.8980 Y12.3726
G01 X28.9513 Y12.4314
G01 X28.9991 Y12.4958
G01 X29.0403 Y12.5647
G01 X29.0743 Y12.6364
G01 X29.1019 Y12.7136
G01 X29.1212 Y12.7906
G01 X29.1330 Y12.8704
G01 X29.1369 Y12.9501
G01 X29.1329 Y13.0303
G01 X29.1212 Y13.1097
G01 X29.1017 Y13.1875
G01 X29.0746 Y13.2630
G01 X29.0403 Y13.3356
G01 X28.9991 Y13.4044
G01 X28.9513 Y13.4689
G01 X28.8974 Y13.5283
G01 X28.8379 Y13.5822
G01 X28.7735 Y13.6300
G01 X28.7046 Y13.6713
G01 X28.6321 Y13.7056
G01 X28.5565 Y13.7326
G01 X28.4787 Y13.7521
G01 X28.3993 Y13.7639
G01 X28.3192 Y13.7678
G01 X28.2399 Y13.7640
G01 X28.1588 Y13.7519
G01 X28.0818 Y13.7326
G01 X28.0062 Y13.7056
G01 X27.9337 Y13.6713
G01 X27.8652 Y13.6303
G01 X27.8004 Y13.5822
G01 X27.7416 Y13.5289
G01 X27.6868 Y13.4685
G01 X27.6393 Y13.4044
G01 X27.5982 Y13.3360
G01 X27.5639 Y13.2634
G01 X27.5476 Y13.2179
G01 X25.2808 Y13.2179
G01 X25.2645 Y13.2634
G01 X25.2305 Y13.3352
G01 X25.1888 Y13.4048
G01 X25.1413 Y13.4689
G01 X25.0880 Y13.5277
G01 X25.0276 Y13.5825
G01 X24.9635 Y13.6300
G01 X24.8954 Y13.6708
G01 X24.8217 Y13.7057
G01 X24.7465 Y13.7326
G01 X24.6691 Y13.7520
G01 X24.5897 Y13.7638
G01 X24.5703 Y13.7648
G01 X21.4061 Y16.9290
G01 X21.3866 Y16.9467
G01 X21.3648 Y16.9628
G01 X21.3430 Y16.9758
G01 X21.3192 Y16.9871
G01 X21.2945 Y16.9959
G01 X21.2698 Y17.0021
G01 X21.2421 Y17.0062
G01 X21.2167 Y17.0075
G01 X20.3226 Y17.0075
G01 X17.8510 Y19.4790
G01 X17.8316 Y19.4967
G01 X17.8104 Y19.5123
G01 X17.7879 Y19.5258
G01 X17.7633 Y19.5374
G01 X17.7394 Y19.5459
G01 X17.7139 Y19.5523
G01 X17.6879 Y19.5562
G01 X17.6617 Y19.5575
G01 X10.6606 Y19.5575
G01 X7.4542 Y22.7639
G01 X7.4748 Y22.8076
G01 X7.5015 Y22.8823
G01 X7.5211 Y22.9602
G01 X7.5329 Y23.0400
G01 X7.5369 Y23.1206
G01 X7.5328 Y23.2011
G01 X7.5212 Y23.2797
G01 X7.5019 Y23.3567
G01 X7.4746 Y23.4330
G01 X7.4401 Y23.5060
G01 X7.3986 Y23.5751
G01 X7.3513 Y23.6389
G01 X7.2980 Y23.6977
G01 X7.2379 Y23.7522
G01 X7.1735 Y23.8000
G01 X7.1039 Y23.8417
G01 X7.0321 Y23.8756
G01 X6.9574 Y23.9023
G01 X6.8787 Y23.9221
G01 X6.7989 Y23.9339
G01 X6.7192 Y23.9378
G01 X6.6382 Y23.9338
G01 X6.5596 Y23.9221
G01 X6.4826 Y23.9028
G01 X6.4071 Y23.8759
G01 X6.3337 Y23.8413
G01 X6.2649 Y23.8000
G01 X6.2004 Y23.7522
G01 X6.1404 Y23.6977
G01 X6.0871 Y23.6389
G01 X6.0398 Y23.5751
G01 X5.9980 Y23.5056
G01 X5.9637 Y23.4330
G01 X5.9369 Y23.3583
G01 X5.9171 Y23.2792
G01 X5.9054 Y23.2003
G01 X5.9015 Y23.1210
G01 X5.9055 Y23.0395
G01 X5.9172 Y22.9606
G01 X5.9366 Y22.8832
G01 X5.9635 Y22.8076
G01 X5.9842 Y22.7639
G01 X2.7298 Y19.5095
G01 X2.7121 Y19.4900
G01 X2.6965 Y19.4689
G01 X2.6830 Y19.4464
G01 X2.6721 Y19.4234
G01 X2.6629 Y19.3979
G01 X2.6565 Y19.3724
G01 X2.6526 Y19.3464
G01 X2.6513 Y19.3201
G01 X2.6514 Y14.9922
G00 Z2.0000
G00 X3.3755 Y15.4091
G01 F60.00
G01 Z-0.1001
G01 F120.00
G01 X3.3872 Y15.3306
G01 X3.4067 Y15.2528
G01 X3.4337 Y15.1772
G01 X3.4680 Y15.1047
G01 X3.5093 Y15.0358
G01 X3.5571 Y14.9714
G01 X3.6110 Y14.9119
G01 X3.6698 Y14.8586
G01 X3.7356 Y14.8098
G01 X3.8037 Y14.7690
G01 X3.8771 Y14.7344
G01 X3.9518 Y14.7076
G01 X4.0296 Y14.6881
G01 X4.1090 Y14.6764
G01 X4.1887 Y14.6724
G01 X4.2702 Y14.6765
G01 X4.3487 Y14.6881
G01 X4.4265 Y14.7076
G01 X4.5021 Y14.7347
G01 X4.5739 Y14.7686
G01 X4.6438 Y14.8105
G01 X4.7079 Y14.8580
G01 X4.7667 Y14.9113
G01 X4.8218 Y14.9721
G01 X4.8691 Y15.0358
G01 X4.9103 Y15.1047
G01 X4.9446 Y15.1772
G01 X4.9644 Y15.2323
G01 X5.9476 Y15.2323
G01 X5.9639 Y15.1868
G01 X5.9982 Y15.1143
G01 X6.0393 Y15.0458
G01 X6.0868 Y14.9817
G01 X6.1416 Y14.9213
G01 X6.2004 Y14.8680
G01 X6.2645 Y14.8205
G01 X6.3345 Y14.7786
G01 X6.4062 Y14.7447
G01 X6.4818 Y14.7176
G01 X6.5596 Y14.6981
G01 X6.6382 Y14.6865
G01 X6.7192 Y14.6824
G01 X6.8002 Y14.6865
G01 X6.8787 Y14.6981
G01 X6.9565 Y14.7176
G01 X7.0321 Y14.7447
G01 X7.1039 Y14.7786
G01 X7.1738 Y14.8205
G01 X7.2379 Y14.8680
G01 X7.2967 Y14.9213
G01 X7.3515 Y14.9817
G01 X7.3991 Y15.0458
G01 X7.4401 Y15.1143
G01 X7.4745 Y15.1868
G01 X7.4908 Y15.2323
G01 X10.4182 Y15.2323
G01 X16.1642 Y9.4864
G01 X16.1435 Y9.4426
G01 X16.1166 Y9.3671
G01 X16.0972 Y9.2897
G01 X16.0855 Y9.2107
G01 X16.0815 Y9.1293
G01 X16.0854 Y9.0500
G01 X16.0973 Y8.9702
G01 X16.1167 Y8.8928
G01 X16.1434 Y8.8180
G01 X16.1784 Y8.7439
G01 X16.2193 Y8.6758
G01 X16.2671 Y8.6114
G01 X16.3210 Y8.5519
G01 X16.3798 Y8.4986
G01 X16.4449 Y8.4502
G01 X16.5137 Y8.4090
G01 X16.5862 Y8.3747
G01 X16.6626 Y8.3474
G01 X16.7396 Y8.3281
G01 X16.8182 Y8.3165
G01 X16.8983 Y8.3124
G01 X16.9793 Y8.3164
G01 X17.0595 Y8.3283
G01 X17.1365 Y8.3476
G01 X17.2113 Y8.3744
G01 X17.2839 Y8.4086
G01 X17.3535 Y8.4502
G01 X17.4179 Y8.4980
G01 X17.4774 Y8.5519
G01 X17.5318 Y8.6121
G01 X17.5795 Y8.6766
G01 X17.6203 Y8.7447
G01 X17.6543 Y8.8164
G01 X17.6819 Y8.8936
G01 X17.7012 Y8.9706
G01 X17.7129 Y9.0500
G01 X17.7168 Y9.1310
G01 X17.7129 Y9.2103
G01 X17.7012 Y9.2897
G01 X17.6817 Y9.3675
G01 X17.6549 Y9.4422
G01 X17.6203 Y9.5156
G01 X17.5791 Y9.5844
G01 X17.5318 Y9.6482
G01 X17.4774 Y9.7083
G01 X17.4179 Y9.7622
G01 X17.3542 Y9.8095
G01 X17.2846 Y9.8513
G01 X17.2121 Y9.8856
G01 X17.1374 Y9.9123
G01 X17.0583 Y9.9322
G01 X16.9793 Y9.9439
G01 X16.9000 Y9.9478
G01 X16.8186 Y9.9438
G01 X16.7396 Y9.9321
G01 X16.6622 Y9.9127
G01 X16.5866 Y9.8857
G01 X16.5429 Y9.8651
G01 X10.7185 Y15.6895
G01 X10.6991 Y15.7072
G01 X10.6780 Y15.7228
G01 X10.6554 Y15.7363
G01 X10.6325 Y15.7472
G01 X10.6069 Y15.7564
G01 X10.5814 Y15.7628
G01 X10.5554 Y15.7667
G01 X10.5292 Y15.7679
G01 X7.4908 Y15.7679
G01 X7.4745 Y15.8134
G01 X7.4401 Y15.8860
G01 X7.3991 Y15.9544
G01 X7.3515 Y16.0185
G01 X7.2967 Y16.0789
G01 X7.2379 Y16.1322
G01 X7.1738 Y16.1798
G01 X7.1039 Y16.2217
G01 X7.0321 Y16.2556
G01 X6.9565 Y16.2826
G01 X6.8787 Y16.3021
G01 X6.8002 Y16.3138
G01 X6.7192 Y16.3178
G01 X6.6382 Y16.3138
G01 X6.5596 Y16.3021
G01 X6.4818 Y16.2826
G01 X6.4062 Y16.2556
G01 X6.3345 Y16.2217
G01 X6.2645 Y16.1798
G01 X6.2004 Y16.1322
G01 X6.1416 Y16.0789
G01 X6.0868 Y16.0185
G01 X6.0393 Y15.9544
G01 X5.9982 Y15.8860
G01 X5.9639 Y15.8134
G01 X5.9476 Y15.7679
G01 X4.9572 Y15.7679
G01 X4.9445 Y15.8034
G01 X4.9101 Y15.8760
G01 X4.8691 Y15.9444
G01 X4.8215 Y16.0085
G01 X4.7667 Y16.0689
G01 X4.7079 Y16.1222
G01 X4.6438 Y16.1698
G01 X4.5739 Y16.2117
G01 X4.5021 Y16.2456
G01 X4.4265 Y16.2726
G01 X4.3487 Y16.2921
G01 X4.2702 Y16.3038
G01 X4.1883 Y16.3078
G01 X4.1090 Y16.3039
G01 X4.0296 Y16.2921
G01 X3.9518 Y16.2726
G01 X3.8755 Y16.2452
G01 X3.8037 Y16.2113
G01 X3.7356 Y16.1705
G01 X3.6711 Y16.1228
G01 X3.6110 Y16.0683
G01 X3.5576 Y16.0095
G01 X3.5093 Y15.9444
G01 X3.4680 Y15.8756
G01 X3.4337 Y15.8030
G01 X3.4067 Y15.7275
G01 X3.3872 Y15.6497
G01 X3.3754 Y15.5703
G01 X3.3715 Y15.4901
G01 X3.3755 Y15.4091
G00 Z2.0000
G00 X3.3755 Y17.9491
G01 F60.00
G01 Z-0.1001
G01 F120.00
G01 X3.3872 Y17.8706
G01 X3.4067 Y17.7928
G01 X3.4337 Y17.7172
G01 X3.4676 Y17.6454
G01 X3.5098 Y17.5751
G01 X3.5571 Y17.5114
G01 X3.6110 Y17.4519
G01 X3.6704 Y17.3980
G01 X3.7342 Y17.3507
G01 X3.8045 Y17.3086
G01 X3.8762 Y17.2747
G01 X3.9518 Y17.2476
G01 X4.0296 Y17.2281
G01 X4.1082 Y17.2165
G01 X4.1900 Y17.2124
G01 X4.2693 Y17.2164
G01 X4.3495 Y17.2283
G01 X4.4265 Y17.2476
G01 X4.5021 Y17.2747
G01 X4.5746 Y17.3090
G01 X4.6431 Y17.3500
G01 X4.7079 Y17.3980
G01 X4.7667 Y17.4513
G01 X4.8215 Y17.5117
G01 X4.8691 Y17.5758
G01 X4.9101 Y17.6443
G01 X4.9445 Y17.7168
G01 X4.9608 Y17.7623
G01 X5.9511 Y17.7623
G01 X5.9639 Y17.7268
G01 X5.9978 Y17.6550
G01 X6.0395 Y17.5855
G01 X6.0871 Y17.5214
G01 X6.1404 Y17.4626
G01 X6.2001 Y17.4083
G01 X6.2656 Y17.3598
G01 X6.3337 Y17.3190
G01 X6.4055 Y17.2850
G01 X6.4818 Y17.2576
G01 X6.5605 Y17.2380
G01 X6.6390 Y17.2264
G01 X6.7200 Y17.2224
G01 X6.8002 Y17.2265
G01 X6.8787 Y17.2381
G01 X6.9557 Y17.2574
G01 X7.0321 Y17.2847
G01 X7.1046 Y17.3190
G01 X7.1735 Y17.3602
G01 X7.2376 Y17.4078
G01 X7.2974 Y17.4619
G01 X7.3518 Y17.5221
G01 X7.3991 Y17.5858
G01 X7.4399 Y17.6539
G01 X7.4746 Y17.7272
G01 X7.5017 Y17.8028
G01 X7.5213 Y17.8815
G01 X7.5329 Y17.9600
G01 X7.5368 Y18.0393
G01 X7.5329 Y18.1203
G01 X7.5212 Y18.1997
G01 X7.5019 Y18.2767
G01 X7.4746 Y18.3530
G01 X7.4399 Y18.4263
G01 X7.3991 Y18.4944
G01 X7.3515 Y18.5585
G01 X7.2967 Y18.6189
G01 X7.2379 Y18.6722
G01 X7.1738 Y18.7198
G01 X7.1042 Y18.7615
G01 X7.0325 Y18.7954
G01 X6.9870 Y18.8117
G01 X6.9870 Y19.8085
G01 X7.0325 Y19.8248
G01 X7.1042 Y19.8588
G01 X7.1731 Y19.9000
G01 X7.2379 Y19.9480
G01 X7.2977 Y20.0022
G01 X7.3518 Y20.0621
G01 X7.3991 Y20.1258
G01 X7.4399 Y20.1939
G01 X7.4746 Y20.2672
G01 X7.5018 Y20.3432
G01 X7.5213 Y20.4215
G01 X7.5329 Y20.5000
G01 X7.5368 Y20.5793
G01 X7.5329 Y20.6603
G01 X7.5212 Y20.7397
G01 X7.5017 Y20.8175
G01 X7.4743 Y20.8938
G01 X7.4403 Y20.9656
G01 X7.3995 Y21.0337
G01 X7.3515 Y21.0985
G01 X7.2974 Y21.1583
G01 X7.2372 Y21.2128
G01 X7.1735 Y21.2600
G01 X7.1054 Y21.3008
G01 X7.0321 Y21.3356
G01 X6.9565 Y21.3626
G01 X6.8778 Y21.3823
G01 X6.7993 Y21.3939
G01 X6.7200 Y21.3978
G01 X6.6390 Y21.3939
G01 X6.5596 Y21.3821
G01 X6.4810 Y21.3623
G01 X6.4062 Y21.3356
G01 X6.3345 Y21.3017
G01 X6.2649 Y21.2600
G01 X6.1998 Y21.2116
G01 X6.1410 Y21.1583
G01 X6.0876 Y21.0995
G01 X6.0393 Y21.0344
G01 X5.9978 Y20.9652
G01 X5.9637 Y20.8930
G01 X5.9364 Y20.8167
G01 X5.9172 Y20.7397
G01 X5.9055 Y20.6611
G01 X5.9015 Y20.5810
G01 X5.9054 Y20.5000
G01 X5.9172 Y20.4206
G01 X5.9367 Y20.3428
G01 X5.9635 Y20.2676
G01 X5.9980 Y20.1947
G01 X6.0393 Y20.1258
G01 X6.0871 Y20.0614
G01 X6.1413 Y20.0016
G01 X6.2004 Y19.9480
G01 X6.2652 Y19.9000
G01 X6.3341 Y19.8588
G01 X6.4058 Y19.8248
G01 X6.4513 Y19.8085
G01 X6.4513 Y18.8117
G01 X6.4058 Y18.7954
G01 X6.3341 Y18.7615
G01 X6.2652 Y18.7203
G01 X6.2004 Y18.6722
G01 X6.1410 Y18.6183
G01 X6.0871 Y18.5589
G01 X6.0388 Y18.4937
G01 X5.9976 Y18.4248
G01 X5.9637 Y18.3530
G01 X5.9440 Y18.2979
G01 X4.9608 Y18.2979
G01 X4.9445 Y18.3434
G01 X4.9101 Y18.4160
G01 X4.8691 Y18.4844
G01 X4.8215 Y18.5485
G01 X4.7674 Y18.6083
G01 X4.7086 Y18.6616
G01 X4.6431 Y18.7103
G01 X4.5746 Y18.7513
G01 X4.5021 Y18.7856
G01 X4.4265 Y18.8126
G01 X4.3495 Y18.8319
G01 X4.2684 Y18.8440
G01 X4.1892 Y18.8478
G01 X4.1086 Y18.8438
G01 X4.0296 Y18.8321
G01 X3.9518 Y18.8126
G01 X3.8762 Y18.7856
G01 X3.8037 Y18.7513
G01 X3.7349 Y18.7100
G01 X3.6704 Y18.6622
G01 X3.6110 Y18.6083
G01 X3.5571 Y18.5489
G01 X3.5093 Y18.4844
G01 X3.4680 Y18.4156
G01 X3.4337 Y18.3430
G01 X3.4067 Y18.2675
G01 X3.3872 Y18.1897
G01 X3.3754 Y18.1103
G01 X3.3715 Y18.0301
G01 X3.3755 Y17.9491
G00 Z2.0000
G00 X12.8114 Y14.2602
G01 F60.00
G01 Z-0.1001
G01 F120.00
G01 X12.8126 Y14.2349
G01 X12.8165 Y14.2089
G01 X12.8229 Y14.1834
G01 X12.8314 Y14.1594
G01 X12.8434 Y14.1341
G01 X12.8565 Y14.1123
G01 X12.8721 Y14.0912
G01 X12.8895 Y14.0720
G01 X12.9009 Y14.0606
G01 X12.9197 Y14.0436
G01 X12.9412 Y14.0277
G01 X12.9634 Y14.0144
G01 X12.9872 Y14.0032
G01 X13.0119 Y13.9943
G01 X13.0374 Y13.9879
G01 X13.0634 Y13.9841
G01 X13.0897 Y13.9828
G01 X14.1677 Y13.9828
G01 X21.1592 Y6.9914
G01 X21.1213 Y6.9113
G01 X21.0910 Y6.8265
G01 X21.0691 Y6.7392
G01 X21.0560 Y6.6509
G01 X21.0515 Y6.5593
G01 X21.0559 Y6.4702
G01 X21.0691 Y6.3811
G01 X21.0910 Y6.2937
G01 X21.1210 Y6.2097
G01 X21.1603 Y6.1268
G01 X21.2061 Y6.0503
G01 X21.2598 Y5.9779
G01 X21.3203 Y5.9112
G01 X21.3870 Y5.8507
G01 X21.4593 Y5.7971
G01 X21.5366 Y5.7508
G01 X21.6180 Y5.7123
G01 X21.7028 Y5.6819
G01 X21.7901 Y5.6601
G01 X21.8792 Y5.6468
G01 X21.9692 Y5.6424
G01 X22.0591 Y5.6468
G01 X22.1482 Y5.6601
G01 X22.2356 Y5.6819
G01 X22.3204 Y5.7123
G01 X22.4018 Y5.7508
G01 X22.4790 Y5.7971
G01 X22.5513 Y5.8507
G01 X22.6181 Y5.9112
G01 X22.6786 Y5.9779
G01 X22.7322 Y6.0503
G01 X22.7785 Y6.1275
G01 X22.8170 Y6.2089
G01 X22.8473 Y6.2937
G01 X22.8692 Y6.3811
G01 X22.8824 Y6.4702
G01 X22.8869 Y6.5601
G01 X22.8825 Y6.6492
G01 X22.8692 Y6.7392
G01 X22.8473 Y6.8265
G01 X22.8170 Y6.9113
G01 X22.7789 Y6.9919
G01 X22.7322 Y7.0700
G01 X22.6791 Y7.1416
G01 X22.6174 Y7.2096
G01 X22.5513 Y7.2695
G01 X22.4797 Y7.3227
G01 X22.4018 Y7.3695
G01 X22.3204 Y7.4080
G01 X22.2364 Y7.4380
G01 X22.1473 Y7.4603
G01 X22.0591 Y7.4734
G01 X21.9700 Y7.4778
G01 X21.8784 Y7.4733
G01 X21.7901 Y7.4602
G01 X21.7028 Y7.4383
G01 X21.6180 Y7.4080
G01 X21.5379 Y7.3701
G01 X14.4681 Y14.4400
G01 X14.4482 Y14.4579
G01 X14.4275 Y14.4733
G01 X14.4057 Y14.4864
G01 X14.3812 Y14.4981
G01 X14.3564 Y14.5069
G01 X14.3318 Y14.5131
G01 X14.3041 Y14.5172
G01 X14.2787 Y14.5184
G01 X13.3470 Y14.5184
G01 X13.3470 Y16.6692
G01 X13.9829 Y17.3051
G01 X14.0266 Y17.2845
G01 X14.1014 Y17.2578
G01 X14.1792 Y17.2382
G01 X14.2590 Y17.2264
G01 X14.3387 Y17.2224
G01 X14.4193 Y17.2264
G01 X14.4987 Y17.2381
G01 X14.5765 Y17.2576
G01 X14.6521 Y17.2847
G01 X14.7246 Y17.3190
G01 X14.7935 Y17.3602
G01 X14.8579 Y17.4080
G01 X14.9177 Y17.4622
G01 X14.9713 Y17.5214
G01 X15.0193 Y17.5862
G01 X15.0605 Y17.6550
G01 X15.0945 Y17.7268
G01 X15.1108 Y17.7723
G01 X16.2135 Y17.7723
G01 X16.2186 Y17.7523
G01 X16.2453 Y17.6776
G01 X16.2796 Y17.6050
G01 X16.3210 Y17.5358
G01 X16.3686 Y17.4717
G01 X16.4227 Y17.4119
G01 X16.4822 Y17.3580
G01 X16.5466 Y17.3102
G01 X16.6158 Y17.2688
G01 X16.6880 Y17.2347
G01 X16.7644 Y17.2074
G01 X16.8414 Y17.1881
G01 X16.9199 Y17.1765
G01 X17.0001 Y17.1724
G01 X17.0811 Y17.1764
G01 X17.1604 Y17.1881
G01 X17.2383 Y17.2076
G01 X17.3134 Y17.2345
G01 X17.3864 Y17.2690
G01 X17.4559 Y17.3107
G01 X17.5197 Y17.3580
G01 X17.5785 Y17.4113
G01 X17.6330 Y17.4714
G01 X17.6813 Y17.5366
G01 X17.7221 Y17.6047
G01 X17.7560 Y17.6764
G01 X17.7834 Y17.7528
G01 X17.8031 Y17.8315
G01 X17.8147 Y17.9100
G01 X17.8186 Y17.9893
G01 X17.8147 Y18.0703
G01 X17.8027 Y18.1505
G01 X17.7834 Y18.2275
G01 X17.7567 Y18.3022
G01 X17.7221 Y18.3756
G01 X17.6803 Y18.4451
G01 X17.6330 Y18.5089
G01 X17.5797 Y18.5677
G01 X17.5197 Y18.6222
G01 X17.4552 Y18.6700
G01 X17.3856 Y18.7117
G01 X17.3138 Y18.7456
G01 X17.2391 Y18.7723
G01 X17.1613 Y18.7919
G01 X17.0811 Y18.8039
G01 X17.0009 Y18.8078
G01 X16.9208 Y18.8039
G01 X16.8405 Y18.7919
G01 X16.7636 Y18.7726
G01 X16.6888 Y18.7459
G01 X16.6162 Y18.7117
G01 X16.5466 Y18.6700
G01 X16.4822 Y18.6222
G01 X16.4227 Y18.5683
G01 X16.3683 Y18.5082
G01 X16.3206 Y18.4437
G01 X16.2798 Y18.3756
G01 X16.2478 Y18.3079
G01 X15.1108 Y18.3079
G01 X15.0945 Y18.3534
G01 X15.0605 Y18.4252
G01 X15.0188 Y18.4948
G01 X14.9713 Y18.5589
G01 X14.9180 Y18.6177
G01 X14.8576 Y18.6725
G01 X14.7935 Y18.7200
G01 X14.7254 Y18.7608
G01 X14.6521 Y18.7956
G01 X14.5757 Y18.8228
G01 X14.4987 Y18.8421
G01 X14.4197 Y18.8538
G01 X14.3392 Y18.8578
G01 X14.2590 Y18.8539
G01 X14.1796 Y18.8421
G01 X14.1010 Y18.8223
G01 X14.0255 Y18.7952
G01 X13.9537 Y18.7613
G01 X13.8856 Y18.7205
G01 X13.8204 Y18.6722
G01 X13.7616 Y18.6189
G01 X13.7065 Y18.5582
G01 X13.6593 Y18.4944
G01 X13.6180 Y18.4256
G01 X13.5837 Y18.3530
G01 X13.5569 Y18.2783
G01 X13.5371 Y18.1992
G01 X13.5254 Y18.1203
G01 X13.5215 Y18.0410
G01 X13.5255 Y17.9595
G01 X13.5372 Y17.8806
G01 X13.5566 Y17.8032
G01 X13.5835 Y17.7276
G01 X13.6042 Y17.6839
G01 X12.8892 Y16.9689
G01 X12.8721 Y16.9500
G01 X12.8570 Y16.9296
G01 X12.8430 Y16.9064
G01 X12.8314 Y16.8818
G01 X12.8229 Y16.8579
G01 X12.8166 Y16.8328
G01 X12.8126 Y16.8064
G01 X12.8113 Y16.7801
G01 X12.8114 Y14.2602
G00 Z2.0000
G00 X13.5392 Y14.6824
G01 F60.00
G01 Z-0.1001
G01 F120.00
G01 X15.1392 Y14.6824
G01 X15.1426 Y14.6828
G01 X15.1455 Y14.6836
G01 X15.1483 Y14.6849
G01 X15.1507 Y14.6867
G01 X15.1528 Y14.6889
G01 X15.1557 Y14.6938
G01 X15.1565 Y14.6967
G01 X15.1569 Y14.6997
G01 X15.1569 Y15.2323
G01 X16.2257 Y15.2323
G01 X16.2455 Y15.1772
G01 X16.2794 Y15.1054
G01 X16.3210 Y15.0358
G01 X16.3688 Y14.9714
G01 X16.4221 Y14.9126
G01 X16.4825 Y14.8578
G01 X16.5466 Y14.8102
G01 X16.6147 Y14.7694
G01 X16.6880 Y14.7347
G01 X16.7644 Y14.7074
G01 X16.8414 Y14.6881
G01 X16.9203 Y14.6764
G01 X17.0009 Y14.6724
G01 X17.0802 Y14.6763
G01 X17.1613 Y14.6883
G01 X17.2383 Y14.7076
G01 X17.3138 Y14.7347
G01 X17.3864 Y14.7690
G01 X17.4548 Y14.8100
G01 X17.5197 Y14.8580
G01 X17.5785 Y14.9113
G01 X17.6333 Y14.9717
G01 X17.6808 Y15.0358
G01 X17.7219 Y15.1043
G01 X17.7562 Y15.1768
G01 X17.7725 Y15.2223
G01 X19.9276 Y15.2223
G01 X19.9439 Y15.1768
G01 X19.9782 Y15.1043
G01 X20.0193 Y15.0358
G01 X20.0668 Y14.9717
G01 X20.1210 Y14.9119
G01 X20.1798 Y14.8586
G01 X20.2452 Y14.8100
G01 X20.3137 Y14.7690
G01 X20.3862 Y14.7347
G01 X20.4618 Y14.7076
G01 X20.5388 Y14.6883
G01 X20.6199 Y14.6763
G01 X20.6992 Y14.6724
G01 X20.7797 Y14.6764
G01 X20.8587 Y14.6881
G01 X20.9365 Y14.7076
G01 X21.0121 Y14.7347
G01 X21.0846 Y14.7690
G01 X21.1535 Y14.8102
G01 X21.2179 Y14.8580
G01 X21.2774 Y14.9119
G01 X21.3313 Y14.9714
G01 X21.3791 Y15.0358
G01 X21.4203 Y15.1047
G01 X21.4546 Y15.1772
G01 X21.4817 Y15.2528
G01 X21.5012 Y15.3306
G01 X21.5129 Y15.4100
G01 X21.5169 Y15.4901
G01 X21.5129 Y15.5707
G01 X21.5012 Y15.6497
G01 X21.4817 Y15.7275
G01 X21.4546 Y15.8030
G01 X21.4207 Y15.8748
G01 X21.3786 Y15.9451
G01 X21.3313 Y16.0089
G01 X21.2774 Y16.0683
G01 X21.2179 Y16.1222
G01 X21.1535 Y16.1700
G01 X21.0846 Y16.2113
G01 X21.0129 Y16.2452
G01 X20.9357 Y16.2728
G01 X20.8587 Y16.2921
G01 X20.7793 Y16.3039
G01 X20.6992 Y16.3078
G01 X20.6199 Y16.3040
G01 X20.5388 Y16.2919
G01 X20.4618 Y16.2726
G01 X20.3862 Y16.2456
G01 X20.3137 Y16.2113
G01 X20.2452 Y16.1703
G01 X20.1804 Y16.1222
G01 X20.1216 Y16.0689
G01 X20.0668 Y16.0085
G01 X20.0193 Y15.9444
G01 X19.9782 Y15.8760
G01 X19.9439 Y15.8034
G01 X19.9276 Y15.7579
G01 X17.7725 Y15.7579
G01 X17.7562 Y15.8034
G01 X17.7223 Y15.8752
G01 X17.6806 Y15.9448
G01 X17.6330 Y16.0089
G01 X17.5797 Y16.0677
G01 X17.5193 Y16.1225
G01 X17.4552 Y16.1700
G01 X17.3871 Y16.2108
G01 X17.3138 Y16.2456
G01 X17.2374 Y16.2728
G01 X17.1604 Y16.2921
G01 X17.0815 Y16.3038
G01 X17.0009 Y16.3078
G01 X16.9216 Y16.3040
G01 X16.8405 Y16.2919
G01 X16.7636 Y16.2726
G01 X16.6880 Y16.2456
G01 X16.6155 Y16.2113
G01 X16.5470 Y16.1703
G01 X16.4822 Y16.1222
G01 X16.4233 Y16.0689
G01 X16.3686 Y16.0085
G01 X16.3210 Y15.9444
G01 X16.2800 Y15.8760
G01 X16.2456 Y15.8034
G01 X16.2329 Y15.7679
G01 X15.1569 Y15.7680
G01 X15.1569 Y16.3006
G01 X15.1558 Y16.3061
G01 X15.1534 Y16.3107
G01 X15.1494 Y16.3146
G01 X15.1447 Y16.3169
G01 X15.1392 Y16.3178
G01 X13.5370 Y16.3177
G01 X13.5340 Y16.3171
G01 X13.5308 Y16.3157
G01 X13.5283 Y16.3141
G01 X13.5261 Y16.3120
G01 X13.5242 Y16.3096
G01 X13.5227 Y16.3065
G01 X13.5217 Y16.3032
G01 X13.5215 Y16.3001
G01 X13.5215 Y14.7001
G01 X13.5218 Y14.6967
G01 X13.5228 Y14.6934
G01 X13.5244 Y14.6903
G01 X13.5266 Y14.6876
G01 X13.5293 Y14.6854
G01 X13.5324 Y14.6838
G01 X13.5357 Y14.6828
G01 X13.5392 Y14.6824
G00 Z2.0000
G00 X23.6955 Y17.9491
G01 F60.00
G01 Z-0.1001
G01 F120.00
G01 X23.7072 Y17.8706
G01 X23.7264 Y17.7936
G01 X23.7541 Y17.7164
G01 X23.7880 Y17.6447
G01 X23.8293 Y17.5758
G01 X23.8771 Y17.5114
G01 X23.9304 Y17.4526
G01 X23.9911 Y17.3975
G01 X24.0549 Y17.3502
G01 X24.1237 Y17.3090
G01 X24.1962 Y17.2747
G01 X24.2710 Y17.2479
G01 X24.3505 Y17.2280
G01 X24.4290 Y17.2164
G01 X24.5092 Y17.2124
G01 X24.5893 Y17.2164
G01 X24.6687 Y17.2281
G01 X24.7465 Y17.2476
G01 X24.8221 Y17.2747
G01 X24.8946 Y17.3090
G01 X24.9627 Y17.3498
G01 X25.0279 Y17.3980
G01 X25.0874 Y17.4519
G01 X25.1413 Y17.5114
G01 X25.1886 Y17.5751
G01 X25.2303 Y17.6447
G01 X25.2643 Y17.7164
G01 X25.2914 Y17.7919
G01 X25.2941 Y17.8023
G01 X27.5476 Y17.8023
G01 X27.5639 Y17.7568
G01 X27.5982 Y17.6843
G01 X27.6393 Y17.6158
G01 X27.6868 Y17.5517
G01 X27.7416 Y17.4913
G01 X27.8004 Y17.4380
G01 X27.8645 Y17.3905
G01 X27.9345 Y17.3486
G01 X28.0062 Y17.3147
G01 X28.0818 Y17.2876
G01 X28.1596 Y17.2681
G01 X28.2382 Y17.2565
G01 X28.3196 Y17.2524
G01 X28.3993 Y17.2564
G01 X28.4787 Y17.2681
G01 X28.5565 Y17.2876
G01 X28.6321 Y17.3147
G01 X28.7046 Y17.3490
G01 X28.7735 Y17.3902
G01 X28.8379 Y17.4380
G01 X28.8974 Y17.4919
G01 X28.9513 Y17.5514
G01 X28.9991 Y17.6158
G01 X29.0403 Y17.6847
G01 X29.0746 Y17.7572
G01 X29.1017 Y17.8328
G01 X29.1212 Y17.9106
G01 X29.1329 Y17.9900
G01 X29.1369 Y18.0706
G01 X29.1329 Y18.1503
G01 X29.1212 Y18.2297
G01 X29.1017 Y18.3075
G01 X29.0749 Y18.3822
G01 X29.0399 Y18.4563
G01 X28.9991 Y18.5244
G01 X28.9513 Y18.5889
G01 X28.8974 Y18.6483
G01 X28.8379 Y18.7022
G01 X28.7735 Y18.7500
G01 X28.7054 Y18.7908
G01 X28.6313 Y18.8259
G01 X28.5565 Y18.8526
G01 X28.4783 Y18.8722
G01 X28.3993 Y18.8839
G01 X28.3192 Y18.8878
G01 X28.2390 Y18.8839
G01 X28.1605 Y18.8723
G01 X28.0810 Y18.8523
G01 X28.0062 Y18.8256
G01 X27.9333 Y18.7911
G01 X27.8649 Y18.7500
G01 X27.8004 Y18.7022
G01 X27.7410 Y18.6483
G01 X27.6874 Y18.5892
G01 X27.6393 Y18.5244
G01 X27.5982 Y18.4560
G01 X27.5639 Y18.3834
G01 X27.5476 Y18.3379
G01 X25.2665 Y18.3379
G01 X25.2643 Y18.3438
G01 X25.2299 Y18.4163
G01 X25.1891 Y18.4844
G01 X25.1413 Y18.5489
G01 X25.0874 Y18.6083
G01 X25.0286 Y18.6616
G01 X24.9635 Y18.7100
G01 X24.8946 Y18.7513
G01 X24.8229 Y18.7852
G01 X24.7465 Y18.8126
G01 X24.6687 Y18.8321
G01 X24.5902 Y18.8438
G01 X24.5087 Y18.8478
G01 X24.4290 Y18.8439
G01 X24.3496 Y18.8321
G01 X24.2718 Y18.8126
G01 X24.1955 Y18.7852
G01 X24.1237 Y18.7513
G01 X24.0556 Y18.7105
G01 X23.9911 Y18.6628
G01 X23.9310 Y18.6083
G01 X23.8776 Y18.5495
G01 X23.8293 Y18.4844
G01 X23.7880 Y18.4156
G01 X23.7537 Y18.3430
G01 X23.7267 Y18.2675
G01 X23.7072 Y18.1897
G01 X23.6954 Y18.1103
G01 X23.6915 Y18.0301
G01 X23.6955 Y17.9491
G00 Z2.0000
G00 X26.0560 Y6.4693
G01 F60.00
G01 Z-0.1001
G01 F120.00
G01 X26.0691 Y6.3811
G01 X26.0910 Y6.2937
G01 X26.1213 Y6.2089
G01 X26.1598 Y6.1275
G01 X26.2061 Y6.0503
G01 X26.2598 Y5.9779
G01 X26.3203 Y5.9112
G01 X26.3870 Y5.8507
G01 X26.4593 Y5.7971
G01 X26.5366 Y5.7508
G01 X26.6180 Y5.7123
G01 X26.7028 Y5.6819
G01 X26.7901 Y5.6601
G01 X26.8792 Y5.6468
G01 X26.9692 Y5.6424
G01 X27.0591 Y5.6468
G01 X27.1482 Y5.6601
G01 X27.2356 Y5.6819
G01 X27.3204 Y5.7123
G01 X27.4018 Y5.7508
G01 X27.4790 Y5.7971
G01 X27.5513 Y5.8507
G01 X27.6181 Y5.9112
G01 X27.6786 Y5.9779
G01 X27.7322 Y6.0503
G01 X27.7785 Y6.1275
G01 X27.8170 Y6.2089
G01 X27.8473 Y6.2937
G01 X27.8692 Y6.3811
G01 X27.8824 Y6.4702
G01 X27.8869 Y6.5601
G01 X27.8824 Y6.6501
G01 X27.8692 Y6.7392
G01 X27.8473 Y6.8265
G01 X27.8170 Y6.9113
G01 X27.7785 Y6.9927
G01 X27.7322 Y7.0700
G01 X27.6786 Y7.1423
G01 X27.6181 Y7.2090
G01 X27.5513 Y7.2695
G01 X27.4790 Y7.3232
G01 X27.4018 Y7.3695
G01 X27.3204 Y7.4080
G01 X27.2356 Y7.4383
G01 X27.1482 Y7.4602
G01 X27.0591 Y7.4734
G01 X26.9692 Y7.4778
G01 X26.8792 Y7.4734
G01 X26.7901 Y7.4602
G01 X26.7028 Y7.4383
G01 X26.6180 Y7.4080
G01 X26.5366 Y7.3695
G01 X26.4593 Y7.3232
G01 X26.3870 Y7.2695
G01 X26.3203 Y7.2090
G01 X26.2598 Y7.1423
G01 X26.2061 Y7.0700
G01 X26.1598 Y6.9927
G01 X26.1213 Y6.9113
G01 X26.0910 Y6.8265
G01 X26.0691 Y6.7392
G01 X26.0559 Y6.6501
G01 X26.0515 Y6.5601
G01 X26.0560 Y6.4693
G00 Z2.0000
G00 X26.0560 Y3.9693
G01 F60.00
G01 Z-0.1001
G01 F120.00
G01 X26.0691 Y3.8811
G01 X26.0910 Y3.7937
G01 X26.1213 Y3.7089
G01 X26.1598 Y3.6275
G01 X26.2061 Y3.5503
G01 X26.2598 Y3.4779
G01 X26.3203 Y3.4112
G01 X26.3870 Y3.3507
G01 X26.4593 Y3.2971
G01 X26.5366 Y3.2508
G01 X26.6180 Y3.2123
G01 X26.7028 Y3.1819
G01 X26.7901 Y3.1601
G01 X26.8792 Y3.1468
G01 X26.9692 Y3.1424
G01 X27.0591 Y3.1468
G01 X27.1482 Y3.1601
G01 X27.2356 Y3.1819
G01 X27.3204 Y3.2123
G01 X27.4018 Y3.2508
G01 X27.4790 Y3.2971
G01 X27.5513 Y3.3507
G01 X27.6181 Y3.4112
G01 X27.6786 Y3.4779
G01 X27.7322 Y3.5503
G01 X27.7785 Y3.6275
G01 X27.8170 Y3.7089
G01 X27.8473 Y3.7937
G01 X27.8692 Y3.8811
G01 X27.8824 Y3.9702
G01 X27.8869 Y4.0601
G01 X27.8824 Y4.1501
G01 X27.8692 Y4.2392
G01 X27.8473 Y4.3265
G01 X27.8170 Y4.4113
G01 X27.7785 Y4.4927
G01 X27.7322 Y4.5700
G01 X27.6786 Y4.6423
G01 X27.6181 Y4.7090
G01 X27.5513 Y4.7695
G01 X27.4790 Y4.8232
G01 X27.4018 Y4.8695
G01 X27.3204 Y4.9080
G01 X27.2356 Y4.9383
G01 X27.1482 Y4.9602
G01 X27.0591 Y4.9734
G01 X26.9692 Y4.9778
G01 X26.8792 Y4.9734
G01 X26.7901 Y4.9602
G01 X26.7028 Y4.9383
G01 X26.6180 Y4.9080
G01 X26.5366 Y4.8695
G01 X26.4593 Y4.8232
G01 X26.3870 Y4.7695
G01 X26.3203 Y4.7090
G01 X26.2598 Y4.6423
G01 X26.2061 Y4.5700
G01 X26.1598 Y4.4927
G01 X26.1213 Y4.4113
G01 X26.0910 Y4.3265
G01 X26.0691 Y4.2392
G01 X26.0559 Y4.1501
G01 X26.0515 Y4.0601
G01 X26.0560 Y3.9693
G00 Z2.0000
G00 X16.0855 Y3.9691
G01 F60.00
G01 Z-0.1001
G01 F120.00
G01 X16.0972 Y3.8906
G01 X16.1167 Y3.8128
G01 X16.1437 Y3.7372
G01 X16.1776 Y3.6654
G01 X16.2198 Y3.5951
G01 X16.2671 Y3.5314
G01 X16.3210 Y3.4719
G01 X16.3804 Y3.4180
G01 X16.4449 Y3.3702
G01 X16.5137 Y3.3290
G01 X16.5855 Y3.2950
G01 X16.6626 Y3.2674
G01 X16.7396 Y3.2481
G01 X16.8190 Y3.2364
G01 X16.9000 Y3.2324
G01 X16.9793 Y3.2364
G01 X17.0587 Y3.2481
G01 X17.1374 Y3.2679
G01 X17.2121 Y3.2947
G01 X17.2842 Y3.3288
G01 X17.3535 Y3.3702
G01 X17.4179 Y3.4180
G01 X17.4774 Y3.4719
G01 X17.5310 Y3.5310
G01 X17.5791 Y3.5958
G01 X17.6201 Y3.6643
G01 X17.6545 Y3.7368
G01 X17.6708 Y3.7823
G01 X17.9196 Y3.7823
G01 X19.1810 Y2.5209
G01 X19.2001 Y2.5036
G01 X19.2213 Y2.4879
G01 X19.2438 Y2.4744
G01 X19.2668 Y2.4635
G01 X19.2931 Y2.4541
G01 X19.3178 Y2.4479
G01 X19.3434 Y2.4441
G01 X19.3701 Y2.4428
G01 X23.1196 Y2.4428
G01 X23.1459 Y2.4441
G01 X23.1715 Y2.4478
G01 X23.1982 Y2.4546
G01 X23.2221 Y2.4632
G01 X23.2459 Y2.4744
G01 X23.2692 Y2.4884
G01 X23.2896 Y2.5036
G01 X23.3084 Y2.5206
G01 X24.0379 Y3.2501
G01 X24.1180 Y3.2123
G01 X24.2019 Y3.1822
G01 X24.2893 Y3.1602
G01 X24.3792 Y3.1468
G01 X24.4692 Y3.1424
G01 X24.5591 Y3.1468
G01 X24.6490 Y3.1602
G01 X24.7364 Y3.1822
G01 X24.8204 Y3.2123
G01 X24.9004 Y3.2501
G01 X25.6299 Y2.5206
G01 X25.6488 Y2.5036
G01 X25.6692 Y2.4884
G01 X25.6924 Y2.4744
G01 X25.7170 Y2.4629
G01 X25.7409 Y2.4543
G01 X25.7660 Y2.4480
G01 X25.7924 Y2.4441
G01 X25.8187 Y2.4428
G01 X27.5286 Y2.4428
G01 X27.5553 Y2.4442
G01 X27.5804 Y2.4479
G01 X27.6051 Y2.4541
G01 X27.6306 Y2.4632
G01 X27.6544 Y2.4744
G01 X27.6769 Y2.4879
G01 X27.6974 Y2.5030
G01 X27.7175 Y2.5212
G01 X28.5088 Y3.3126
G01 X28.5262 Y3.3317
G01 X28.5414 Y3.3521
G01 X28.5554 Y3.3754
G01 X28.5666 Y3.3991
G01 X28.5752 Y3.4231
G01 X28.5819 Y3.4498
G01 X28.5857 Y3.4754
G01 X28.5870 Y3.5016
G01 X28.5870 Y9.6785
G01 X28.6325 Y9.6948
G01 X28.7042 Y9.7288
G01 X28.7731 Y9.7700
G01 X28.8379 Y9.8180
G01 X28.8971 Y9.8716
G01 X28.9513 Y9.9314
G01 X28.9991 Y9.9958
G01 X29.0403 Y10.0647
G01 X29.0748 Y10.1376
G01 X29.1017 Y10.2128
G01 X29.1213 Y10.2915
G01 X29.1329 Y10.3700
G01 X29.1368 Y10.4493
G01 X29.1330 Y10.5294
G01 X29.1212 Y10.6097
G01 X29.1017 Y10.6875
G01 X29.0746 Y10.7630
G01 X29.0403 Y10.8356
G01 X28.9991 Y10.9044
G01 X28.9518 Y10.9682
G01 X28.8974 Y11.0283
G01 X28.8379 Y11.0822
G01 X28.7742 Y11.1295
G01 X28.7039 Y11.1717
G01 X28.6321 Y11.2056
G01 X28.5574 Y11.2323
G01 X28.4778 Y11.2523
G01 X28.3993 Y11.2639
G01 X28.3192 Y11.2678
G01 X28.2390 Y11.2639
G01 X28.1605 Y11.2523
G01 X28.0810 Y11.2323
G01 X28.0062 Y11.2056
G01 X27.9337 Y11.1713
G01 X27.8649 Y11.1300
G01 X27.8011 Y11.0828
G01 X27.7410 Y11.0283
G01 X27.6865 Y10.9682
G01 X27.6393 Y10.9044
G01 X27.5980 Y10.8356
G01 X27.5637 Y10.7630
G01 X27.5369 Y10.6883
G01 X27.5172 Y10.6097
G01 X27.5054 Y10.5303
G01 X27.5015 Y10.4501
G01 X27.5054 Y10.3700
G01 X27.5170 Y10.2915
G01 X27.5369 Y10.2119
G01 X27.5637 Y10.1372
G01 X27.5982 Y10.0643
G01 X27.6393 Y9.9958
G01 X27.6871 Y9.9314
G01 X27.7410 Y9.8719
G01 X27.8001 Y9.8183
G01 X27.8649 Y9.7702
G01 X27.9333 Y9.7292
G01 X28.0058 Y9.6948
G01 X28.0513 Y9.6785
G01 X28.0513 Y3.6126
G01 X27.4172 Y2.9784
G01 X25.9296 Y2.9784
G01 X25.2792 Y3.6289
G01 X25.3170 Y3.7089
G01 X25.3471 Y3.7929
G01 X25.3692 Y3.8811
G01 X25.3825 Y3.9710
G01 X25.3869 Y4.0601
G01 X25.3825 Y4.1492
G01 X25.3692 Y4.2392
G01 X25.3471 Y4.3273
G01 X25.3170 Y4.4113
G01 X25.2789 Y4.4919
G01 X25.2320 Y4.5703
G01 X25.1786 Y4.6423
G01 X25.1174 Y4.7096
G01 X25.0507 Y4.7701
G01 X24.9790 Y4.8232
G01 X24.9025 Y4.8690
G01 X24.8204 Y4.9080
G01 X24.7356 Y4.9383
G01 X24.6482 Y4.9602
G01 X24.5591 Y4.9734
G01 X24.4683 Y4.9778
G01 X24.3792 Y4.9734
G01 X24.2910 Y4.9603
G01 X24.2028 Y4.9383
G01 X24.1180 Y4.9080
G01 X24.0358 Y4.8690
G01 X23.9593 Y4.8232
G01 X23.8877 Y4.7701
G01 X23.8203 Y4.7090
G01 X23.7595 Y4.6420
G01 X23.7061 Y4.5700
G01 X23.6603 Y4.4935
G01 X23.6213 Y4.4113
G01 X23.5907 Y4.3257
G01 X23.5691 Y4.2392
G01 X23.5559 Y4.1501
G01 X23.5515 Y4.0601
G01 X23.5558 Y3.9710
G01 X23.5691 Y3.8811
G01 X23.5913 Y3.7929
G01 X23.6213 Y3.7089
G01 X23.6592 Y3.6289
G01 X23.0087 Y2.9784
G01 X19.4810 Y2.9784
G01 X18.2199 Y4.2395
G01 X18.1998 Y4.2577
G01 X18.1793 Y4.2728
G01 X18.1575 Y4.2859
G01 X18.1330 Y4.2976
G01 X18.1074 Y4.3066
G01 X18.0828 Y4.3128
G01 X18.0572 Y4.3166
G01 X18.0305 Y4.3179
G01 X17.6708 Y4.3179
G01 X17.6545 Y4.3634
G01 X17.6205 Y4.4352
G01 X17.5788 Y4.5048
G01 X17.5313 Y4.5689
G01 X17.4780 Y4.6277
G01 X17.4176 Y4.6825
G01 X17.3535 Y4.7300
G01 X17.2854 Y4.7708
G01 X17.2121 Y4.8056
G01 X17.1357 Y4.8328
G01 X17.0587 Y4.8521
G01 X16.9802 Y4.8638
G01 X16.8992 Y4.8678
G01 X16.8190 Y4.8639
G01 X16.7396 Y4.8521
G01 X16.6610 Y4.8323
G01 X16.5855 Y4.8052
G01 X16.5137 Y4.7713
G01 X16.4456 Y4.7305
G01 X16.3804 Y4.6822
G01 X16.3210 Y4.6283
G01 X16.2671 Y4.5689
G01 X16.2188 Y4.5037
G01 X16.1780 Y4.4356
G01 X16.1441 Y4.3638
G01 X16.1169 Y4.2883
G01 X16.0972 Y4.2097
G01 X16.0854 Y4.1303
G01 X16.0815 Y4.0501
G01 X16.0855 Y3.9691
G00 Z2.0000
G00 X8.4655 Y3.9691
G01 F60.00
G01 Z-0.1001
G01 F120.00
G01 X8.4772 Y3.8906
G01 X8.4964 Y3.8136
G01 X8.5234 Y3.7380
G01 X8.5580 Y3.6647
G01 X8.5993 Y3.5958
G01 X8.6471 Y3.5314
G01 X8.7016 Y3.4713
G01 X8.7604 Y3.4180
G01 X8.8242 Y3.3707
G01 X8.8933 Y3.3292
G01 X8.9662 Y3.2947
G01 X9.0426 Y3.2674
G01 X9.1196 Y3.2481
G01 X9.1982 Y3.2365
G01 X9.2787 Y3.2324
G01 X9.3593 Y3.2364
G01 X9.4391 Y3.2482
G01 X9.5169 Y3.2678
G01 X9.5917 Y3.2945
G01 X9.6354 Y3.3151
G01 X12.8898 Y0.0607
G01 X12.9093 Y0.0431
G01 X12.9297 Y0.0279
G01 X12.9529 Y0.0139
G01 X12.9775 Y0.0024
G01 X13.0014 Y-0.0062
G01 X13.0269 Y-0.0126
G01 X13.0529 Y-0.0164
G01 X13.0792 Y-0.0177
G01 X27.0492 Y-0.0177
G01 X27.0763 Y-0.0163
G01 X27.1014 Y-0.0126
G01 X27.1261 Y-0.0064
G01 X27.1517 Y0.0027
G01 X27.1758 Y0.0141
G01 X27.1980 Y0.0274
G01 X27.2184 Y0.0426
G01 X27.2385 Y0.0607
G01 X29.7584 Y2.5806
G01 X29.7757 Y2.5997
G01 X29.7914 Y2.6208
G01 X29.8049 Y2.6434
G01 X29.8158 Y2.6663
G01 X29.8252 Y2.6927
G01 X29.8314 Y2.7174
G01 X29.8352 Y2.7430
G01 X29.8365 Y2.7696
G01 X29.8365 Y14.2806
G01 X29.8353 Y14.3060
G01 X29.8312 Y14.3337
G01 X29.8250 Y14.3584
G01 X29.8161 Y14.3831
G01 X29.8049 Y14.4069
G01 X29.7918 Y14.4287
G01 X29.7751 Y14.4512
G01 X29.7581 Y14.4700
G01 X29.0542 Y15.1739
G01 X29.0748 Y15.2176
G01 X29.1015 Y15.2923
G01 X29.1211 Y15.3702
G01 X29.1329 Y15.4500
G01 X29.1369 Y15.5306
G01 X29.1328 Y15.6111
G01 X29.1212 Y15.6897
G01 X29.1019 Y15.7667
G01 X29.0746 Y15.8430
G01 X29.0401 Y15.9160
G01 X28.9991 Y15.9844
G01 X28.9518 Y16.0482
G01 X28.8974 Y16.1083
G01 X28.8372 Y16.1628
G01 X28.7735 Y16.2100
G01 X28.7054 Y16.2508
G01 X28.6321 Y16.2856
G01 X28.5557 Y16.3128
G01 X28.4787 Y16.3321
G01 X28.4002 Y16.3438
G01 X28.3187 Y16.3478
G01 X28.2390 Y16.3439
G01 X28.1605 Y16.3323
G01 X28.0818 Y16.3126
G01 X28.0062 Y16.2856
G01 X27.9345 Y16.2517
G01 X27.8645 Y16.2098
G01 X27.8004 Y16.1622
G01 X27.7416 Y16.1089
G01 X27.6868 Y16.0485
G01 X27.6393 Y15.9844
G01 X27.5982 Y15.9160
G01 X27.5639 Y15.8434
G01 X27.5476 Y15.7979
G01 X25.2665 Y15.7979
G01 X25.2643 Y15.8038
G01 X25.2299 Y15.8763
G01 X25.1891 Y15.9444
G01 X25.1413 Y16.0089
G01 X25.0874 Y16.0683
G01 X25.0286 Y16.1216
G01 X24.9627 Y16.1705
G01 X24.8946 Y16.2113
G01 X24.8221 Y16.2456
G01 X24.7465 Y16.2726
G01 X24.6695 Y16.2919
G01 X24.5884 Y16.3040
G01 X24.5092 Y16.3078
G01 X24.4294 Y16.3039
G01 X24.3496 Y16.2921
G01 X24.2726 Y16.2728
G01 X24.1955 Y16.2452
G01 X24.1237 Y16.2113
G01 X24.0549 Y16.1700
G01 X23.9904 Y16.1222
G01 X23.9310 Y16.0683
G01 X23.8771 Y16.0089
G01 X23.8298 Y15.9451
G01 X23.7876 Y15.8748
G01 X23.7537 Y15.8030
G01 X23.7267 Y15.7275
G01 X23.7072 Y15.6497
G01 X23.6955 Y15.5711
G01 X23.6915 Y15.4893
G01 X23.6954 Y15.4100
G01 X23.7074 Y15.3298
G01 X23.7267 Y15.2528
G01 X23.7537 Y15.1772
G01 X23.7880 Y15.1047
G01 X23.8298 Y15.0351
G01 X23.8771 Y14.9714
G01 X23.9310 Y14.9119
G01 X23.9904 Y14.8580
G01 X24.0549 Y14.8102
G01 X24.1237 Y14.7690
G01 X24.1962 Y14.7347
G01 X24.2718 Y14.7076
G01 X24.3488 Y14.6883
G01 X24.4290 Y14.6764
G01 X24.5092 Y14.6724
G01 X24.5893 Y14.6764
G01 X24.6687 Y14.6881
G01 X24.7465 Y14.7076
G01 X24.8221 Y14.7347
G01 X24.8946 Y14.7690
G01 X24.9627 Y14.8098
G01 X25.0279 Y14.8580
G01 X25.0874 Y14.9119
G01 X25.1413 Y14.9714
G01 X25.1886 Y15.0351
G01 X25.2303 Y15.1047
G01 X25.2643 Y15.1764
G01 X25.2914 Y15.2519
G01 X25.2941 Y15.2623
G01 X27.5476 Y15.2623
G01 X27.5639 Y15.2168
G01 X27.5978 Y15.1450
G01 X27.6390 Y15.0762
G01 X27.6871 Y15.0114
G01 X27.7407 Y14.9522
G01 X27.8004 Y14.8980
G01 X27.8649 Y14.8502
G01 X27.9337 Y14.8090
G01 X28.0062 Y14.7747
G01 X28.0818 Y14.7476
G01 X28.1596 Y14.7281
G01 X28.2390 Y14.7164
G01 X28.3196 Y14.7124
G01 X28.3993 Y14.7164
G01 X28.4791 Y14.7282
G01 X28.5569 Y14.7478
G01 X28.6317 Y14.7745
G01 X28.6754 Y14.7951
G01 X29.3009 Y14.1697
G01 X29.3009 Y2.8806
G01 X26.9382 Y0.5179
G01 X13.1901 Y0.5179
G01 X10.0142 Y3.6939
G01 X10.0348 Y3.7376
G01 X10.0618 Y3.8132
G01 X10.0812 Y3.8906
G01 X10.0930 Y3.9704
G01 X10.0969 Y4.0501
G01 X10.0929 Y4.1303
G01 X10.0812 Y4.2097
G01 X10.0618 Y4.2871
G01 X10.0346 Y4.3630
G01 X10.0007 Y4.4348
G01 X9.9586 Y4.5051
G01 X9.9113 Y4.5689
G01 X9.8574 Y4.6283
G01 X9.7979 Y4.6822
G01 X9.7342 Y4.7295
G01 X9.6639 Y4.7717
G01 X9.5921 Y4.8056
G01 X9.5165 Y4.8326
G01 X9.4387 Y4.8521
G01 X9.3602 Y4.8638
G01 X9.2792 Y4.8678
G01 X9.1990 Y4.8639
G01 X9.1205 Y4.8523
G01 X9.0418 Y4.8326
G01 X8.9655 Y4.8052
G01 X8.8937 Y4.7713
G01 X8.8256 Y4.7305
G01 X8.7598 Y4.6816
G01 X8.7010 Y4.6283
G01 X8.6471 Y4.5689
G01 X8.5988 Y4.5037
G01 X8.5580 Y4.4356
G01 X8.5241 Y4.3638
G01 X8.4967 Y4.2875
G01 X8.4770 Y4.2088
G01 X8.4654 Y4.1303
G01 X8.4615 Y4.0510
G01 X8.4655 Y3.9691
G00 Z2.0000
M05
G00 Z2.0000
G00 Z15.00


