(G-CODE GENERATED BY FLATCAM v8.994 - www.flatcam.org - Version Date: 2020/11/7)

(Name: Filter DualOp-PTH.drl_edit_cnc)
(Type: G-code from Geometry)
(Units: MM)

(Created on Thursday, 07 December 2023 at 20:09)

(This preprocessor is the default preprocessor used by FlatCAM.)
(It is made to work with MACH3 compatible motion controllers.)


(TOOLS DIAMETER: )
(Tool: 1 -> Dia: 0.8)

(FEEDRATE Z: )
(Tool: 1 -> Feedrate: 60.0)

(FEEDRATE RAPIDS: )
(Tool: 1 -> Feedrate Rapids: 1500)

(Z_CUT: )
(Tool: 1 -> Z_Cut: -3.0)

(Tools Offset: )
(Tool: 1 -> Offset Z: 0.0)

(Z_MOVE: )
(Tool: 1 -> Z_Move: 2.0)

(Z Toolchange: 15 mm)
(X,Y Toolchange: 0.0000, 0.0000 mm)
(Z Start: None mm)
(Z End: 0.5 mm)
(X,Y End: None mm)
(Steps per circle: 64)
(Preprocessor Excellon: default)

(X range:    3.7889 ...   28.7189  mm)
(Y range:    1.1104 ...   23.5204  mm)

(Spindle Speed: 0 RPM)
G21
G90
G94

G01 F60.00

M5
G00 Z15.0000
T1
G00 X0.0000 Y0.0000                
M6
(MSG, Change to Tool Dia = 0.8000 ||| Total drills for tool T1 = 39)
M0
G00 Z15.0000

G01 F60.00
M03
G00 X4.1889 Y18.0304
G01 Z-3.0000
G01 Z0
G00 Z2.0000
G00 X6.7189 Y18.0404
G01 Z-3.0000
G01 Z0
G00 Z2.0000
G00 X6.7189 Y15.5004
G01 Z-3.0000
G01 Z0
G00 Z2.0000
G00 X4.1889 Y15.4904
G01 Z-3.0000
G01 Z0
G00 Z2.0000
G00 X4.1889 Y12.9504
G01 Z-3.0000
G01 Z0
G00 Z2.0000
G00 X5.4589 Y9.1404
G01 Z-3.0000
G01 Z0
G00 Z2.0000
G00 X5.4589 Y6.6004
G01 Z-3.0000
G01 Z0
G00 Z2.0000
G00 X4.1889 Y1.5104
G01 Z-3.0000
G01 Z0
G00 Z2.0000
G00 X9.2789 Y1.5104
G01 Z-3.0000
G01 Z0
G00 Z2.0000
G00 X9.2789 Y4.0504
G01 Z-3.0000
G01 Z0
G00 Z2.0000
G00 X9.2789 Y6.5904
G01 Z-3.0000
G01 Z0
G00 Z2.0000
G00 X9.2789 Y9.1304
G01 Z-3.0000
G01 Z0
G00 Z2.0000
G00 X16.8989 Y9.1304
G01 Z-3.0000
G01 Z0
G00 Z2.0000
G00 X16.8989 Y6.5904
G01 Z-3.0000
G01 Z0
G00 Z2.0000
G00 X16.8989 Y4.0504
G01 Z-3.0000
G01 Z0
G00 Z2.0000
G00 X16.8989 Y1.5104
G01 Z-3.0000
G01 Z0
G00 Z2.0000
G00 X21.9689 Y4.0604
G01 Z-3.0000
G01 Z0
G00 Z2.0000
G00 X21.9689 Y6.5604
G01 Z-3.0000
G01 Z0
G00 Z2.0000
G00 X24.4689 Y6.5604
G01 Z-3.0000
G01 Z0
G00 Z2.0000
G00 X24.4689 Y4.0604
G01 Z-3.0000
G01 Z0
G00 Z2.0000
G00 X26.9689 Y4.0604
G01 Z-3.0000
G01 Z0
G00 Z2.0000
G00 X26.9689 Y6.5604
G01 Z-3.0000
G01 Z0
G00 Z2.0000
G00 X28.3189 Y10.4504
G01 Z-3.0000
G01 Z0
G00 Z2.0000
G00 X28.3189 Y12.9504
G01 Z-3.0000
G01 Z0
G00 Z2.0000
G00 X28.3189 Y15.5304
G01 Z-3.0000
G01 Z0
G00 Z2.0000
G00 X28.3189 Y18.0704
G01 Z-3.0000
G01 Z0
G00 Z2.0000
G00 X24.5089 Y18.0304
G01 Z-3.0000
G01 Z0
G00 Z2.0000
G00 X24.5089 Y15.4904
G01 Z-3.0000
G01 Z0
G00 Z2.0000
G00 X24.5089 Y12.9504
G01 Z-3.0000
G01 Z0
G00 Z2.0000
G00 X20.6989 Y15.4904
G01 Z-3.0000
G01 Z0
G00 Z2.0000
G00 X20.6989 Y18.0304
G01 Z-3.0000
G01 Z0
G00 Z2.0000
G00 X17.0009 Y17.9904
G01 Z-3.0000
G01 Z0
G00 Z2.0000
G00 X17.0009 Y15.4904
G01 Z-3.0000
G01 Z0
G00 Z2.0000
G00 X14.3389 Y15.5004
G01 Z-3.0000
G01 Z0
G00 Z2.0000
G00 X14.3389 Y18.0404
G01 Z-3.0000
G01 Z0
G00 Z2.0000
G00 X14.3389 Y20.5804
G01 Z-3.0000
G01 Z0
G00 Z2.0000
G00 X14.3389 Y23.1204
G01 Z-3.0000
G01 Z0
G00 Z2.0000
G00 X6.7189 Y23.1204
G01 Z-3.0000
G01 Z0
G00 Z2.0000
G00 X6.7189 Y20.5804
G01 Z-3.0000
G01 Z0
G00 Z2.0000
M05
G00 Z0.50


